(G-CODE GENERATED BY FLATCAM v8.99 - www.flatcam.org - Version Date: 2019/12/15)

(Name: copper_top.gbr_iso_cnc)
(Type: G-code from Geometry)
(Units: MM)

(Created on Sunday, 09 February 2020 at 10:50)

(TOOL DIAMETER: 0.4 mm)
(Feedrate: 80.0 mm/min)
(Feedrate_Z: 50.0 mm/min)
(Feedrate rapids 1500.0 mm/min)

(Z_Cut: -0.30000000000000004 mm)
(Z_Move: 2.0 mm)
(Z Toolchange: 15.0 mm)
(X,Y Toolchange: 0.0000, 0.0000 mm)
(Z Start: None mm)
(Z End: 15.0 mm)
(Steps per circle: 64)
(Preprocessor Geometry: default)

(X range:    0.3600 ...   24.7001  mm)
(Y range:   -0.2001 ...   15.5000  mm)

(Spindle Speed: None RPM)
G21
G90
G94




G01 F80.00
G00 Z2.0000

M03
G00 X1.6250 Y0.8508
G01 F50.00
G01 Z-0.3000
G01 F80.00
G01 X2.2952 Y0.8506
G01 X2.3050 Y0.8508
G01 X2.3245 Y0.8528
G01 X2.3438 Y0.8566
G01 X2.3626 Y0.8623
G01 X2.3807 Y0.8698
G01 X2.3980 Y0.8791
G01 X2.4143 Y0.8900
G01 X2.4295 Y0.9024
G01 X2.4434 Y0.9163
G01 X2.4558 Y0.9315
G01 X2.4667 Y0.9478
G01 X2.4760 Y0.9651
G01 X2.4835 Y0.9832
G01 X2.4892 Y1.0020
G01 X2.4930 Y1.0213
G01 X2.4950 Y1.0408
G01 X2.4952 Y1.0506
G01 X2.4950 Y3.0924
G01 X2.4930 Y3.1119
G01 X2.4892 Y3.1312
G01 X2.4835 Y3.1500
G01 X2.4760 Y3.1681
G01 X2.4667 Y3.1854
G01 X2.4558 Y3.2017
G01 X2.4434 Y3.2169
G01 X2.4295 Y3.2308
G01 X2.4143 Y3.2432
G01 X2.3980 Y3.2541
G01 X2.3807 Y3.2634
G01 X2.3626 Y3.2709
G01 X2.3438 Y3.2766
G01 X2.3245 Y3.2804
G01 X2.3050 Y3.2824
G01 X2.2952 Y3.2826
G01 X1.6348 Y3.2826
G01 X1.6250 Y3.2824
G01 X1.6055 Y3.2804
G01 X1.5862 Y3.2766
G01 X1.5674 Y3.2709
G01 X1.5493 Y3.2634
G01 X1.5320 Y3.2541
G01 X1.5157 Y3.2432
G01 X1.5005 Y3.2308
G01 X1.4866 Y3.2169
G01 X1.4742 Y3.2017
G01 X1.4633 Y3.1854
G01 X1.4540 Y3.1681
G01 X1.4465 Y3.1500
G01 X1.4408 Y3.1312
G01 X1.4370 Y3.1119
G01 X1.4350 Y3.0924
G01 X1.4348 Y3.0826
G01 X1.4350 Y1.0408
G01 X1.4370 Y1.0213
G01 X1.4408 Y1.0020
G01 X1.4465 Y0.9832
G01 X1.4540 Y0.9651
G01 X1.4633 Y0.9478
G01 X1.4742 Y0.9315
G01 X1.4866 Y0.9163
G01 X1.5005 Y0.9024
G01 X1.5157 Y0.8900
G01 X1.5320 Y0.8791
G01 X1.5493 Y0.8698
G01 X1.5674 Y0.8623
G01 X1.5862 Y0.8566
G01 X1.6055 Y0.8528
G01 X1.6250 Y0.8508
G00 Z2.0000
G00 X2.7849 Y0.8906
G01 F50.00
G01 Z-0.3000
G01 F80.00
G01 X2.7851 Y0.7552
G01 X2.7870 Y0.7209
G01 X2.7918 Y0.6869
G01 X2.7957 Y0.6676
G01 X2.8016 Y0.6438
G01 X2.8073 Y0.6250
G01 X2.8191 Y0.5927
G01 X2.8336 Y0.5616
G01 X2.8429 Y0.5443
G01 X2.8607 Y0.5149
G01 X2.8870 Y0.4794
G01 X2.9167 Y0.4467
G01 X3.4317 Y-0.0683
G01 X3.4644 Y-0.0980
G01 X3.4999 Y-0.1243
G01 X3.5293 Y-0.1421
G01 X3.5466 Y-0.1514
G01 X3.5777 Y-0.1659
G01 X3.6193 Y-0.1807
G01 X3.6526 Y-0.1893
G01 X3.6719 Y-0.1932
G01 X3.7059 Y-0.1980
G01 X3.7500 Y-0.2001
G01 X16.5549 Y-0.2001
G01 X16.5941 Y-0.1980
G01 X16.6378 Y-0.1915
G01 X16.6807 Y-0.1807
G01 X16.7223 Y-0.1659
G01 X16.7622 Y-0.1470
G01 X16.8001 Y-0.1243
G01 X16.8356 Y-0.0980
G01 X16.8648 Y-0.0717
G01 X16.8797 Y-0.0568
G01 X16.8939 Y-0.0627
G01 X16.9126 Y-0.0684
G01 X16.9319 Y-0.0722
G01 X16.9514 Y-0.0742
G01 X16.9612 Y-0.0744
G01 X17.7286 Y-0.0742
G01 X17.7481 Y-0.0722
G01 X17.7674 Y-0.0684
G01 X17.7861 Y-0.0627
G01 X17.8043 Y-0.0552
G01 X17.8216 Y-0.0459
G01 X17.8379 Y-0.0350
G01 X17.8531 Y-0.0226
G01 X18.3958 Y0.5198
G01 X18.4026 Y0.5269
G01 X18.4150 Y0.5421
G01 X18.4259 Y0.5584
G01 X18.4352 Y0.5757
G01 X18.4427 Y0.5939
G01 X18.4484 Y0.6126
G01 X18.4522 Y0.6319
G01 X18.4542 Y0.6514
G01 X18.4544 Y0.6612
G01 X18.4542 Y1.4286
G01 X18.4522 Y1.4481
G01 X18.4484 Y1.4674
G01 X18.4427 Y1.4861
G01 X18.4352 Y1.5043
G01 X18.4259 Y1.5216
G01 X18.4150 Y1.5379
G01 X18.4026 Y1.5531
G01 X17.8602 Y2.0958
G01 X17.8531 Y2.1026
G01 X17.8379 Y2.1150
G01 X17.8216 Y2.1259
G01 X17.8043 Y2.1352
G01 X17.7861 Y2.1427
G01 X17.7674 Y2.1484
G01 X17.7481 Y2.1522
G01 X17.7286 Y2.1542
G01 X17.7188 Y2.1544
G01 X16.9514 Y2.1542
G01 X16.9319 Y2.1522
G01 X16.9126 Y2.1484
G01 X16.8939 Y2.1427
G01 X16.8757 Y2.1352
G01 X16.8584 Y2.1259
G01 X16.8421 Y2.1150
G01 X16.8269 Y2.1026
G01 X16.2842 Y1.5602
G01 X16.2774 Y1.5531
G01 X16.2650 Y1.5379
G01 X16.2541 Y1.5216
G01 X16.2448 Y1.5043
G01 X16.2373 Y1.4861
G01 X16.2316 Y1.4674
G01 X16.2278 Y1.4481
G01 X16.2258 Y1.4286
G01 X16.2256 Y1.4188
G01 X16.2256 Y0.7001
G01 X3.9364 Y0.7001
G01 X3.7165 Y0.9201
G01 X3.7258 Y0.9315
G01 X3.7367 Y0.9478
G01 X3.7460 Y0.9651
G01 X3.7535 Y0.9832
G01 X3.7592 Y1.0020
G01 X3.7630 Y1.0213
G01 X3.7650 Y1.0408
G01 X3.7652 Y1.0506
G01 X3.7652 Y3.0826
G01 X3.7650 Y3.0924
G01 X3.7630 Y3.1119
G01 X3.7592 Y3.1312
G01 X3.7535 Y3.1500
G01 X3.7460 Y3.1681
G01 X3.7367 Y3.1854
G01 X3.7258 Y3.2017
G01 X3.7134 Y3.2169
G01 X3.6995 Y3.2308
G01 X3.6843 Y3.2432
G01 X3.6680 Y3.2541
G01 X3.6507 Y3.2634
G01 X3.6326 Y3.2709
G01 X3.6138 Y3.2766
G01 X3.5945 Y3.2804
G01 X3.5750 Y3.2824
G01 X3.5652 Y3.2826
G01 X2.8950 Y3.2824
G01 X2.8755 Y3.2804
G01 X2.8562 Y3.2766
G01 X2.8374 Y3.2709
G01 X2.8193 Y3.2634
G01 X2.8020 Y3.2541
G01 X2.7857 Y3.2432
G01 X2.7705 Y3.2308
G01 X2.7566 Y3.2169
G01 X2.7442 Y3.2017
G01 X2.7333 Y3.1854
G01 X2.7240 Y3.1681
G01 X2.7165 Y3.1500
G01 X2.7108 Y3.1312
G01 X2.7070 Y3.1119
G01 X2.7050 Y3.0924
G01 X2.7050 Y1.0408
G01 X2.7070 Y1.0213
G01 X2.7108 Y1.0020
G01 X2.7165 Y0.9832
G01 X2.7240 Y0.9651
G01 X2.7333 Y0.9478
G01 X2.7442 Y0.9315
G01 X2.7566 Y0.9163
G01 X2.7705 Y0.9024
G01 X2.7849 Y0.8906
G00 Z2.0000
G00 X4.1650 Y0.8508
G01 F50.00
G01 Z-0.3000
G01 F80.00
G01 X4.8352 Y0.8506
G01 X4.8450 Y0.8508
G01 X4.8645 Y0.8528
G01 X4.8838 Y0.8566
G01 X4.9026 Y0.8623
G01 X4.9207 Y0.8698
G01 X4.9380 Y0.8791
G01 X4.9543 Y0.8900
G01 X4.9695 Y0.9024
G01 X4.9834 Y0.9163
G01 X4.9958 Y0.9315
G01 X5.0067 Y0.9478
G01 X5.0160 Y0.9651
G01 X5.0235 Y0.9832
G01 X5.0292 Y1.0020
G01 X5.0330 Y1.0213
G01 X5.0350 Y1.0408
G01 X5.0352 Y1.0506
G01 X5.0350 Y3.0924
G01 X5.0330 Y3.1119
G01 X5.0292 Y3.1312
G01 X5.0235 Y3.1500
G01 X5.0160 Y3.1681
G01 X5.0067 Y3.1854
G01 X4.9958 Y3.2017
G01 X4.9834 Y3.2169
G01 X4.9695 Y3.2308
G01 X4.9543 Y3.2432
G01 X4.9380 Y3.2541
G01 X4.9207 Y3.2634
G01 X4.9026 Y3.2709
G01 X4.8838 Y3.2766
G01 X4.8645 Y3.2804
G01 X4.8450 Y3.2824
G01 X4.8352 Y3.2826
G01 X4.1748 Y3.2826
G01 X4.1650 Y3.2824
G01 X4.1455 Y3.2804
G01 X4.1262 Y3.2766
G01 X4.1074 Y3.2709
G01 X4.0893 Y3.2634
G01 X4.0720 Y3.2541
G01 X4.0557 Y3.2432
G01 X4.0405 Y3.2308
G01 X4.0266 Y3.2169
G01 X4.0142 Y3.2017
G01 X4.0033 Y3.1854
G01 X3.9940 Y3.1681
G01 X3.9865 Y3.1500
G01 X3.9808 Y3.1312
G01 X3.9770 Y3.1119
G01 X3.9750 Y3.0924
G01 X3.9748 Y3.0826
G01 X3.9750 Y1.0408
G01 X3.9770 Y1.0213
G01 X3.9808 Y1.0020
G01 X3.9865 Y0.9832
G01 X3.9940 Y0.9651
G01 X4.0033 Y0.9478
G01 X4.0142 Y0.9315
G01 X4.0266 Y0.9163
G01 X4.0405 Y0.9024
G01 X4.0557 Y0.8900
G01 X4.0720 Y0.8791
G01 X4.0893 Y0.8698
G01 X4.1074 Y0.8623
G01 X4.1262 Y0.8566
G01 X4.1455 Y0.8528
G01 X4.1650 Y0.8508
G00 Z2.0000
G00 X6.7050 Y0.8508
G01 F50.00
G01 Z-0.3000
G01 F80.00
G01 X7.3752 Y0.8506
G01 X7.3850 Y0.8508
G01 X7.4045 Y0.8528
G01 X7.4238 Y0.8566
G01 X7.4426 Y0.8623
G01 X7.4607 Y0.8698
G01 X7.4780 Y0.8791
G01 X7.4943 Y0.8900
G01 X7.5095 Y0.9024
G01 X7.5234 Y0.9163
G01 X7.5358 Y0.9315
G01 X7.5467 Y0.9478
G01 X7.5560 Y0.9651
G01 X7.5635 Y0.9832
G01 X7.5692 Y1.0020
G01 X7.5730 Y1.0213
G01 X7.5750 Y1.0408
G01 X7.5752 Y1.0506
G01 X7.5750 Y3.0924
G01 X7.5730 Y3.1119
G01 X7.5692 Y3.1312
G01 X7.5635 Y3.1500
G01 X7.5560 Y3.1681
G01 X7.5467 Y3.1854
G01 X7.5358 Y3.2017
G01 X7.5234 Y3.2169
G01 X7.5095 Y3.2308
G01 X7.4943 Y3.2432
G01 X7.4780 Y3.2541
G01 X7.4607 Y3.2634
G01 X7.4426 Y3.2709
G01 X7.4238 Y3.2766
G01 X7.4045 Y3.2804
G01 X7.3850 Y3.2824
G01 X7.3752 Y3.2826
G01 X6.7148 Y3.2826
G01 X6.7050 Y3.2824
G01 X6.6855 Y3.2804
G01 X6.6662 Y3.2766
G01 X6.6474 Y3.2709
G01 X6.6293 Y3.2634
G01 X6.6120 Y3.2541
G01 X6.5957 Y3.2432
G01 X6.5805 Y3.2308
G01 X6.5666 Y3.2169
G01 X6.5542 Y3.2017
G01 X6.5433 Y3.1854
G01 X6.5340 Y3.1681
G01 X6.5265 Y3.1500
G01 X6.5208 Y3.1312
G01 X6.5170 Y3.1119
G01 X6.5150 Y3.0924
G01 X6.5148 Y3.0826
G01 X6.5150 Y1.0408
G01 X6.5170 Y1.0213
G01 X6.5208 Y1.0020
G01 X6.5265 Y0.9832
G01 X6.5340 Y0.9651
G01 X6.5433 Y0.9478
G01 X6.5542 Y0.9315
G01 X6.5666 Y0.9163
G01 X6.5805 Y0.9024
G01 X6.5957 Y0.8900
G01 X6.6120 Y0.8791
G01 X6.6293 Y0.8698
G01 X6.6474 Y0.8623
G01 X6.6662 Y0.8566
G01 X6.6855 Y0.8528
G01 X6.7050 Y0.8508
G00 Z2.0000
G00 X7.9750 Y0.8508
G01 F50.00
G01 Z-0.3000
G01 F80.00
G01 X8.6452 Y0.8506
G01 X8.6550 Y0.8508
G01 X8.6745 Y0.8528
G01 X8.6938 Y0.8566
G01 X8.7126 Y0.8623
G01 X8.7307 Y0.8698
G01 X8.7480 Y0.8791
G01 X8.7643 Y0.8900
G01 X8.7795 Y0.9024
G01 X8.7934 Y0.9163
G01 X8.8058 Y0.9315
G01 X8.8167 Y0.9478
G01 X8.8260 Y0.9651
G01 X8.8335 Y0.9832
G01 X8.8392 Y1.0020
G01 X8.8430 Y1.0213
G01 X8.8450 Y1.0408
G01 X8.8452 Y1.0506
G01 X8.8450 Y3.0924
G01 X8.8430 Y3.1119
G01 X8.8392 Y3.1312
G01 X8.8335 Y3.1500
G01 X8.8260 Y3.1681
G01 X8.8167 Y3.1854
G01 X8.8058 Y3.2017
G01 X8.7934 Y3.2169
G01 X8.7795 Y3.2308
G01 X8.7643 Y3.2432
G01 X8.7480 Y3.2541
G01 X8.7307 Y3.2634
G01 X8.7126 Y3.2709
G01 X8.6938 Y3.2766
G01 X8.6745 Y3.2804
G01 X8.6550 Y3.2824
G01 X8.6452 Y3.2826
G01 X7.9848 Y3.2826
G01 X7.9750 Y3.2824
G01 X7.9555 Y3.2804
G01 X7.9362 Y3.2766
G01 X7.9174 Y3.2709
G01 X7.8993 Y3.2634
G01 X7.8820 Y3.2541
G01 X7.8657 Y3.2432
G01 X7.8505 Y3.2308
G01 X7.8366 Y3.2169
G01 X7.8242 Y3.2017
G01 X7.8133 Y3.1854
G01 X7.8040 Y3.1681
G01 X7.7965 Y3.1500
G01 X7.7908 Y3.1312
G01 X7.7870 Y3.1119
G01 X7.7850 Y3.0924
G01 X7.7848 Y3.0826
G01 X7.7850 Y1.0408
G01 X7.7870 Y1.0213
G01 X7.7908 Y1.0020
G01 X7.7965 Y0.9832
G01 X7.8040 Y0.9651
G01 X7.8133 Y0.9478
G01 X7.8242 Y0.9315
G01 X7.8366 Y0.9163
G01 X7.8505 Y0.9024
G01 X7.8657 Y0.8900
G01 X7.8820 Y0.8791
G01 X7.8993 Y0.8698
G01 X7.9174 Y0.8623
G01 X7.9362 Y0.8566
G01 X7.9555 Y0.8528
G01 X7.9750 Y0.8508
G00 Z2.0000
G00 X9.2450 Y0.8508
G01 F50.00
G01 Z-0.3000
G01 F80.00
G01 X9.9152 Y0.8506
G01 X9.9250 Y0.8508
G01 X9.9445 Y0.8528
G01 X9.9638 Y0.8566
G01 X9.9826 Y0.8623
G01 X10.0007 Y0.8698
G01 X10.0180 Y0.8791
G01 X10.0343 Y0.8900
G01 X10.0495 Y0.9024
G01 X10.0634 Y0.9163
G01 X10.0758 Y0.9315
G01 X10.0867 Y0.9478
G01 X10.0960 Y0.9651
G01 X10.1035 Y0.9832
G01 X10.1092 Y1.0020
G01 X10.1130 Y1.0213
G01 X10.1150 Y1.0408
G01 X10.1152 Y1.0506
G01 X10.1150 Y3.0924
G01 X10.1130 Y3.1119
G01 X10.1092 Y3.1312
G01 X10.1035 Y3.1500
G01 X10.0960 Y3.1681
G01 X10.0867 Y3.1854
G01 X10.0758 Y3.2017
G01 X10.0634 Y3.2169
G01 X10.0495 Y3.2308
G01 X10.0343 Y3.2432
G01 X10.0180 Y3.2541
G01 X10.0007 Y3.2634
G01 X9.9826 Y3.2709
G01 X9.9638 Y3.2766
G01 X9.9445 Y3.2804
G01 X9.9250 Y3.2824
G01 X9.9152 Y3.2826
G01 X9.2548 Y3.2826
G01 X9.2450 Y3.2824
G01 X9.2255 Y3.2804
G01 X9.2062 Y3.2766
G01 X9.1874 Y3.2709
G01 X9.1693 Y3.2634
G01 X9.1520 Y3.2541
G01 X9.1357 Y3.2432
G01 X9.1205 Y3.2308
G01 X9.1066 Y3.2169
G01 X9.0942 Y3.2017
G01 X9.0833 Y3.1854
G01 X9.0740 Y3.1681
G01 X9.0665 Y3.1500
G01 X9.0608 Y3.1312
G01 X9.0570 Y3.1119
G01 X9.0550 Y3.0924
G01 X9.0548 Y3.0826
G01 X9.0550 Y1.0408
G01 X9.0570 Y1.0213
G01 X9.0608 Y1.0020
G01 X9.0665 Y0.9832
G01 X9.0740 Y0.9651
G01 X9.0833 Y0.9478
G01 X9.0942 Y0.9315
G01 X9.1066 Y0.9163
G01 X9.1205 Y0.9024
G01 X9.1357 Y0.8900
G01 X9.1520 Y0.8791
G01 X9.1693 Y0.8698
G01 X9.1874 Y0.8623
G01 X9.2062 Y0.8566
G01 X9.2255 Y0.8528
G01 X9.2450 Y0.8508
G00 Z2.0000
G00 X9.2450 Y6.9976
G01 F50.00
G01 Z-0.3000
G01 F80.00
G01 X9.9152 Y6.9974
G01 X9.9250 Y6.9976
G01 X9.9445 Y6.9996
G01 X9.9638 Y7.0034
G01 X9.9826 Y7.0091
G01 X10.0007 Y7.0166
G01 X10.0180 Y7.0259
G01 X10.0343 Y7.0368
G01 X10.0495 Y7.0492
G01 X10.0634 Y7.0631
G01 X10.0758 Y7.0783
G01 X10.0867 Y7.0946
G01 X10.0960 Y7.1119
G01 X10.1035 Y7.1300
G01 X10.1092 Y7.1488
G01 X10.1130 Y7.1681
G01 X10.1150 Y7.1876
G01 X10.1152 Y7.1974
G01 X10.1150 Y9.2392
G01 X10.1130 Y9.2587
G01 X10.1092 Y9.2780
G01 X10.1035 Y9.2968
G01 X10.0960 Y9.3149
G01 X10.0867 Y9.3322
G01 X10.0758 Y9.3485
G01 X10.0634 Y9.3637
G01 X10.0495 Y9.3776
G01 X10.0343 Y9.3900
G01 X10.0180 Y9.4009
G01 X10.0007 Y9.4102
G01 X9.9826 Y9.4177
G01 X9.9638 Y9.4234
G01 X9.9445 Y9.4272
G01 X9.9250 Y9.4292
G01 X9.9152 Y9.4294
G01 X9.2548 Y9.4294
G01 X9.2450 Y9.4292
G01 X9.2255 Y9.4272
G01 X9.2062 Y9.4234
G01 X9.1874 Y9.4177
G01 X9.1693 Y9.4102
G01 X9.1520 Y9.4009
G01 X9.1357 Y9.3900
G01 X9.1205 Y9.3776
G01 X9.1066 Y9.3637
G01 X9.0942 Y9.3485
G01 X9.0833 Y9.3322
G01 X9.0740 Y9.3149
G01 X9.0665 Y9.2968
G01 X9.0608 Y9.2780
G01 X9.0570 Y9.2587
G01 X9.0550 Y9.2392
G01 X9.0548 Y9.2294
G01 X9.0550 Y7.1876
G01 X9.0570 Y7.1681
G01 X9.0608 Y7.1488
G01 X9.0665 Y7.1300
G01 X9.0740 Y7.1119
G01 X9.0833 Y7.0946
G01 X9.0942 Y7.0783
G01 X9.1066 Y7.0631
G01 X9.1205 Y7.0492
G01 X9.1357 Y7.0368
G01 X9.1520 Y7.0259
G01 X9.1693 Y7.0166
G01 X9.1874 Y7.0091
G01 X9.2062 Y7.0034
G01 X9.2255 Y6.9996
G01 X9.2450 Y6.9976
G00 Z2.0000
G00 X10.5150 Y6.9976
G01 F50.00
G01 Z-0.3000
G01 F80.00
G01 X11.1852 Y6.9974
G01 X11.1950 Y6.9976
G01 X11.2145 Y6.9996
G01 X11.2338 Y7.0034
G01 X11.2526 Y7.0091
G01 X11.2707 Y7.0166
G01 X11.2880 Y7.0259
G01 X11.3043 Y7.0368
G01 X11.3195 Y7.0492
G01 X11.3334 Y7.0631
G01 X11.3458 Y7.0783
G01 X11.3567 Y7.0946
G01 X11.3660 Y7.1119
G01 X11.3735 Y7.1300
G01 X11.3792 Y7.1488
G01 X11.3830 Y7.1681
G01 X11.3850 Y7.1876
G01 X11.3852 Y7.1974
G01 X11.3850 Y9.2392
G01 X11.3830 Y9.2587
G01 X11.3792 Y9.2780
G01 X11.3735 Y9.2968
G01 X11.3660 Y9.3149
G01 X11.3567 Y9.3322
G01 X11.3458 Y9.3485
G01 X11.3334 Y9.3637
G01 X11.3195 Y9.3776
G01 X11.3043 Y9.3900
G01 X11.2880 Y9.4009
G01 X11.2707 Y9.4102
G01 X11.2526 Y9.4177
G01 X11.2338 Y9.4234
G01 X11.2145 Y9.4272
G01 X11.1950 Y9.4292
G01 X11.1852 Y9.4294
G01 X10.5248 Y9.4294
G01 X10.5150 Y9.4292
G01 X10.4955 Y9.4272
G01 X10.4762 Y9.4234
G01 X10.4574 Y9.4177
G01 X10.4393 Y9.4102
G01 X10.4220 Y9.4009
G01 X10.4057 Y9.3900
G01 X10.3905 Y9.3776
G01 X10.3766 Y9.3637
G01 X10.3642 Y9.3485
G01 X10.3533 Y9.3322
G01 X10.3440 Y9.3149
G01 X10.3365 Y9.2968
G01 X10.3308 Y9.2780
G01 X10.3270 Y9.2587
G01 X10.3250 Y9.2392
G01 X10.3248 Y9.2294
G01 X10.3250 Y7.1876
G01 X10.3270 Y7.1681
G01 X10.3308 Y7.1488
G01 X10.3365 Y7.1300
G01 X10.3440 Y7.1119
G01 X10.3533 Y7.0946
G01 X10.3642 Y7.0783
G01 X10.3766 Y7.0631
G01 X10.3905 Y7.0492
G01 X10.4057 Y7.0368
G01 X10.4220 Y7.0259
G01 X10.4393 Y7.0166
G01 X10.4574 Y7.0091
G01 X10.4762 Y7.0034
G01 X10.4955 Y6.9996
G01 X10.5150 Y6.9976
G00 Z2.0000
G00 X7.9750 Y6.9976
G01 F50.00
G01 Z-0.3000
G01 F80.00
G01 X8.6452 Y6.9974
G01 X8.6550 Y6.9976
G01 X8.6745 Y6.9996
G01 X8.6938 Y7.0034
G01 X8.7126 Y7.0091
G01 X8.7307 Y7.0166
G01 X8.7480 Y7.0259
G01 X8.7643 Y7.0368
G01 X8.7795 Y7.0492
G01 X8.7934 Y7.0631
G01 X8.8058 Y7.0783
G01 X8.8167 Y7.0946
G01 X8.8260 Y7.1119
G01 X8.8335 Y7.1300
G01 X8.8392 Y7.1488
G01 X8.8430 Y7.1681
G01 X8.8450 Y7.1876
G01 X8.8452 Y7.1974
G01 X8.8450 Y9.2392
G01 X8.8430 Y9.2587
G01 X8.8392 Y9.2780
G01 X8.8335 Y9.2968
G01 X8.8260 Y9.3149
G01 X8.8167 Y9.3322
G01 X8.8058 Y9.3485
G01 X8.7934 Y9.3637
G01 X8.7795 Y9.3776
G01 X8.7643 Y9.3900
G01 X8.7480 Y9.4009
G01 X8.7307 Y9.4102
G01 X8.7126 Y9.4177
G01 X8.6938 Y9.4234
G01 X8.6745 Y9.4272
G01 X8.6550 Y9.4292
G01 X8.6452 Y9.4294
G01 X7.9848 Y9.4294
G01 X7.9750 Y9.4292
G01 X7.9555 Y9.4272
G01 X7.9362 Y9.4234
G01 X7.9174 Y9.4177
G01 X7.8993 Y9.4102
G01 X7.8820 Y9.4009
G01 X7.8657 Y9.3900
G01 X7.8505 Y9.3776
G01 X7.8366 Y9.3637
G01 X7.8242 Y9.3485
G01 X7.8133 Y9.3322
G01 X7.8040 Y9.3149
G01 X7.7965 Y9.2968
G01 X7.7908 Y9.2780
G01 X7.7870 Y9.2587
G01 X7.7850 Y9.2392
G01 X7.7848 Y9.2294
G01 X7.7850 Y7.1876
G01 X7.7870 Y7.1681
G01 X7.7908 Y7.1488
G01 X7.7965 Y7.1300
G01 X7.8040 Y7.1119
G01 X7.8133 Y7.0946
G01 X7.8242 Y7.0783
G01 X7.8366 Y7.0631
G01 X7.8505 Y7.0492
G01 X7.8657 Y7.0368
G01 X7.8820 Y7.0259
G01 X7.8993 Y7.0166
G01 X7.9174 Y7.0091
G01 X7.9362 Y7.0034
G01 X7.9555 Y6.9996
G01 X7.9750 Y6.9976
G00 Z2.0000
G00 X6.7050 Y6.9976
G01 F50.00
G01 Z-0.3000
G01 F80.00
G01 X7.3752 Y6.9974
G01 X7.3850 Y6.9976
G01 X7.4045 Y6.9996
G01 X7.4238 Y7.0034
G01 X7.4426 Y7.0091
G01 X7.4607 Y7.0166
G01 X7.4780 Y7.0259
G01 X7.4943 Y7.0368
G01 X7.5095 Y7.0492
G01 X7.5234 Y7.0631
G01 X7.5358 Y7.0783
G01 X7.5467 Y7.0946
G01 X7.5560 Y7.1119
G01 X7.5635 Y7.1300
G01 X7.5692 Y7.1488
G01 X7.5730 Y7.1681
G01 X7.5750 Y7.1876
G01 X7.5752 Y7.1974
G01 X7.5750 Y9.2392
G01 X7.5730 Y9.2587
G01 X7.5692 Y9.2780
G01 X7.5635 Y9.2968
G01 X7.5560 Y9.3149
G01 X7.5467 Y9.3322
G01 X7.5358 Y9.3485
G01 X7.5234 Y9.3637
G01 X7.5095 Y9.3776
G01 X7.4943 Y9.3900
G01 X7.4780 Y9.4009
G01 X7.4607 Y9.4102
G01 X7.4426 Y9.4177
G01 X7.4238 Y9.4234
G01 X7.4045 Y9.4272
G01 X7.3850 Y9.4292
G01 X7.3752 Y9.4294
G01 X6.7148 Y9.4294
G01 X6.7050 Y9.4292
G01 X6.6855 Y9.4272
G01 X6.6662 Y9.4234
G01 X6.6474 Y9.4177
G01 X6.6293 Y9.4102
G01 X6.6120 Y9.4009
G01 X6.5957 Y9.3900
G01 X6.5805 Y9.3776
G01 X6.5666 Y9.3637
G01 X6.5542 Y9.3485
G01 X6.5433 Y9.3322
G01 X6.5340 Y9.3149
G01 X6.5265 Y9.2968
G01 X6.5208 Y9.2780
G01 X6.5170 Y9.2587
G01 X6.5150 Y9.2392
G01 X6.5148 Y9.2294
G01 X6.5150 Y7.1876
G01 X6.5170 Y7.1681
G01 X6.5208 Y7.1488
G01 X6.5265 Y7.1300
G01 X6.5340 Y7.1119
G01 X6.5433 Y7.0946
G01 X6.5542 Y7.0783
G01 X6.5666 Y7.0631
G01 X6.5805 Y7.0492
G01 X6.5957 Y7.0368
G01 X6.6120 Y7.0259
G01 X6.6293 Y7.0166
G01 X6.6474 Y7.0091
G01 X6.6662 Y7.0034
G01 X6.6855 Y6.9996
G01 X6.7050 Y6.9976
G00 Z2.0000
G00 X4.0549 Y7.0374
G01 F50.00
G01 Z-0.3000
G01 F80.00
G01 X4.0549 Y6.7401
G01 X4.0570 Y6.7009
G01 X4.0635 Y6.6572
G01 X4.0716 Y6.6238
G01 X4.0773 Y6.6050
G01 X4.0891 Y6.5727
G01 X4.1036 Y6.5416
G01 X4.1129 Y6.5243
G01 X4.1307 Y6.4949
G01 X4.1510 Y6.4672
G01 X4.1635 Y6.4520
G01 X4.1867 Y6.4267
G01 X6.9317 Y3.6817
G01 X6.9644 Y3.6520
G01 X6.9999 Y3.6257
G01 X7.0378 Y3.6030
G01 X7.0777 Y3.5841
G01 X7.1193 Y3.5693
G01 X7.1622 Y3.5585
G01 X7.2059 Y3.5520
G01 X7.2500 Y3.5499
G01 X12.5636 Y3.5499
G01 X12.7437 Y3.3697
G01 X12.7174 Y3.3431
G01 X12.7050 Y3.3279
G01 X12.6941 Y3.3116
G01 X12.6848 Y3.2943
G01 X12.6773 Y3.2761
G01 X12.6716 Y3.2574
G01 X12.6678 Y3.2381
G01 X12.6658 Y3.2186
G01 X12.6656 Y2.4512
G01 X12.6658 Y2.4414
G01 X12.6678 Y2.4219
G01 X12.6716 Y2.4026
G01 X12.6773 Y2.3839
G01 X12.6848 Y2.3657
G01 X12.6941 Y2.3484
G01 X12.7050 Y2.3321
G01 X12.7174 Y2.3169
G01 X12.7242 Y2.3098
G01 X13.2669 Y1.7674
G01 X13.2821 Y1.7550
G01 X13.2984 Y1.7441
G01 X13.3157 Y1.7348
G01 X13.3339 Y1.7273
G01 X13.3526 Y1.7216
G01 X13.3719 Y1.7178
G01 X13.3914 Y1.7158
G01 X13.4012 Y1.7156
G01 X14.1588 Y1.7156
G01 X14.1686 Y1.7158
G01 X14.1881 Y1.7178
G01 X14.2074 Y1.7216
G01 X14.2261 Y1.7273
G01 X14.2443 Y1.7348
G01 X14.2616 Y1.7441
G01 X14.2779 Y1.7550
G01 X14.2931 Y1.7674
G01 X14.3002 Y1.7742
G01 X14.8358 Y2.3098
G01 X14.8426 Y2.3169
G01 X14.8550 Y2.3321
G01 X14.8659 Y2.3484
G01 X14.8752 Y2.3657
G01 X14.8827 Y2.3839
G01 X14.8884 Y2.4026
G01 X14.8922 Y2.4219
G01 X14.8942 Y2.4414
G01 X14.8944 Y2.4512
G01 X14.8942 Y3.2186
G01 X14.8922 Y3.2381
G01 X14.8884 Y3.2574
G01 X14.8827 Y3.2761
G01 X14.8752 Y3.2943
G01 X14.8659 Y3.3116
G01 X14.8550 Y3.3279
G01 X14.8426 Y3.3431
G01 X14.8358 Y3.3502
G01 X14.3002 Y3.8858
G01 X14.2931 Y3.8926
G01 X14.2779 Y3.9050
G01 X14.2616 Y3.9159
G01 X14.2443 Y3.9252
G01 X14.2261 Y3.9327
G01 X14.2074 Y3.9384
G01 X14.1881 Y3.9422
G01 X14.1686 Y3.9442
G01 X13.4422 Y3.9444
G01 X13.0683 Y4.3183
G01 X13.0430 Y4.3415
G01 X13.0278 Y4.3540
G01 X13.0001 Y4.3743
G01 X12.9622 Y4.3970
G01 X12.9223 Y4.4159
G01 X12.8807 Y4.4307
G01 X12.8378 Y4.4415
G01 X12.8039 Y4.4468
G01 X12.7843 Y4.4487
G01 X12.7500 Y4.4501
G01 X7.4364 Y4.4501
G01 X4.9551 Y6.9314
G01 X4.9551 Y7.0374
G01 X4.9695 Y7.0492
G01 X4.9834 Y7.0631
G01 X4.9958 Y7.0783
G01 X5.0067 Y7.0946
G01 X5.0160 Y7.1119
G01 X5.0235 Y7.1300
G01 X5.0292 Y7.1488
G01 X5.0330 Y7.1681
G01 X5.0350 Y7.1876
G01 X5.0352 Y7.1974
G01 X5.0352 Y7.9399
G01 X5.0493 Y7.9747
G01 X5.0594 Y8.0076
G01 X5.0641 Y8.0266
G01 X5.0705 Y8.0604
G01 X5.0740 Y8.0946
G01 X5.0749 Y8.1142
G01 X5.0748 Y8.1387
G01 X5.0738 Y8.1583
G01 X5.0700 Y8.1925
G01 X5.0613 Y8.2358
G01 X5.0483 Y8.2780
G01 X5.0352 Y8.3100
G01 X5.0352 Y9.2294
G01 X5.0350 Y9.2392
G01 X5.0330 Y9.2587
G01 X5.0292 Y9.2780
G01 X5.0235 Y9.2968
G01 X5.0160 Y9.3149
G01 X5.0067 Y9.3322
G01 X4.9958 Y9.3485
G01 X4.9834 Y9.3637
G01 X4.9695 Y9.3776
G01 X4.9543 Y9.3900
G01 X4.9380 Y9.4009
G01 X4.9207 Y9.4102
G01 X4.9026 Y9.4177
G01 X4.8838 Y9.4234
G01 X4.8645 Y9.4272
G01 X4.8450 Y9.4292
G01 X4.8352 Y9.4294
G01 X4.1748 Y9.4294
G01 X4.1650 Y9.4292
G01 X4.1455 Y9.4272
G01 X4.1262 Y9.4234
G01 X4.1074 Y9.4177
G01 X4.0893 Y9.4102
G01 X4.0720 Y9.4009
G01 X4.0557 Y9.3900
G01 X4.0405 Y9.3776
G01 X4.0266 Y9.3637
G01 X4.0142 Y9.3485
G01 X4.0033 Y9.3322
G01 X3.9940 Y9.3149
G01 X3.9865 Y9.2968
G01 X3.9808 Y9.2780
G01 X3.9770 Y9.2587
G01 X3.9750 Y9.2392
G01 X3.9748 Y9.2294
G01 X3.9750 Y7.1876
G01 X3.9770 Y7.1681
G01 X3.9808 Y7.1488
G01 X3.9865 Y7.1300
G01 X3.9940 Y7.1119
G01 X4.0033 Y7.0946
G01 X4.0142 Y7.0783
G01 X4.0266 Y7.0631
G01 X4.0405 Y7.0492
G01 X4.0549 Y7.0374
G00 Z2.0000
G00 X2.7849 Y7.0374
G01 F50.00
G01 Z-0.3000
G01 F80.00
G01 X2.7849 Y6.2650
G01 X2.7870 Y6.2209
G01 X2.7918 Y6.1869
G01 X2.7957 Y6.1676
G01 X2.8043 Y6.1343
G01 X2.8156 Y6.1019
G01 X2.8231 Y6.0838
G01 X2.8380 Y6.0528
G01 X2.8555 Y6.0232
G01 X2.8664 Y6.0069
G01 X2.8870 Y5.9794
G01 X2.9167 Y5.9467
G01 X5.4978 Y3.3657
G01 X5.4864 Y3.2826
G01 X5.4350 Y3.2824
G01 X5.4155 Y3.2804
G01 X5.3962 Y3.2766
G01 X5.3774 Y3.2709
G01 X5.3593 Y3.2634
G01 X5.3420 Y3.2541
G01 X5.3257 Y3.2432
G01 X5.3105 Y3.2308
G01 X5.2966 Y3.2169
G01 X5.2842 Y3.2017
G01 X5.2733 Y3.1854
G01 X5.2640 Y3.1681
G01 X5.2565 Y3.1500
G01 X5.2508 Y3.1312
G01 X5.2470 Y3.1119
G01 X5.2450 Y3.0924
G01 X5.2448 Y1.0506
G01 X5.2450 Y1.0408
G01 X5.2470 Y1.0213
G01 X5.2508 Y1.0020
G01 X5.2565 Y0.9832
G01 X5.2640 Y0.9651
G01 X5.2733 Y0.9478
G01 X5.2842 Y0.9315
G01 X5.2966 Y0.9163
G01 X5.3105 Y0.9024
G01 X5.3257 Y0.8900
G01 X5.3420 Y0.8791
G01 X5.3593 Y0.8698
G01 X5.3774 Y0.8623
G01 X5.3962 Y0.8566
G01 X5.4155 Y0.8528
G01 X5.4350 Y0.8508
G01 X6.1150 Y0.8508
G01 X6.1345 Y0.8528
G01 X6.1538 Y0.8566
G01 X6.1726 Y0.8623
G01 X6.1907 Y0.8698
G01 X6.2080 Y0.8791
G01 X6.2243 Y0.8900
G01 X6.2395 Y0.9024
G01 X6.2534 Y0.9163
G01 X6.2658 Y0.9315
G01 X6.2767 Y0.9478
G01 X6.2860 Y0.9651
G01 X6.2935 Y0.9832
G01 X6.2992 Y1.0020
G01 X6.3030 Y1.0213
G01 X6.3050 Y1.0408
G01 X6.3052 Y2.6236
G01 X6.4199 Y3.4653
G01 X6.4219 Y3.4820
G01 X6.4237 Y3.5093
G01 X6.4240 Y3.5261
G01 X6.4232 Y3.5535
G01 X6.4219 Y3.5702
G01 X6.4183 Y3.5974
G01 X6.4154 Y3.6139
G01 X6.4092 Y3.6406
G01 X6.4046 Y3.6568
G01 X6.3959 Y3.6827
G01 X6.3898 Y3.6984
G01 X6.3858 Y3.7073
G01 X6.3785 Y3.7233
G01 X6.3709 Y3.7383
G01 X6.3572 Y3.7621
G01 X6.3482 Y3.7762
G01 X6.3323 Y3.7985
G01 X6.3219 Y3.8117
G01 X6.3154 Y3.8191
G01 X6.3038 Y3.8323
G01 X6.2956 Y3.8409
G01 X3.6851 Y6.4514
G01 X3.6851 Y7.0374
G01 X3.6995 Y7.0492
G01 X3.7134 Y7.0631
G01 X3.7258 Y7.0783
G01 X3.7367 Y7.0946
G01 X3.7460 Y7.1119
G01 X3.7535 Y7.1300
G01 X3.7592 Y7.1488
G01 X3.7630 Y7.1681
G01 X3.7650 Y7.1876
G01 X3.7652 Y9.2294
G01 X3.7650 Y9.2392
G01 X3.7630 Y9.2587
G01 X3.7592 Y9.2780
G01 X3.7535 Y9.2968
G01 X3.7460 Y9.3149
G01 X3.7367 Y9.3322
G01 X3.7258 Y9.3485
G01 X3.7134 Y9.3637
G01 X3.6995 Y9.3776
G01 X3.6843 Y9.3900
G01 X3.6680 Y9.4009
G01 X3.6507 Y9.4102
G01 X3.6326 Y9.4177
G01 X3.6138 Y9.4234
G01 X3.5945 Y9.4272
G01 X3.5750 Y9.4292
G01 X3.5652 Y9.4294
G01 X2.9048 Y9.4294
G01 X2.8950 Y9.4292
G01 X2.8755 Y9.4272
G01 X2.8562 Y9.4234
G01 X2.8374 Y9.4177
G01 X2.8193 Y9.4102
G01 X2.8020 Y9.4009
G01 X2.7857 Y9.3900
G01 X2.7705 Y9.3776
G01 X2.7566 Y9.3637
G01 X2.7442 Y9.3485
G01 X2.7333 Y9.3322
G01 X2.7240 Y9.3149
G01 X2.7165 Y9.2968
G01 X2.7108 Y9.2780
G01 X2.7070 Y9.2587
G01 X2.7050 Y9.2392
G01 X2.7048 Y9.2294
G01 X2.7050 Y7.1876
G01 X2.7070 Y7.1681
G01 X2.7108 Y7.1488
G01 X2.7165 Y7.1300
G01 X2.7240 Y7.1119
G01 X2.7333 Y7.0946
G01 X2.7442 Y7.0783
G01 X2.7566 Y7.0631
G01 X2.7705 Y7.0492
G01 X2.7849 Y7.0374
G00 Z2.0000
G00 X4.3602 Y10.0202
G01 F50.00
G01 Z-0.3000
G01 F80.00
G01 X5.3249 Y10.0200
G01 X5.3249 Y9.3894
G01 X5.3105 Y9.3776
G01 X5.2966 Y9.3637
G01 X5.2842 Y9.3485
G01 X5.2733 Y9.3322
G01 X5.2640 Y9.3149
G01 X5.2565 Y9.2968
G01 X5.2508 Y9.2780
G01 X5.2470 Y9.2587
G01 X5.2450 Y9.2392
G01 X5.2448 Y7.1974
G01 X5.2450 Y7.1876
G01 X5.2470 Y7.1681
G01 X5.2508 Y7.1488
G01 X5.2565 Y7.1300
G01 X5.2640 Y7.1119
G01 X5.2733 Y7.0946
G01 X5.2842 Y7.0783
G01 X5.2966 Y7.0631
G01 X5.3036 Y7.0561
G01 X5.3013 Y7.0364
G01 X5.2999 Y7.0000
G01 X5.3004 Y6.9824
G01 X5.3013 Y6.9657
G01 X5.3029 Y6.9481
G01 X5.3085 Y6.9122
G01 X5.3124 Y6.8950
G01 X5.3166 Y6.8788
G01 X5.3216 Y6.8619
G01 X5.3341 Y6.8277
G01 X5.3413 Y6.8117
G01 X5.3530 Y6.7878
G01 X5.3617 Y6.7725
G01 X5.3757 Y6.7499
G01 X5.3859 Y6.7356
G01 X5.4020 Y6.7144
G01 X5.4136 Y6.7011
G01 X5.4317 Y6.6817
G01 X7.4317 Y4.6817
G01 X7.4644 Y4.6520
G01 X7.4999 Y4.6257
G01 X7.5378 Y4.6030
G01 X7.5688 Y4.5881
G01 X7.5869 Y4.5806
G01 X7.6193 Y4.5693
G01 X7.6622 Y4.5585
G01 X7.6961 Y4.5532
G01 X7.7157 Y4.5513
G01 X7.7500 Y4.5499
G01 X13.8136 Y4.5499
G01 X15.7384 Y2.6250
G01 X14.7636 Y1.6501
G01 X12.9864 Y1.6501
G01 X12.3148 Y2.3217
G01 X12.2856 Y2.3480
G01 X12.2581 Y2.3686
G01 X12.2418 Y2.3795
G01 X12.2207 Y2.3921
G01 X12.2034 Y2.4014
G01 X12.1723 Y2.4159
G01 X12.1307 Y2.4307
G01 X12.0878 Y2.4415
G01 X12.0539 Y2.4468
G01 X12.0343 Y2.4487
G01 X12.0000 Y2.4501
G01 X11.3852 Y2.4501
G01 X11.3852 Y3.0826
G01 X11.3850 Y3.0924
G01 X11.3830 Y3.1119
G01 X11.3792 Y3.1312
G01 X11.3735 Y3.1500
G01 X11.3660 Y3.1681
G01 X11.3567 Y3.1854
G01 X11.3458 Y3.2017
G01 X11.3334 Y3.2169
G01 X11.3195 Y3.2308
G01 X11.3043 Y3.2432
G01 X11.2880 Y3.2541
G01 X11.2707 Y3.2634
G01 X11.2526 Y3.2709
G01 X11.2338 Y3.2766
G01 X11.2145 Y3.2804
G01 X11.1950 Y3.2824
G01 X11.1852 Y3.2826
G01 X10.5248 Y3.2826
G01 X10.5150 Y3.2824
G01 X10.4955 Y3.2804
G01 X10.4762 Y3.2766
G01 X10.4574 Y3.2709
G01 X10.4393 Y3.2634
G01 X10.4220 Y3.2541
G01 X10.4057 Y3.2432
G01 X10.3905 Y3.2308
G01 X10.3766 Y3.2169
G01 X10.3642 Y3.2017
G01 X10.3533 Y3.1854
G01 X10.3440 Y3.1681
G01 X10.3365 Y3.1500
G01 X10.3308 Y3.1312
G01 X10.3270 Y3.1119
G01 X10.3250 Y3.0924
G01 X10.3248 Y3.0826
G01 X10.3248 Y2.2723
G01 X10.3187 Y2.2534
G01 X10.3124 Y2.2297
G01 X10.3082 Y2.2105
G01 X10.3028 Y2.1766
G01 X10.2999 Y2.1325
G01 X10.3014 Y2.0884
G01 X10.3071 Y2.0446
G01 X10.3171 Y2.0016
G01 X10.3248 Y1.9782
G01 X10.3248 Y1.0506
G01 X10.3250 Y1.0408
G01 X10.3270 Y1.0213
G01 X10.3308 Y1.0020
G01 X10.3365 Y0.9832
G01 X10.3440 Y0.9651
G01 X10.3533 Y0.9478
G01 X10.3642 Y0.9315
G01 X10.3766 Y0.9163
G01 X10.3905 Y0.9024
G01 X10.4057 Y0.8900
G01 X10.4220 Y0.8791
G01 X10.4393 Y0.8698
G01 X10.4574 Y0.8623
G01 X10.4762 Y0.8566
G01 X10.4955 Y0.8528
G01 X10.5150 Y0.8508
G01 X10.5248 Y0.8506
G01 X11.1950 Y0.8508
G01 X11.2145 Y0.8528
G01 X11.2338 Y0.8566
G01 X11.2526 Y0.8623
G01 X11.2707 Y0.8698
G01 X11.2880 Y0.8791
G01 X11.3043 Y0.8900
G01 X11.3195 Y0.9024
G01 X11.3334 Y0.9163
G01 X11.3458 Y0.9315
G01 X11.3567 Y0.9478
G01 X11.3660 Y0.9651
G01 X11.3735 Y0.9832
G01 X11.3792 Y1.0020
G01 X11.3830 Y1.0213
G01 X11.3850 Y1.0408
G01 X11.3852 Y1.0506
G01 X11.3852 Y1.5499
G01 X11.8136 Y1.5499
G01 X12.4817 Y0.8817
G01 X12.5070 Y0.8585
G01 X12.5222 Y0.8460
G01 X12.5499 Y0.8257
G01 X12.5793 Y0.8079
G01 X12.5966 Y0.7986
G01 X12.6277 Y0.7841
G01 X12.6600 Y0.7723
G01 X12.6788 Y0.7666
G01 X12.7026 Y0.7607
G01 X12.7219 Y0.7568
G01 X12.7559 Y0.7520
G01 X12.8000 Y0.7499
G01 X14.9500 Y0.7499
G01 X14.9843 Y0.7513
G01 X15.0039 Y0.7532
G01 X15.0378 Y0.7585
G01 X15.0712 Y0.7666
G01 X15.0900 Y0.7723
G01 X15.1223 Y0.7841
G01 X15.1534 Y0.7986
G01 X15.1707 Y0.8079
G01 X15.2001 Y0.8257
G01 X15.2278 Y0.8460
G01 X15.2430 Y0.8585
G01 X15.2648 Y0.8783
G01 X16.9364 Y2.5499
G01 X19.3927 Y2.5499
G01 X19.3905 Y2.5378
G01 X19.3761 Y2.4393
G01 X19.3707 Y2.3300
G01 X19.3761 Y2.2207
G01 X19.3922 Y2.1125
G01 X19.4187 Y2.0064
G01 X19.4556 Y1.9034
G01 X19.5024 Y1.8045
G01 X19.5534 Y1.7189
G01 X19.5643 Y1.7026
G01 X19.6178 Y1.6305
G01 X19.6302 Y1.6153
G01 X19.6973 Y1.5417
G01 X19.7709 Y1.4746
G01 X19.7861 Y1.4622
G01 X19.8662 Y1.4030
G01 X19.9515 Y1.3516
G01 X19.9688 Y1.3424
G01 X20.0590 Y1.3000
G01 X20.1620 Y1.2631
G01 X20.2681 Y1.2366
G01 X20.3763 Y1.2205
G01 X20.4856 Y1.2151
G01 X22.3144 Y1.2151
G01 X22.4237 Y1.2205
G01 X22.5222 Y1.2349
G01 X22.5415 Y1.2387
G01 X22.6286 Y1.2605
G01 X22.6473 Y1.2662
G01 X22.7410 Y1.3000
G01 X22.8312 Y1.3424
G01 X22.8485 Y1.3516
G01 X22.9338 Y1.4030
G01 X23.0217 Y1.4682
G01 X23.0956 Y1.5349
G01 X23.1095 Y1.5488
G01 X23.1762 Y1.6227
G01 X23.2357 Y1.7026
G01 X23.2466 Y1.7189
G01 X23.2976 Y1.8045
G01 X23.3444 Y1.9034
G01 X23.3813 Y2.0064
G01 X23.4057 Y2.1029
G01 X23.4095 Y2.1222
G01 X23.4227 Y2.2110
G01 X23.4246 Y2.2305
G01 X23.4293 Y2.3300
G01 X23.4246 Y2.4295
G01 X23.4227 Y2.4490
G01 X23.4078 Y2.5475
G01 X23.3813 Y2.6536
G01 X23.3444 Y2.7566
G01 X23.2976 Y2.8555
G01 X23.2414 Y2.9494
G01 X23.1822 Y3.0295
G01 X23.1698 Y3.0447
G01 X23.1095 Y3.1112
G01 X23.0956 Y3.1251
G01 X23.0217 Y3.1918
G01 X22.9418 Y3.2513
G01 X22.9255 Y3.2622
G01 X22.8399 Y3.3132
G01 X22.7410 Y3.3600
G01 X22.6380 Y3.3969
G01 X22.5319 Y3.4234
G01 X22.4237 Y3.4395
G01 X22.3145 Y3.4449
G01 X20.7936 Y3.4453
G01 X20.7741 Y3.4480
G01 X20.7300 Y3.4501
G01 X16.7451 Y3.4501
G01 X16.7157 Y3.4487
G01 X16.6961 Y3.4468
G01 X16.6622 Y3.4415
G01 X16.6288 Y3.4334
G01 X16.6100 Y3.4277
G01 X16.5777 Y3.4159
G01 X16.5378 Y3.3970
G01 X16.4999 Y3.3743
G01 X16.4644 Y3.3480
G01 X16.4352 Y3.3217
G01 X16.3750 Y3.2616
G01 X14.3148 Y5.3217
G01 X14.2856 Y5.3480
G01 X14.2581 Y5.3686
G01 X14.2418 Y5.3795
G01 X14.2122 Y5.3970
G01 X14.1812 Y5.4119
G01 X14.1631 Y5.4194
G01 X14.1307 Y5.4307
G01 X14.0974 Y5.4393
G01 X14.0781 Y5.4432
G01 X14.0441 Y5.4480
G01 X14.0000 Y5.4501
G01 X7.9364 Y5.4501
G01 X6.2821 Y7.1045
G01 X6.2860 Y7.1119
G01 X6.2935 Y7.1300
G01 X6.2992 Y7.1488
G01 X6.3030 Y7.1681
G01 X6.3050 Y7.1876
G01 X6.3052 Y7.8686
G01 X6.3112 Y7.8891
G01 X6.3200 Y7.9324
G01 X6.3237 Y7.9665
G01 X6.3248 Y7.9861
G01 X6.3247 Y8.0205
G01 X6.3205 Y8.0645
G01 X6.3120 Y8.1078
G01 X6.3052 Y8.1314
G01 X6.3052 Y9.2294
G01 X6.3050 Y9.2392
G01 X6.3030 Y9.2587
G01 X6.2992 Y9.2780
G01 X6.2935 Y9.2968
G01 X6.2860 Y9.3149
G01 X6.2767 Y9.3322
G01 X6.2658 Y9.3485
G01 X6.2534 Y9.3637
G01 X6.2395 Y9.3776
G01 X6.2251 Y9.3894
G01 X6.2251 Y10.0200
G01 X6.9100 Y10.0200
G01 X6.9198 Y10.0202
G01 X6.9393 Y10.0222
G01 X6.9586 Y10.0260
G01 X6.9774 Y10.0317
G01 X6.9955 Y10.0392
G01 X7.0128 Y10.0485
G01 X7.0291 Y10.0594
G01 X7.0443 Y10.0718
G01 X7.0582 Y10.0857
G01 X7.0706 Y10.1009
G01 X7.0815 Y10.1172
G01 X7.0908 Y10.1345
G01 X7.0983 Y10.1526
G01 X7.1040 Y10.1714
G01 X7.1078 Y10.1907
G01 X7.1098 Y10.2102
G01 X7.1100 Y10.2200
G01 X7.1100 Y12.2560
G01 X7.1174 Y12.2469
G01 X7.1242 Y12.2398
G01 X7.6598 Y11.7042
G01 X7.6669 Y11.6974
G01 X7.6821 Y11.6850
G01 X7.6984 Y11.6741
G01 X7.7157 Y11.6648
G01 X7.7339 Y11.6573
G01 X7.7526 Y11.6516
G01 X7.7719 Y11.6478
G01 X7.7914 Y11.6458
G01 X7.8012 Y11.6456
G01 X8.5588 Y11.6456
G01 X8.5686 Y11.6458
G01 X8.5881 Y11.6478
G01 X8.6074 Y11.6516
G01 X8.6261 Y11.6573
G01 X8.6443 Y11.6648
G01 X8.6616 Y11.6741
G01 X8.6779 Y11.6850
G01 X8.6931 Y11.6974
G01 X8.7002 Y11.7042
G01 X9.2358 Y12.2398
G01 X9.2426 Y12.2469
G01 X9.2550 Y12.2621
G01 X9.2659 Y12.2784
G01 X9.2752 Y12.2957
G01 X9.2827 Y12.3139
G01 X9.2884 Y12.3326
G01 X9.2922 Y12.3519
G01 X9.2942 Y12.3714
G01 X9.2944 Y12.3812
G01 X9.2942 Y13.1486
G01 X9.2922 Y13.1681
G01 X9.2884 Y13.1874
G01 X9.2827 Y13.2061
G01 X9.2752 Y13.2243
G01 X9.2659 Y13.2416
G01 X9.2550 Y13.2579
G01 X9.2426 Y13.2731
G01 X8.7002 Y13.8158
G01 X8.6931 Y13.8226
G01 X8.6779 Y13.8350
G01 X8.6616 Y13.8459
G01 X8.6443 Y13.8552
G01 X8.6261 Y13.8627
G01 X8.6074 Y13.8684
G01 X8.5881 Y13.8722
G01 X8.5686 Y13.8742
G01 X7.8012 Y13.8744
G01 X7.7914 Y13.8742
G01 X7.7719 Y13.8722
G01 X7.7526 Y13.8684
G01 X7.7339 Y13.8627
G01 X7.7157 Y13.8552
G01 X7.6984 Y13.8459
G01 X7.6821 Y13.8350
G01 X7.6669 Y13.8226
G01 X7.6598 Y13.8158
G01 X7.1242 Y13.2802
G01 X7.1174 Y13.2731
G01 X7.1100 Y13.2640
G01 X7.1098 Y15.3098
G01 X7.1078 Y15.3293
G01 X7.1040 Y15.3486
G01 X7.0983 Y15.3674
G01 X7.0908 Y15.3855
G01 X7.0815 Y15.4028
G01 X7.0706 Y15.4191
G01 X7.0582 Y15.4343
G01 X7.0443 Y15.4482
G01 X7.0291 Y15.4606
G01 X7.0128 Y15.4715
G01 X6.9955 Y15.4808
G01 X6.9774 Y15.4883
G01 X6.9586 Y15.4940
G01 X6.9393 Y15.4978
G01 X6.9198 Y15.4998
G01 X6.9100 Y15.5000
G01 X4.3602 Y15.4998
G01 X4.3407 Y15.4978
G01 X4.3214 Y15.4940
G01 X4.3026 Y15.4883
G01 X4.2845 Y15.4808
G01 X4.2672 Y15.4715
G01 X4.2509 Y15.4606
G01 X4.2357 Y15.4482
G01 X4.2218 Y15.4343
G01 X4.2094 Y15.4191
G01 X4.1985 Y15.4028
G01 X4.1892 Y15.3855
G01 X4.1817 Y15.3674
G01 X4.1760 Y15.3486
G01 X4.1722 Y15.3293
G01 X4.1702 Y15.3098
G01 X4.1700 Y15.3000
G01 X4.1702 Y10.2102
G01 X4.1722 Y10.1907
G01 X4.1760 Y10.1714
G01 X4.1817 Y10.1526
G01 X4.1892 Y10.1345
G01 X4.1985 Y10.1172
G01 X4.2094 Y10.1009
G01 X4.2218 Y10.0857
G01 X4.2357 Y10.0718
G01 X4.2509 Y10.0594
G01 X4.2672 Y10.0485
G01 X4.2845 Y10.0392
G01 X4.3026 Y10.0317
G01 X4.3214 Y10.0260
G01 X4.3407 Y10.0222
G01 X4.3602 Y10.0202
G00 Z2.0000
G00 X0.5502 Y10.0202
G01 F50.00
G01 Z-0.3000
G01 F80.00
G01 X1.5149 Y10.0200
G01 X1.5149 Y9.3894
G01 X1.5005 Y9.3776
G01 X1.4866 Y9.3637
G01 X1.4742 Y9.3485
G01 X1.4633 Y9.3322
G01 X1.4540 Y9.3149
G01 X1.4465 Y9.2968
G01 X1.4408 Y9.2780
G01 X1.4370 Y9.2587
G01 X1.4350 Y9.2392
G01 X1.4348 Y8.3434
G01 X1.4314 Y8.3253
G01 X1.4268 Y8.2912
G01 X1.4249 Y8.2471
G01 X1.4273 Y8.2030
G01 X1.4324 Y8.1690
G01 X1.4348 Y8.1563
G01 X1.4348 Y7.1974
G01 X1.4350 Y7.1876
G01 X1.4370 Y7.1681
G01 X1.4408 Y7.1488
G01 X1.4465 Y7.1300
G01 X1.4540 Y7.1119
G01 X1.4633 Y7.0946
G01 X1.4742 Y7.0783
G01 X1.4866 Y7.0631
G01 X1.5005 Y7.0492
G01 X1.5157 Y7.0368
G01 X1.5320 Y7.0259
G01 X1.5493 Y7.0166
G01 X1.5674 Y7.0091
G01 X1.5862 Y7.0034
G01 X1.6055 Y6.9996
G01 X1.6250 Y6.9976
G01 X1.6348 Y6.9974
G01 X2.3050 Y6.9976
G01 X2.3245 Y6.9996
G01 X2.3438 Y7.0034
G01 X2.3626 Y7.0091
G01 X2.3807 Y7.0166
G01 X2.3980 Y7.0259
G01 X2.4143 Y7.0368
G01 X2.4295 Y7.0492
G01 X2.4434 Y7.0631
G01 X2.4558 Y7.0783
G01 X2.4667 Y7.0946
G01 X2.4760 Y7.1119
G01 X2.4835 Y7.1300
G01 X2.4892 Y7.1488
G01 X2.4930 Y7.1681
G01 X2.4950 Y7.1876
G01 X2.4952 Y7.1974
G01 X2.4950 Y9.2392
G01 X2.4930 Y9.2587
G01 X2.4892 Y9.2780
G01 X2.4835 Y9.2968
G01 X2.4760 Y9.3149
G01 X2.4667 Y9.3322
G01 X2.4558 Y9.3485
G01 X2.4434 Y9.3637
G01 X2.4295 Y9.3776
G01 X2.4151 Y9.3894
G01 X2.4151 Y10.0200
G01 X3.1000 Y10.0200
G01 X3.1098 Y10.0202
G01 X3.1293 Y10.0222
G01 X3.1486 Y10.0260
G01 X3.1674 Y10.0317
G01 X3.1855 Y10.0392
G01 X3.2028 Y10.0485
G01 X3.2191 Y10.0594
G01 X3.2343 Y10.0718
G01 X3.2482 Y10.0857
G01 X3.2606 Y10.1009
G01 X3.2715 Y10.1172
G01 X3.2808 Y10.1345
G01 X3.2883 Y10.1526
G01 X3.2940 Y10.1714
G01 X3.2978 Y10.1907
G01 X3.2998 Y10.2102
G01 X3.3000 Y15.3000
G01 X3.2998 Y15.3098
G01 X3.2978 Y15.3293
G01 X3.2940 Y15.3486
G01 X3.2883 Y15.3674
G01 X3.2808 Y15.3855
G01 X3.2715 Y15.4028
G01 X3.2606 Y15.4191
G01 X3.2482 Y15.4343
G01 X3.2343 Y15.4482
G01 X3.2191 Y15.4606
G01 X3.2028 Y15.4715
G01 X3.1855 Y15.4808
G01 X3.1674 Y15.4883
G01 X3.1486 Y15.4940
G01 X3.1293 Y15.4978
G01 X3.1098 Y15.4998
G01 X3.1000 Y15.5000
G01 X0.5502 Y15.4998
G01 X0.5307 Y15.4978
G01 X0.5114 Y15.4940
G01 X0.4926 Y15.4883
G01 X0.4745 Y15.4808
G01 X0.4572 Y15.4715
G01 X0.4409 Y15.4606
G01 X0.4257 Y15.4482
G01 X0.4118 Y15.4343
G01 X0.3994 Y15.4191
G01 X0.3885 Y15.4028
G01 X0.3792 Y15.3855
G01 X0.3717 Y15.3674
G01 X0.3660 Y15.3486
G01 X0.3622 Y15.3293
G01 X0.3602 Y15.3098
G01 X0.3600 Y15.3000
G01 X0.3602 Y10.2102
G01 X0.3622 Y10.1907
G01 X0.3660 Y10.1714
G01 X0.3717 Y10.1526
G01 X0.3792 Y10.1345
G01 X0.3885 Y10.1172
G01 X0.3994 Y10.1009
G01 X0.4118 Y10.0857
G01 X0.4257 Y10.0718
G01 X0.4409 Y10.0594
G01 X0.4572 Y10.0485
G01 X0.4745 Y10.0392
G01 X0.4926 Y10.0317
G01 X0.5114 Y10.0260
G01 X0.5307 Y10.0222
G01 X0.5502 Y10.0202
G00 Z2.0000
G00 X12.7174 Y9.9369
G01 F50.00
G01 Z-0.3000
G01 F80.00
G01 X13.2598 Y9.3942
G01 X13.2669 Y9.3874
G01 X13.2821 Y9.3750
G01 X13.2984 Y9.3641
G01 X13.3157 Y9.3548
G01 X13.3339 Y9.3473
G01 X13.3526 Y9.3416
G01 X13.3719 Y9.3378
G01 X13.3914 Y9.3358
G01 X13.4012 Y9.3356
G01 X14.1588 Y9.3356
G01 X14.1686 Y9.3358
G01 X14.1881 Y9.3378
G01 X14.2074 Y9.3416
G01 X14.2261 Y9.3473
G01 X14.2443 Y9.3548
G01 X14.2616 Y9.3641
G01 X14.2779 Y9.3750
G01 X14.2931 Y9.3874
G01 X14.3002 Y9.3942
G01 X14.8426 Y9.9369
G01 X14.8550 Y9.9521
G01 X14.8659 Y9.9684
G01 X14.8752 Y9.9857
G01 X14.8827 Y10.0039
G01 X14.8884 Y10.0226
G01 X14.8922 Y10.0419
G01 X14.8942 Y10.0614
G01 X14.8944 Y10.0712
G01 X14.8944 Y10.8288
G01 X14.8942 Y10.8386
G01 X14.8922 Y10.8581
G01 X14.8884 Y10.8774
G01 X14.8827 Y10.8961
G01 X14.8752 Y10.9143
G01 X14.8659 Y10.9316
G01 X14.8550 Y10.9479
G01 X14.8426 Y10.9631
G01 X14.8358 Y10.9702
G01 X14.7213 Y11.0847
G01 X15.3138 Y11.6772
G01 X15.3184 Y11.6741
G01 X15.3357 Y11.6648
G01 X15.3539 Y11.6573
G01 X15.3726 Y11.6516
G01 X15.3919 Y11.6478
G01 X15.4114 Y11.6458
G01 X15.4212 Y11.6456
G01 X16.1788 Y11.6456
G01 X16.1886 Y11.6458
G01 X16.2081 Y11.6478
G01 X16.2274 Y11.6516
G01 X16.2461 Y11.6573
G01 X16.2643 Y11.6648
G01 X16.2816 Y11.6741
G01 X16.2979 Y11.6850
G01 X16.3131 Y11.6974
G01 X16.3202 Y11.7042
G01 X16.8558 Y12.2398
G01 X16.8626 Y12.2469
G01 X16.8750 Y12.2621
G01 X16.8859 Y12.2784
G01 X16.8952 Y12.2957
G01 X16.8969 Y12.2999
G01 X17.1200 Y12.2999
G01 X17.1202 Y9.9802
G01 X17.1222 Y9.9607
G01 X17.1260 Y9.9414
G01 X17.1317 Y9.9226
G01 X17.1392 Y9.9045
G01 X17.1485 Y9.8872
G01 X17.1594 Y9.8709
G01 X17.1718 Y9.8557
G01 X17.1857 Y9.8418
G01 X17.2009 Y9.8294
G01 X17.2172 Y9.8185
G01 X17.2345 Y9.8092
G01 X17.2526 Y9.8017
G01 X17.2714 Y9.7960
G01 X17.2907 Y9.7922
G01 X17.3102 Y9.7902
G01 X17.3200 Y9.7900
G01 X19.8600 Y9.7900
G01 X19.8698 Y9.7902
G01 X19.8893 Y9.7922
G01 X19.9086 Y9.7960
G01 X19.9274 Y9.8017
G01 X19.9455 Y9.8092
G01 X19.9628 Y9.8185
G01 X19.9791 Y9.8294
G01 X19.9943 Y9.8418
G01 X20.0082 Y9.8557
G01 X20.0206 Y9.8709
G01 X20.0315 Y9.8872
G01 X20.0408 Y9.9045
G01 X20.0483 Y9.9226
G01 X20.0540 Y9.9414
G01 X20.0578 Y9.9607
G01 X20.0598 Y9.9802
G01 X20.0600 Y9.9900
G01 X20.0600 Y15.0700
G01 X20.0598 Y15.0798
G01 X20.0578 Y15.0993
G01 X20.0540 Y15.1186
G01 X20.0483 Y15.1374
G01 X20.0408 Y15.1555
G01 X20.0315 Y15.1728
G01 X20.0206 Y15.1891
G01 X20.0082 Y15.2043
G01 X19.9943 Y15.2182
G01 X19.9791 Y15.2306
G01 X19.9628 Y15.2415
G01 X19.9455 Y15.2508
G01 X19.9274 Y15.2583
G01 X19.9086 Y15.2640
G01 X19.8893 Y15.2678
G01 X19.8698 Y15.2698
G01 X19.8600 Y15.2700
G01 X17.3200 Y15.2700
G01 X17.3102 Y15.2698
G01 X17.2907 Y15.2678
G01 X17.2714 Y15.2640
G01 X17.2526 Y15.2583
G01 X17.2345 Y15.2508
G01 X17.2172 Y15.2415
G01 X17.2009 Y15.2306
G01 X17.1857 Y15.2182
G01 X17.1718 Y15.2043
G01 X17.1594 Y15.1891
G01 X17.1485 Y15.1728
G01 X17.1392 Y15.1555
G01 X17.1317 Y15.1374
G01 X17.1260 Y15.1186
G01 X17.1222 Y15.0993
G01 X17.1202 Y15.0798
G01 X17.1200 Y13.2001
G01 X16.9045 Y13.2001
G01 X16.9027 Y13.2061
G01 X16.8952 Y13.2243
G01 X16.8859 Y13.2416
G01 X16.8750 Y13.2579
G01 X16.8626 Y13.2731
G01 X16.8558 Y13.2802
G01 X16.3202 Y13.8158
G01 X16.3131 Y13.8226
G01 X16.2979 Y13.8350
G01 X16.2816 Y13.8459
G01 X16.2643 Y13.8552
G01 X16.2461 Y13.8627
G01 X16.2274 Y13.8684
G01 X16.2081 Y13.8722
G01 X16.1886 Y13.8742
G01 X16.1788 Y13.8744
G01 X15.4114 Y13.8742
G01 X15.3919 Y13.8722
G01 X15.3726 Y13.8684
G01 X15.3539 Y13.8627
G01 X15.3357 Y13.8552
G01 X15.3184 Y13.8459
G01 X15.3021 Y13.8350
G01 X15.2869 Y13.8226
G01 X15.2798 Y13.8158
G01 X14.7442 Y13.2802
G01 X14.7374 Y13.2731
G01 X14.7250 Y13.2579
G01 X14.7141 Y13.2416
G01 X14.7048 Y13.2243
G01 X14.6973 Y13.2061
G01 X14.6916 Y13.1874
G01 X14.6878 Y13.1681
G01 X14.6858 Y13.1486
G01 X14.6856 Y13.1388
G01 X14.6856 Y12.3812
G01 X14.6858 Y12.3714
G01 X14.6878 Y12.3519
G01 X14.6916 Y12.3326
G01 X14.6926 Y12.3292
G01 X13.9278 Y11.5644
G01 X13.3914 Y11.5642
G01 X13.3719 Y11.5622
G01 X13.3526 Y11.5584
G01 X13.3339 Y11.5527
G01 X13.3157 Y11.5452
G01 X13.2984 Y11.5359
G01 X13.2821 Y11.5250
G01 X13.2669 Y11.5126
G01 X13.2598 Y11.5058
G01 X12.7242 Y10.9702
G01 X12.7174 Y10.9631
G01 X12.7050 Y10.9479
G01 X12.6941 Y10.9316
G01 X12.6848 Y10.9143
G01 X12.6773 Y10.8961
G01 X12.6716 Y10.8774
G01 X12.6678 Y10.8581
G01 X12.6658 Y10.8386
G01 X12.6656 Y10.0712
G01 X12.6658 Y10.0614
G01 X12.6678 Y10.0419
G01 X12.6716 Y10.0226
G01 X12.6773 Y10.0039
G01 X12.6848 Y9.9857
G01 X12.6941 Y9.9684
G01 X12.7050 Y9.9521
G01 X12.7174 Y9.9369
G00 Z2.0000
G00 X16.2774 Y8.1469
G01 F50.00
G01 Z-0.3000
G01 F80.00
G01 X16.8269 Y7.5974
G01 X16.8421 Y7.5850
G01 X16.8584 Y7.5741
G01 X16.8757 Y7.5648
G01 X16.8939 Y7.5573
G01 X16.9126 Y7.5516
G01 X16.9319 Y7.5478
G01 X16.9514 Y7.5458
G01 X17.7188 Y7.5456
G01 X17.7286 Y7.5458
G01 X17.7481 Y7.5478
G01 X17.7674 Y7.5516
G01 X17.7861 Y7.5573
G01 X17.8043 Y7.5648
G01 X17.8216 Y7.5741
G01 X17.8379 Y7.5850
G01 X17.8531 Y7.5974
G01 X18.3059 Y8.0499
G01 X19.5735 Y8.0499
G01 X19.5586 Y8.0294
G01 X19.5534 Y8.0211
G01 X19.5024 Y7.9355
G01 X19.4596 Y7.8456
G01 X19.4521 Y7.8275
G01 X19.4187 Y7.7336
G01 X19.3943 Y7.6371
G01 X19.3905 Y7.6178
G01 X19.3761 Y7.5193
G01 X19.3710 Y7.4198
G01 X19.3710 Y7.4002
G01 X19.3761 Y7.3007
G01 X19.3905 Y7.2022
G01 X19.3943 Y7.1829
G01 X19.4187 Y7.0864
G01 X19.4521 Y6.9925
G01 X19.4596 Y6.9744
G01 X19.5024 Y6.8845
G01 X19.5534 Y6.7989
G01 X19.5643 Y6.7826
G01 X19.6238 Y6.7027
G01 X19.6905 Y6.6288
G01 X19.7044 Y6.6149
G01 X19.7783 Y6.5482
G01 X19.8582 Y6.4887
G01 X19.8745 Y6.4778
G01 X19.9601 Y6.4268
G01 X20.0500 Y6.3840
G01 X20.0681 Y6.3765
G01 X20.1620 Y6.3431
G01 X20.2585 Y6.3187
G01 X20.2778 Y6.3149
G01 X20.3763 Y6.3005
G01 X20.4856 Y6.2951
G01 X22.3193 Y6.2952
G01 X22.4237 Y6.3005
G01 X22.5222 Y6.3149
G01 X22.5415 Y6.3187
G01 X22.6380 Y6.3431
G01 X22.7410 Y6.3800
G01 X22.8312 Y6.4224
G01 X22.8485 Y6.4316
G01 X22.9338 Y6.4830
G01 X23.0217 Y6.5482
G01 X23.0956 Y6.6149
G01 X23.1095 Y6.6288
G01 X23.1762 Y6.7027
G01 X23.2414 Y6.7906
G01 X23.2928 Y6.8759
G01 X23.3020 Y6.8932
G01 X23.3444 Y6.9834
G01 X23.3813 Y7.0864
G01 X23.4057 Y7.1829
G01 X23.4095 Y7.2022
G01 X23.4239 Y7.3007
G01 X23.4293 Y7.4100
G01 X23.4246 Y7.5095
G01 X23.4227 Y7.5290
G01 X23.4078 Y7.6275
G01 X23.3813 Y7.7336
G01 X23.3479 Y7.8275
G01 X23.3404 Y7.8456
G01 X23.3020 Y7.9268
G01 X23.2928 Y7.9441
G01 X23.2414 Y8.0294
G01 X23.1762 Y8.1173
G01 X23.1027 Y8.1983
G01 X23.0291 Y8.2654
G01 X23.0139 Y8.2778
G01 X22.9418 Y8.3313
G01 X22.9255 Y8.3422
G01 X22.8399 Y8.3932
G01 X22.7410 Y8.4400
G01 X22.6380 Y8.4769
G01 X22.5319 Y8.5034
G01 X22.4237 Y8.5195
G01 X22.3242 Y8.5246
G01 X20.8617 Y8.5249
G01 X20.5683 Y8.8183
G01 X20.5430 Y8.8415
G01 X20.5278 Y8.8540
G01 X20.5001 Y8.8743
G01 X20.4707 Y8.8921
G01 X20.4534 Y8.9014
G01 X20.4223 Y8.9159
G01 X20.3900 Y8.9277
G01 X20.3712 Y8.9334
G01 X20.3378 Y8.9415
G01 X20.2941 Y8.9480
G01 X20.2500 Y8.9501
G01 X18.4544 Y8.9501
G01 X18.4542 Y9.0486
G01 X18.4522 Y9.0681
G01 X18.4484 Y9.0874
G01 X18.4427 Y9.1061
G01 X18.4352 Y9.1243
G01 X18.4259 Y9.1416
G01 X18.4150 Y9.1579
G01 X18.4026 Y9.1731
G01 X17.8531 Y9.7226
G01 X17.8379 Y9.7350
G01 X17.8216 Y9.7459
G01 X17.8043 Y9.7552
G01 X17.7861 Y9.7627
G01 X17.7674 Y9.7684
G01 X17.7481 Y9.7722
G01 X17.7286 Y9.7742
G01 X17.7188 Y9.7744
G01 X16.9612 Y9.7744
G01 X16.9514 Y9.7742
G01 X16.9319 Y9.7722
G01 X16.9126 Y9.7684
G01 X16.8939 Y9.7627
G01 X16.8757 Y9.7552
G01 X16.8584 Y9.7459
G01 X16.8421 Y9.7350
G01 X16.8269 Y9.7226
G01 X16.8198 Y9.7158
G01 X16.2774 Y9.1731
G01 X16.2650 Y9.1579
G01 X16.2541 Y9.1416
G01 X16.2448 Y9.1243
G01 X16.2373 Y9.1061
G01 X16.2316 Y9.0874
G01 X16.2278 Y9.0681
G01 X16.2258 Y9.0486
G01 X16.2256 Y9.0388
G01 X16.2258 Y8.2714
G01 X16.2278 Y8.2519
G01 X16.2316 Y8.2326
G01 X16.2373 Y8.2139
G01 X16.2448 Y8.1957
G01 X16.2541 Y8.1784
G01 X16.2650 Y8.1621
G01 X16.2774 Y8.1469
G00 Z2.0000
G00 X21.4302 Y9.7502
G01 F50.00
G01 Z-0.3000
G01 F80.00
G01 X23.3634 Y9.7500
G01 X23.7999 Y9.3136
G01 X23.7999 Y5.9364
G01 X23.2833 Y5.4199
G01 X23.2414 Y5.4894
G01 X23.1822 Y5.5695
G01 X23.1698 Y5.5847
G01 X23.1095 Y5.6512
G01 X23.0956 Y5.6651
G01 X23.0217 Y5.7318
G01 X22.9338 Y5.7970
G01 X22.8399 Y5.8532
G01 X22.7500 Y5.8960
G01 X22.7319 Y5.9035
G01 X22.6380 Y5.9369
G01 X22.5415 Y5.9613
G01 X22.5222 Y5.9651
G01 X22.4237 Y5.9795
G01 X22.3144 Y5.9849
G01 X20.4856 Y5.9849
G01 X20.3861 Y5.9802
G01 X20.3666 Y5.9783
G01 X20.2681 Y5.9634
G01 X20.1714 Y5.9395
G01 X20.1527 Y5.9338
G01 X20.0590 Y5.9000
G01 X19.9688 Y5.8576
G01 X19.9515 Y5.8484
G01 X19.8745 Y5.8022
G01 X19.8582 Y5.7913
G01 X19.7861 Y5.7378
G01 X19.7709 Y5.7254
G01 X19.6973 Y5.6583
G01 X19.6238 Y5.5773
G01 X19.5586 Y5.4894
G01 X19.5072 Y5.4041
G01 X19.4980 Y5.3868
G01 X19.4556 Y5.2966
G01 X19.4187 Y5.1936
G01 X19.3943 Y5.0971
G01 X19.3905 Y5.0778
G01 X19.3761 Y4.9793
G01 X19.3707 Y4.8700
G01 X19.3754 Y4.7705
G01 X19.3773 Y4.7510
G01 X19.3922 Y4.6525
G01 X19.4187 Y4.5464
G01 X19.4521 Y4.4525
G01 X19.4596 Y4.4344
G01 X19.5024 Y4.3445
G01 X19.5586 Y4.2506
G01 X19.6178 Y4.1705
G01 X19.6302 Y4.1553
G01 X19.6973 Y4.0817
G01 X19.7783 Y4.0082
G01 X19.8582 Y3.9487
G01 X19.8745 Y3.9378
G01 X19.9601 Y3.8868
G01 X20.0500 Y3.8440
G01 X20.0681 Y3.8365
G01 X20.1620 Y3.8031
G01 X20.2681 Y3.7766
G01 X20.3763 Y3.7605
G01 X20.4856 Y3.7551
G01 X22.3193 Y3.7552
G01 X22.4237 Y3.7605
G01 X22.5319 Y3.7766
G01 X22.6380 Y3.8031
G01 X22.7410 Y3.8400
G01 X22.8399 Y3.8868
G01 X22.9338 Y3.9430
G01 X23.0217 Y4.0082
G01 X23.1027 Y4.0817
G01 X23.1762 Y4.1627
G01 X23.2414 Y4.2506
G01 X23.2976 Y4.3445
G01 X23.3336 Y4.4199
G01 X23.3749 Y4.4199
G01 X23.4043 Y4.4213
G01 X23.4239 Y4.4232
G01 X23.4481 Y4.4268
G01 X23.4674 Y4.4307
G01 X23.5007 Y4.4393
G01 X23.5331 Y4.4506
G01 X23.5512 Y4.4581
G01 X23.5822 Y4.4730
G01 X23.6201 Y4.4957
G01 X23.6556 Y4.5220
G01 X23.6812 Y4.5449
G01 X24.5717 Y5.4352
G01 X24.5980 Y5.4644
G01 X24.6186 Y5.4919
G01 X24.6295 Y5.5082
G01 X24.6421 Y5.5293
G01 X24.6514 Y5.5466
G01 X24.6659 Y5.5777
G01 X24.6777 Y5.6100
G01 X24.6834 Y5.6288
G01 X24.6893 Y5.6526
G01 X24.6932 Y5.6719
G01 X24.6980 Y5.7059
G01 X24.7001 Y5.7500
G01 X24.7001 Y9.5000
G01 X24.6987 Y9.5343
G01 X24.6968 Y9.5539
G01 X24.6932 Y9.5781
G01 X24.6893 Y9.5974
G01 X24.6807 Y9.6307
G01 X24.6659 Y9.6723
G01 X24.6514 Y9.7034
G01 X24.6421 Y9.7207
G01 X24.6243 Y9.7501
G01 X24.6040 Y9.7778
G01 X24.5915 Y9.7930
G01 X24.5683 Y9.8183
G01 X24.1800 Y10.2066
G01 X24.1800 Y15.0300
G01 X24.1798 Y15.0398
G01 X24.1778 Y15.0593
G01 X24.1740 Y15.0786
G01 X24.1683 Y15.0974
G01 X24.1608 Y15.1155
G01 X24.1515 Y15.1328
G01 X24.1406 Y15.1491
G01 X24.1282 Y15.1643
G01 X24.1143 Y15.1782
G01 X24.0991 Y15.1906
G01 X24.0828 Y15.2015
G01 X24.0655 Y15.2108
G01 X24.0474 Y15.2183
G01 X24.0286 Y15.2240
G01 X24.0093 Y15.2278
G01 X23.9898 Y15.2298
G01 X23.9800 Y15.2300
G01 X21.4302 Y15.2298
G01 X21.4107 Y15.2278
G01 X21.3914 Y15.2240
G01 X21.3726 Y15.2183
G01 X21.3545 Y15.2108
G01 X21.3372 Y15.2015
G01 X21.3209 Y15.1906
G01 X21.3057 Y15.1782
G01 X21.2918 Y15.1643
G01 X21.2794 Y15.1491
G01 X21.2685 Y15.1328
G01 X21.2592 Y15.1155
G01 X21.2517 Y15.0974
G01 X21.2460 Y15.0786
G01 X21.2422 Y15.0593
G01 X21.2402 Y15.0398
G01 X21.2400 Y15.0300
G01 X21.2402 Y9.9402
G01 X21.2422 Y9.9207
G01 X21.2460 Y9.9014
G01 X21.2517 Y9.8826
G01 X21.2592 Y9.8645
G01 X21.2685 Y9.8472
G01 X21.2794 Y9.8309
G01 X21.2918 Y9.8157
G01 X21.3057 Y9.8018
G01 X21.3209 Y9.7894
G01 X21.3372 Y9.7785
G01 X21.3545 Y9.7692
G01 X21.3726 Y9.7617
G01 X21.3914 Y9.7560
G01 X21.4107 Y9.7522
G01 X21.4302 Y9.7502
G00 Z2.0000
M05
G00 Z2.0000
G00 Z15.00
G00 X0.0 Y0.0

