(G-CODE GENERATED BY FLATCAM v8.99 - www.flatcam.org - Version Date: 2019/12/15)

(Name: copper_top.gbr_cutout_cnc1.8)
(Type: G-code from Geometry)
(Units: MM)

(Created on Sunday, 09 February 2020 at 14:58)

(TOOL DIAMETER: 1.8 mm)
(Feedrate: 40.0 mm/min)
(Feedrate_Z: 40.0 mm/min)
(Feedrate rapids 1500.0 mm/min)

(Z_Cut: -2.0 mm)
(DepthPerCut: 1.0 mm <=>2 passes)
(Z_Move: 2.0 mm)
(Z Toolchange: 15.0 mm)
(X,Y Toolchange: 0.0000, 0.0000 mm)
(Z Start: None mm)
(Z End: 15.0 mm)
(Steps per circle: 64)
(Preprocessor Geometry: default)

(X range:   -0.5400 ...   25.6001  mm)
(Y range:   -1.1001 ...   16.4000  mm)

(Spindle Speed: None RPM)
G21
G90
G94




G01 F40.00
G00 Z2.0000

M03
G00 X-0.5400 Y4.9499
G01 F40.00
G01 Z-1.0000
G01 F40.00
G01 X-0.5400 Y-0.0001
G01 X-0.5347 Y-0.1079
G01 X-0.5189 Y-0.2147
G01 X-0.4926 Y-0.3194
G01 X-0.4563 Y-0.4211
G01 X-0.4101 Y-0.5187
G01 X-0.3546 Y-0.6113
G01 X-0.2903 Y-0.6980
G01 X-0.2178 Y-0.7779
G01 X-0.1378 Y-0.8504
G01 X-0.0511 Y-0.9147
G01 X0.0415 Y-0.9702
G01 X0.1390 Y-1.0164
G01 X0.2407 Y-1.0528
G01 X0.3454 Y-1.0790
G01 X0.4522 Y-1.0948
G01 X0.5600 Y-1.1001
G01 X9.8301 Y-1.1001
G00 X9.8301 Y-1.1001
G01 F40.00
G01 Z-2.0000
G01 F40.00
G01 X0.5600 Y-1.1001
G01 X0.4522 Y-1.0948
G01 X0.3454 Y-1.0790
G01 X0.2407 Y-1.0528
G01 X0.1390 Y-1.0164
G01 X0.0415 Y-0.9702
G01 X-0.0511 Y-0.9147
G01 X-0.1378 Y-0.8504
G01 X-0.2178 Y-0.7779
G01 X-0.2903 Y-0.6980
G01 X-0.3546 Y-0.6113
G01 X-0.4101 Y-0.5187
G01 X-0.4563 Y-0.4211
G01 X-0.4926 Y-0.3194
G01 X-0.5189 Y-0.2147
G01 X-0.5347 Y-0.1079
G01 X-0.5400 Y-0.0001
G01 X-0.5400 Y4.9499
G00 Z2.0000
G00 X-0.5400 Y10.7499
G01 F40.00
G01 Z-1.0000
G01 F40.00
G01 X-0.5400 Y15.3000
G01 X-0.5347 Y15.4078
G01 X-0.5189 Y15.5146
G01 X-0.4926 Y15.6193
G01 X-0.4563 Y15.7210
G01 X-0.4101 Y15.8185
G01 X-0.3546 Y15.9111
G01 X-0.2903 Y15.9978
G01 X-0.2178 Y16.0778
G01 X-0.1378 Y16.1503
G01 X-0.0511 Y16.2146
G01 X0.0415 Y16.2701
G01 X0.1390 Y16.3163
G01 X0.2407 Y16.3526
G01 X0.3454 Y16.3789
G01 X0.4522 Y16.3947
G01 X0.5600 Y16.4000
G01 X9.8301 Y16.4000
G00 X9.8301 Y16.4000
G01 F40.00
G01 Z-2.0000
G01 F40.00
G01 X0.5600 Y16.4000
G01 X0.4522 Y16.3947
G01 X0.3454 Y16.3789
G01 X0.2407 Y16.3526
G01 X0.1390 Y16.3163
G01 X0.0415 Y16.2701
G01 X-0.0511 Y16.2146
G01 X-0.1378 Y16.1503
G01 X-0.2178 Y16.0778
G01 X-0.2903 Y15.9978
G01 X-0.3546 Y15.9111
G01 X-0.4101 Y15.8185
G01 X-0.4563 Y15.7210
G01 X-0.4926 Y15.6193
G01 X-0.5189 Y15.5146
G01 X-0.5347 Y15.4078
G01 X-0.5400 Y15.3000
G01 X-0.5400 Y10.7499
G00 Z2.0000
G00 X15.6301 Y16.4000
G01 F40.00
G01 Z-1.0000
G01 F40.00
G01 X24.5001 Y16.4000
G01 X24.6079 Y16.3947
G01 X24.7147 Y16.3789
G01 X24.8194 Y16.3526
G01 X24.9211 Y16.3163
G01 X25.0187 Y16.2701
G01 X25.1113 Y16.2146
G01 X25.1980 Y16.1503
G01 X25.2779 Y16.0778
G01 X25.3504 Y15.9978
G01 X25.4147 Y15.9111
G01 X25.4702 Y15.8185
G01 X25.5164 Y15.7210
G01 X25.5528 Y15.6193
G01 X25.5790 Y15.5146
G01 X25.5948 Y15.4078
G01 X25.6001 Y15.3000
G01 X25.6001 Y10.7499
G00 X25.6001 Y10.7499
G01 F40.00
G01 Z-2.0000
G01 F40.00
G01 X25.6001 Y15.3000
G01 X25.5948 Y15.4078
G01 X25.5790 Y15.5146
G01 X25.5528 Y15.6193
G01 X25.5164 Y15.7210
G01 X25.4702 Y15.8185
G01 X25.4147 Y15.9111
G01 X25.3504 Y15.9978
G01 X25.2779 Y16.0778
G01 X25.1980 Y16.1503
G01 X25.1113 Y16.2146
G01 X25.0187 Y16.2701
G01 X24.9211 Y16.3163
G01 X24.8194 Y16.3526
G01 X24.7147 Y16.3789
G01 X24.6079 Y16.3947
G01 X24.5001 Y16.4000
G01 X15.6301 Y16.4000
G00 Z2.0000
G00 X25.6001 Y4.9499
G01 F40.00
G01 Z-1.0000
G01 F40.00
G01 X25.6001 Y-0.0001
G01 X25.5948 Y-0.1079
G01 X25.5790 Y-0.2147
G01 X25.5528 Y-0.3194
G01 X25.5164 Y-0.4211
G01 X25.4702 Y-0.5187
G01 X25.4147 Y-0.6113
G01 X25.3504 Y-0.6980
G01 X25.2779 Y-0.7779
G01 X25.1980 Y-0.8504
G01 X25.1113 Y-0.9147
G01 X25.0187 Y-0.9702
G01 X24.9211 Y-1.0164
G01 X24.8194 Y-1.0528
G01 X24.7147 Y-1.0790
G01 X24.6079 Y-1.0948
G01 X24.5001 Y-1.1001
G00 X24.5001 Y-1.1001
G01 F40.00
G01 Z-2.0000
G01 F40.00
G01 X24.6079 Y-1.0948
G01 X24.7147 Y-1.0790
G01 X24.8194 Y-1.0528
G01 X24.9211 Y-1.0164
G01 X25.0187 Y-0.9702
G01 X25.1113 Y-0.9147
G01 X25.1980 Y-0.8504
G01 X25.2779 Y-0.7779
G01 X25.3504 Y-0.6980
G01 X25.4147 Y-0.6113
G01 X25.4702 Y-0.5187
G01 X25.5164 Y-0.4211
G01 X25.5528 Y-0.3194
G01 X25.5790 Y-0.2147
G01 X25.5948 Y-0.1079
G01 X25.6001 Y-0.0001
G01 X25.6001 Y4.9499
G00 Z2.0000
G00 X24.5001 Y-1.1001
G01 F40.00
G01 Z-1.0000
G01 F40.00
G01 X15.6301 Y-1.1001
G00 X15.6301 Y-1.1001
G01 F40.00
G01 Z-2.0000
G01 F40.00
G01 X24.5001 Y-1.1001
G00 Z2.0000
M05
G00 Z2.0000
G00 Z15.00
G00 X0.0 Y0.0

