(G-CODE GENERATED BY FLATCAM v8.99 - www.flatcam.org - Version Date: 2019/12/15)

(Name: copper_top.gbr_cutout_cnc1.5)
(Type: G-code from Geometry)
(Units: MM)

(Created on Sunday, 09 February 2020 at 10:51)

(TOOL DIAMETER: 1.5 mm)
(Feedrate: 60.0 mm/min)
(Feedrate_Z: 40.0 mm/min)
(Feedrate rapids 1500.0 mm/min)

(Z_Cut: -2.0 mm)
(DepthPerCut: 1.0 mm <=>2 passes)
(Z_Move: 2.0 mm)
(Z Toolchange: 15.0 mm)
(X,Y Toolchange: 0.0000, 0.0000 mm)
(Z Start: None mm)
(Z End: 15.0 mm)
(Steps per circle: 64)
(Preprocessor Geometry: default)

(X range:   -0.2900 ...   25.3501  mm)
(Y range:   -0.8501 ...   16.1500  mm)

(Spindle Speed: None RPM)
G21
G90
G94




G01 F60.00
G00 Z2.0000

M03
G00 X-0.2900 Y4.9999
G01 F40.00
G01 Z-1.0000
G01 F60.00
G01 X-0.2900 Y-0.0001
G01 X-0.2859 Y-0.0834
G01 X-0.2737 Y-0.1660
G01 X-0.2534 Y-0.2469
G01 X-0.2253 Y-0.3254
G01 X-0.1896 Y-0.4008
G01 X-0.1467 Y-0.4724
G01 X-0.0971 Y-0.5394
G01 X-0.0410 Y-0.6012
G01 X0.0208 Y-0.6572
G01 X0.0878 Y-0.7069
G01 X0.1593 Y-0.7498
G01 X0.2347 Y-0.7854
G01 X0.3133 Y-0.8135
G01 X0.3942 Y-0.8338
G01 X0.4767 Y-0.8460
G01 X0.5600 Y-0.8501
G01 X9.8801 Y-0.8501
G00 X9.8801 Y-0.8501
G01 F40.00
G01 Z-2.0000
G01 F60.00
G01 X0.5600 Y-0.8501
G01 X0.4767 Y-0.8460
G01 X0.3942 Y-0.8338
G01 X0.3133 Y-0.8135
G01 X0.2347 Y-0.7854
G01 X0.1593 Y-0.7498
G01 X0.0878 Y-0.7069
G01 X0.0208 Y-0.6572
G01 X-0.0410 Y-0.6012
G01 X-0.0971 Y-0.5394
G01 X-0.1467 Y-0.4724
G01 X-0.1896 Y-0.4008
G01 X-0.2253 Y-0.3254
G01 X-0.2534 Y-0.2469
G01 X-0.2737 Y-0.1660
G01 X-0.2859 Y-0.0834
G01 X-0.2900 Y-0.0001
G01 X-0.2900 Y4.9999
G00 Z2.0000
G00 X-0.2900 Y10.4999
G01 F40.00
G01 Z-1.0000
G01 F60.00
G01 X-0.2900 Y15.3000
G01 X-0.2859 Y15.3833
G01 X-0.2737 Y15.4658
G01 X-0.2534 Y15.5467
G01 X-0.2253 Y15.6253
G01 X-0.1896 Y15.7007
G01 X-0.1467 Y15.7722
G01 X-0.0971 Y15.8392
G01 X-0.0410 Y15.9010
G01 X0.0208 Y15.9571
G01 X0.0878 Y16.0067
G01 X0.1593 Y16.0496
G01 X0.2347 Y16.0853
G01 X0.3133 Y16.1134
G01 X0.3942 Y16.1337
G01 X0.4767 Y16.1459
G01 X0.5600 Y16.1500
G01 X9.8801 Y16.1500
G00 X9.8801 Y16.1500
G01 F40.00
G01 Z-2.0000
G01 F60.00
G01 X0.5600 Y16.1500
G01 X0.4767 Y16.1459
G01 X0.3942 Y16.1337
G01 X0.3133 Y16.1134
G01 X0.2347 Y16.0853
G01 X0.1593 Y16.0496
G01 X0.0878 Y16.0067
G01 X0.0208 Y15.9571
G01 X-0.0410 Y15.9010
G01 X-0.0971 Y15.8392
G01 X-0.1467 Y15.7722
G01 X-0.1896 Y15.7007
G01 X-0.2253 Y15.6253
G01 X-0.2534 Y15.5467
G01 X-0.2737 Y15.4658
G01 X-0.2859 Y15.3833
G01 X-0.2900 Y15.3000
G01 X-0.2900 Y10.4999
G00 Z2.0000
G00 X15.3801 Y16.1500
G01 F40.00
G01 Z-1.0000
G01 F60.00
G01 X24.5001 Y16.1500
G01 X24.5834 Y16.1459
G01 X24.6660 Y16.1337
G01 X24.7469 Y16.1134
G01 X24.8254 Y16.0853
G01 X24.9008 Y16.0496
G01 X24.9724 Y16.0067
G01 X25.0394 Y15.9571
G01 X25.1012 Y15.9010
G01 X25.1572 Y15.8392
G01 X25.2069 Y15.7722
G01 X25.2498 Y15.7007
G01 X25.2854 Y15.6253
G01 X25.3135 Y15.5467
G01 X25.3338 Y15.4658
G01 X25.3460 Y15.3833
G01 X25.3501 Y15.3000
G01 X25.3501 Y10.4999
G00 X25.3501 Y10.4999
G01 F40.00
G01 Z-2.0000
G01 F60.00
G01 X25.3501 Y15.3000
G01 X25.3460 Y15.3833
G01 X25.3338 Y15.4658
G01 X25.3135 Y15.5467
G01 X25.2854 Y15.6253
G01 X25.2498 Y15.7007
G01 X25.2069 Y15.7722
G01 X25.1572 Y15.8392
G01 X25.1012 Y15.9010
G01 X25.0394 Y15.9571
G01 X24.9724 Y16.0067
G01 X24.9008 Y16.0496
G01 X24.8254 Y16.0853
G01 X24.7469 Y16.1134
G01 X24.6660 Y16.1337
G01 X24.5834 Y16.1459
G01 X24.5001 Y16.1500
G01 X15.3801 Y16.1500
G00 Z2.0000
G00 X25.3501 Y4.9999
G01 F40.00
G01 Z-1.0000
G01 F60.00
G01 X25.3501 Y-0.0001
G01 X25.3460 Y-0.0834
G01 X25.3338 Y-0.1660
G01 X25.3135 Y-0.2469
G01 X25.2854 Y-0.3254
G01 X25.2498 Y-0.4008
G01 X25.2069 Y-0.4724
G01 X25.1572 Y-0.5394
G01 X25.1012 Y-0.6012
G01 X25.0394 Y-0.6572
G01 X24.9724 Y-0.7069
G01 X24.9008 Y-0.7498
G01 X24.8254 Y-0.7854
G01 X24.7469 Y-0.8135
G01 X24.6660 Y-0.8338
G01 X24.5834 Y-0.8460
G01 X24.5001 Y-0.8501
G00 X24.5001 Y-0.8501
G01 F40.00
G01 Z-2.0000
G01 F60.00
G01 X24.5834 Y-0.8460
G01 X24.6660 Y-0.8338
G01 X24.7469 Y-0.8135
G01 X24.8254 Y-0.7854
G01 X24.9008 Y-0.7498
G01 X24.9724 Y-0.7069
G01 X25.0394 Y-0.6572
G01 X25.1012 Y-0.6012
G01 X25.1572 Y-0.5394
G01 X25.2069 Y-0.4724
G01 X25.2498 Y-0.4008
G01 X25.2854 Y-0.3254
G01 X25.3135 Y-0.2469
G01 X25.3338 Y-0.1660
G01 X25.3460 Y-0.0834
G01 X25.3501 Y-0.0001
G01 X25.3501 Y4.9999
G00 Z2.0000
G00 X24.5001 Y-0.8501
G01 F40.00
G01 Z-1.0000
G01 F60.00
G01 X15.3801 Y-0.8501
G00 X15.3801 Y-0.8501
G01 F40.00
G01 Z-2.0000
G01 F60.00
G01 X24.5001 Y-0.8501
G00 Z2.0000
M05
G00 Z2.0000
G00 Z15.00
G00 X0.0 Y0.0

