(G-CODE GENERATED BY FLATCAM v8.99 - www.flatcam.org - Version Date: 2019/12/15)

(Name: drill_1_16.xln_mill_cnc0.8)
(Type: G-code from Geometry)
(Units: MM)

(Created on Sunday, 09 February 2020 at 10:50)

(TOOL DIAMETER: 0.8 mm)
(Feedrate: 120.0 mm/min)
(Feedrate_Z: 60.0 mm/min)
(Feedrate rapids 1500.0 mm/min)

(Z_Cut: -2.4 mm)
(Z_Move: 2.0 mm)
(Z Toolchange: 15.0 mm)
(X,Y Toolchange: 0.0000, 0.0000 mm)
(Z Start: None mm)
(Z End: 15.0 mm)
(Steps per circle: 64)
(Preprocessor Geometry: default)

(X range:    8.1735 ...   21.4065  mm)
(Y range:    1.0335 ...   12.7665  mm)

(Spindle Speed: None RPM)
G21
G90
G94




G01 F120.00
G00 Z2.0000

M03
G00 X13.7865 Y2.8300
G01 F60.00
G01 Z-2.4000
G01 F120.00
G01 X13.7860 Y2.8275
G01 X13.7846 Y2.8254
G01 X13.7825 Y2.8240
G01 X13.7800 Y2.8235
G01 X13.7775 Y2.8240
G01 X13.7754 Y2.8254
G01 X13.7740 Y2.8275
G01 X13.7735 Y2.8300
G01 X13.7740 Y2.8325
G01 X13.7754 Y2.8346
G01 X13.7775 Y2.8360
G01 X13.7800 Y2.8365
G01 X13.7825 Y2.8360
G01 X13.7846 Y2.8346
G01 X13.7860 Y2.8325
G01 X13.7865 Y2.8300
G00 Z2.0000
G00 X17.3465 Y1.0400
G01 F60.00
G01 Z-2.4000
G01 F120.00
G01 X17.3460 Y1.0375
G01 X17.3446 Y1.0354
G01 X17.3425 Y1.0340
G01 X17.3400 Y1.0335
G01 X17.3375 Y1.0340
G01 X17.3354 Y1.0354
G01 X17.3340 Y1.0375
G01 X17.3335 Y1.0400
G01 X17.3340 Y1.0425
G01 X17.3354 Y1.0446
G01 X17.3375 Y1.0460
G01 X17.3400 Y1.0465
G01 X17.3425 Y1.0460
G01 X17.3446 Y1.0446
G01 X17.3460 Y1.0425
G01 X17.3465 Y1.0400
G00 Z2.0000
G00 X21.4065 Y2.3300
G01 F60.00
G01 Z-2.4000
G01 F120.00
G01 X21.4060 Y2.3275
G01 X21.4046 Y2.3254
G01 X21.4025 Y2.3240
G01 X21.4000 Y2.3235
G01 X21.3975 Y2.3240
G01 X21.3954 Y2.3254
G01 X21.3940 Y2.3275
G01 X21.3935 Y2.3300
G01 X21.3940 Y2.3325
G01 X21.3954 Y2.3346
G01 X21.3975 Y2.3360
G01 X21.4000 Y2.3365
G01 X21.4025 Y2.3360
G01 X21.4046 Y2.3346
G01 X21.4060 Y2.3325
G01 X21.4065 Y2.3300
G00 Z2.0000
G00 X21.4065 Y4.8700
G01 F60.00
G01 Z-2.4000
G01 F120.00
G01 X21.4060 Y4.8675
G01 X21.4046 Y4.8654
G01 X21.4025 Y4.8640
G01 X21.4000 Y4.8635
G01 X21.3975 Y4.8640
G01 X21.3954 Y4.8654
G01 X21.3940 Y4.8675
G01 X21.3935 Y4.8700
G01 X21.3940 Y4.8725
G01 X21.3954 Y4.8746
G01 X21.3975 Y4.8760
G01 X21.4000 Y4.8765
G01 X21.4025 Y4.8760
G01 X21.4046 Y4.8746
G01 X21.4060 Y4.8725
G01 X21.4065 Y4.8700
G00 Z2.0000
G00 X21.4065 Y7.4100
G01 F60.00
G01 Z-2.4000
G01 F120.00
G01 X21.4060 Y7.4075
G01 X21.4046 Y7.4054
G01 X21.4025 Y7.4040
G01 X21.4000 Y7.4035
G01 X21.3975 Y7.4040
G01 X21.3954 Y7.4054
G01 X21.3940 Y7.4075
G01 X21.3935 Y7.4100
G01 X21.3940 Y7.4125
G01 X21.3954 Y7.4146
G01 X21.3975 Y7.4160
G01 X21.4000 Y7.4165
G01 X21.4025 Y7.4160
G01 X21.4046 Y7.4146
G01 X21.4060 Y7.4125
G01 X21.4065 Y7.4100
G00 Z2.0000
G00 X17.3465 Y8.6600
G01 F60.00
G01 Z-2.4000
G01 F120.00
G01 X17.3460 Y8.6575
G01 X17.3446 Y8.6554
G01 X17.3425 Y8.6540
G01 X17.3400 Y8.6535
G01 X17.3375 Y8.6540
G01 X17.3354 Y8.6554
G01 X17.3340 Y8.6575
G01 X17.3335 Y8.6600
G01 X17.3340 Y8.6625
G01 X17.3354 Y8.6646
G01 X17.3375 Y8.6660
G01 X17.3400 Y8.6665
G01 X17.3425 Y8.6660
G01 X17.3446 Y8.6646
G01 X17.3460 Y8.6625
G01 X17.3465 Y8.6600
G00 Z2.0000
G00 X13.7865 Y10.4500
G01 F60.00
G01 Z-2.4000
G01 F120.00
G01 X13.7860 Y10.4475
G01 X13.7846 Y10.4454
G01 X13.7825 Y10.4440
G01 X13.7800 Y10.4435
G01 X13.7775 Y10.4440
G01 X13.7754 Y10.4454
G01 X13.7740 Y10.4475
G01 X13.7735 Y10.4500
G01 X13.7740 Y10.4525
G01 X13.7754 Y10.4546
G01 X13.7775 Y10.4560
G01 X13.7800 Y10.4565
G01 X13.7825 Y10.4560
G01 X13.7846 Y10.4546
G01 X13.7860 Y10.4525
G01 X13.7865 Y10.4500
G00 Z2.0000
G00 X15.8065 Y12.7600
G01 F60.00
G01 Z-2.4000
G01 F120.00
G01 X15.8060 Y12.7575
G01 X15.8046 Y12.7554
G01 X15.8025 Y12.7540
G01 X15.8000 Y12.7535
G01 X15.7975 Y12.7540
G01 X15.7954 Y12.7554
G01 X15.7940 Y12.7575
G01 X15.7935 Y12.7600
G01 X15.7940 Y12.7625
G01 X15.7954 Y12.7646
G01 X15.7975 Y12.7660
G01 X15.8000 Y12.7665
G01 X15.8025 Y12.7660
G01 X15.8046 Y12.7646
G01 X15.8060 Y12.7625
G01 X15.8065 Y12.7600
G00 Z2.0000
G00 X8.1865 Y12.7600
G01 F60.00
G01 Z-2.4000
G01 F120.00
G01 X8.1860 Y12.7575
G01 X8.1846 Y12.7554
G01 X8.1825 Y12.7540
G01 X8.1800 Y12.7535
G01 X8.1775 Y12.7540
G01 X8.1754 Y12.7554
G01 X8.1740 Y12.7575
G01 X8.1735 Y12.7600
G01 X8.1740 Y12.7625
G01 X8.1754 Y12.7646
G01 X8.1775 Y12.7660
G01 X8.1800 Y12.7665
G01 X8.1825 Y12.7660
G01 X8.1846 Y12.7646
G01 X8.1860 Y12.7625
G01 X8.1865 Y12.7600
G00 Z2.0000
M05
G00 Z2.0000
G00 Z15.00
G00 X0.0 Y0.0

