(G-CODE GENERATED BY FLATCAM v8.99 - www.flatcam.org - Version Date: 2019/12/15)

(Name: copper_top.gbr_cutout_cnc)
(Type: G-code from Geometry)
(Units: MM)

(Created on Saturday, 15 February 2020 at 01:02)

(TOOL DIAMETER: 1.5 mm)
(Feedrate: 20.0 mm/min)
(Feedrate_Z: 20.0 mm/min)
(Feedrate rapids 1500.0 mm/min)

(Z_Cut: -2.3 mm)
(DepthPerCut: 1.2 mm <=>2 passes)
(Z_Move: 2.0 mm)
(Z Toolchange: 15.0 mm)
(X,Y Toolchange: 0.0000, 0.0000 mm)
(Z Start: None mm)
(Z End: 15.0 mm)
(Steps per circle: 64)
(Preprocessor Geometry: default)

(X range:   -0.2400 ...   25.4003  mm)
(Y range:   -1.2003 ...   16.1000  mm)

(Spindle Speed: None RPM)
G21
G90
G94




G01 F20.00
G00 Z2.0000

M03
G00 X-0.2400 Y5.7499
G01 F20.00
G01 Z-1.2000
G01 F20.00
G01 X-0.2400 Y-0.4003
G01 X-0.2361 Y-0.4787
G01 X-0.2246 Y-0.5563
G01 X-0.2056 Y-0.6325
G01 X-0.1791 Y-0.7064
G01 X-0.1455 Y-0.7774
G01 X-0.1052 Y-0.8447
G01 X-0.0584 Y-0.9078
G01 X-0.0057 Y-0.9659
G01 X0.0525 Y-1.0187
G01 X0.1155 Y-1.0654
G01 X0.1829 Y-1.1058
G01 X0.2539 Y-1.1394
G01 X0.3278 Y-1.1658
G01 X0.4039 Y-1.1849
G01 X0.4816 Y-1.1964
G01 X0.5600 Y-1.2003
G01 X10.8801 Y-1.2003
G00 X10.8801 Y-1.2003
G01 F20.00
G01 Z-2.3000
G01 F20.00
G01 X0.5600 Y-1.2003
G01 X0.4816 Y-1.1964
G01 X0.4039 Y-1.1849
G01 X0.3278 Y-1.1658
G01 X0.2539 Y-1.1394
G01 X0.1829 Y-1.1058
G01 X0.1155 Y-1.0654
G01 X0.0525 Y-1.0187
G01 X-0.0057 Y-0.9659
G01 X-0.0584 Y-0.9078
G01 X-0.1052 Y-0.8447
G01 X-0.1455 Y-0.7774
G01 X-0.1791 Y-0.7064
G01 X-0.2056 Y-0.6325
G01 X-0.2246 Y-0.5563
G01 X-0.2361 Y-0.4787
G01 X-0.2400 Y-0.4003
G01 X-0.2400 Y5.7499
G00 Z2.0000
G00 X-0.2400 Y9.2499
G01 F20.00
G01 Z-1.2000
G01 F20.00
G01 X-0.2400 Y15.3000
G01 X-0.2361 Y15.3784
G01 X-0.2246 Y15.4561
G01 X-0.2056 Y15.5322
G01 X-0.1791 Y15.6061
G01 X-0.1455 Y15.6771
G01 X-0.1052 Y15.7445
G01 X-0.0584 Y15.8075
G01 X-0.0057 Y15.8657
G01 X0.0525 Y15.9184
G01 X0.1155 Y15.9652
G01 X0.1829 Y16.0055
G01 X0.2539 Y16.0391
G01 X0.3278 Y16.0656
G01 X0.4039 Y16.0846
G01 X0.4816 Y16.0961
G01 X0.5600 Y16.1000
G01 X10.8801 Y16.1000
G00 X10.8801 Y16.1000
G01 F20.00
G01 Z-2.3000
G01 F20.00
G01 X0.5600 Y16.1000
G01 X0.4816 Y16.0961
G01 X0.4039 Y16.0846
G01 X0.3278 Y16.0656
G01 X0.2539 Y16.0391
G01 X0.1829 Y16.0055
G01 X0.1155 Y15.9652
G01 X0.0525 Y15.9184
G01 X-0.0057 Y15.8657
G01 X-0.0584 Y15.8075
G01 X-0.1052 Y15.7445
G01 X-0.1455 Y15.6771
G01 X-0.1791 Y15.6061
G01 X-0.2056 Y15.5322
G01 X-0.2246 Y15.4561
G01 X-0.2361 Y15.3784
G01 X-0.2400 Y15.3000
G01 X-0.2400 Y9.2499
G00 Z2.0000
G00 X14.3801 Y16.1000
G01 F20.00
G01 Z-1.2000
G01 F20.00
G01 X24.6003 Y16.1000
G01 X24.6787 Y16.0961
G01 X24.7563 Y16.0846
G01 X24.8325 Y16.0656
G01 X24.9064 Y16.0391
G01 X24.9774 Y16.0055
G01 X25.0447 Y15.9652
G01 X25.1078 Y15.9184
G01 X25.1659 Y15.8657
G01 X25.2187 Y15.8075
G01 X25.2654 Y15.7445
G01 X25.3058 Y15.6771
G01 X25.3394 Y15.6061
G01 X25.3658 Y15.5322
G01 X25.3849 Y15.4561
G01 X25.3964 Y15.3784
G01 X25.4003 Y15.3000
G01 X25.4003 Y9.2499
G00 X25.4003 Y9.2499
G01 F20.00
G01 Z-2.3000
G01 F20.00
G01 X25.4003 Y15.3000
G01 X25.3964 Y15.3784
G01 X25.3849 Y15.4561
G01 X25.3658 Y15.5322
G01 X25.3394 Y15.6061
G01 X25.3058 Y15.6771
G01 X25.2654 Y15.7445
G01 X25.2187 Y15.8075
G01 X25.1659 Y15.8657
G01 X25.1078 Y15.9184
G01 X25.0447 Y15.9652
G01 X24.9774 Y16.0055
G01 X24.9064 Y16.0391
G01 X24.8325 Y16.0656
G01 X24.7563 Y16.0846
G01 X24.6787 Y16.0961
G01 X24.6003 Y16.1000
G01 X14.3801 Y16.1000
G00 Z2.0000
G00 X25.4003 Y5.7499
G01 F20.00
G01 Z-1.2000
G01 F20.00
G01 X25.4003 Y-0.4003
G01 X25.3964 Y-0.4787
G01 X25.3849 Y-0.5563
G01 X25.3658 Y-0.6325
G01 X25.3394 Y-0.7064
G01 X25.3058 Y-0.7774
G01 X25.2654 Y-0.8447
G01 X25.2187 Y-0.9078
G01 X25.1659 Y-0.9659
G01 X25.1078 Y-1.0187
G01 X25.0447 Y-1.0654
G01 X24.9774 Y-1.1058
G01 X24.9064 Y-1.1394
G01 X24.8325 Y-1.1658
G01 X24.7563 Y-1.1849
G01 X24.6787 Y-1.1964
G01 X24.6003 Y-1.2003
G00 X24.6003 Y-1.2003
G01 F20.00
G01 Z-2.3000
G01 F20.00
G01 X24.6787 Y-1.1964
G01 X24.7563 Y-1.1849
G01 X24.8325 Y-1.1658
G01 X24.9064 Y-1.1394
G01 X24.9774 Y-1.1058
G01 X25.0447 Y-1.0654
G01 X25.1078 Y-1.0187
G01 X25.1659 Y-0.9659
G01 X25.2187 Y-0.9078
G01 X25.2654 Y-0.8447
G01 X25.3058 Y-0.7774
G01 X25.3394 Y-0.7064
G01 X25.3658 Y-0.6325
G01 X25.3849 Y-0.5563
G01 X25.3964 Y-0.4787
G01 X25.4003 Y-0.4003
G01 X25.4003 Y5.7499
G00 Z2.0000
G00 X24.6003 Y-1.2003
G01 F20.00
G01 Z-1.2000
G01 F20.00
G01 X14.3801 Y-1.2003
G00 X14.3801 Y-1.2003
G01 F20.00
G01 Z-2.3000
G01 F20.00
G01 X24.6003 Y-1.2003
G00 Z2.0000
M05
G00 Z2.0000
G00 Z15.00
G00 X0.0 Y0.0

