(G-CODE GENERATED BY FLATCAM v8.99 - www.flatcam.org - Version Date: 2019/12/15)

(Name: copper_top.gbr_iso_5)
(Type: G-code from Geometry)
(Units: MM)

(Created on Saturday, 15 February 2020 at 00:57)

(TOOL DIAMETER: 0.5 mm)
(Feedrate: 45.0 mm/min)
(Feedrate_Z: 50.0 mm/min)
(Feedrate rapids 1500.0 mm/min)

(Z_Cut: -0.2 mm)
(Z_Move: 2.0 mm)
(Z Toolchange: 25.0 mm)
(X,Y Toolchange: 0.0000, 0.0000 mm)
(Z Start: None mm)
(Z End: 15.0 mm)
(Steps per circle: 64)
(Preprocessor Geometry: default)

(X range:    0.3850 ...   24.8003  mm)
(Y range:   -0.5753 ...   15.4750  mm)

(Spindle Speed: None RPM)
G21
G90
G94




G01 F45.00

M5
G00 Z25.0000
G00 X0.0000 Y0.0000
T1
M6    
(MSG, Change to Tool Dia = 0.5000)
M0
G00 Z25.0000

M03
G00 X2.5600 Y0.4564
G01 F50.00
G01 Z-0.2000
G01 F45.00
G01 X2.5630 Y0.3986
G01 X2.5713 Y0.3417
G01 X2.5735 Y0.3294
G01 X2.5887 Y0.2695
G01 X2.6081 Y0.2146
G01 X2.6129 Y0.2025
G01 X2.6373 Y0.1509
G01 X2.6437 Y0.1392
G01 X2.6734 Y0.0900
G01 X2.7077 Y0.0434
G01 X2.7154 Y0.0338
G01 X2.7575 Y-0.0125
G01 X3.1225 Y-0.3775
G01 X3.1688 Y-0.4196
G01 X3.1784 Y-0.4273
G01 X3.2178 Y-0.4565
G01 X3.2321 Y-0.4660
G01 X3.2742 Y-0.4913
G01 X3.2859 Y-0.4977
G01 X3.3337 Y-0.5204
G01 X3.3496 Y-0.5269
G01 X3.4045 Y-0.5463
G01 X3.4599 Y-0.5604
G01 X3.4767 Y-0.5637
G01 X3.5253 Y-0.5709
G01 X3.5424 Y-0.5726
G01 X3.6000 Y-0.5753
G01 X16.5000 Y-0.5753
G01 X16.5576 Y-0.5726
G01 X16.5747 Y-0.5709
G01 X16.6233 Y-0.5637
G01 X16.6356 Y-0.5615
G01 X16.6877 Y-0.5485
G01 X16.7042 Y-0.5435
G01 X16.7504 Y-0.5269
G01 X16.7625 Y-0.5221
G01 X16.8106 Y-0.4994
G01 X16.8258 Y-0.4913
G01 X16.8750 Y-0.4616
G01 X16.9216 Y-0.4273
G01 X16.9312 Y-0.4196
G01 X16.9775 Y-0.3775
G01 X17.3055 Y-0.0494
G01 X17.7188 Y-0.0494
G01 X17.7370 Y-0.0484
G01 X17.7551 Y-0.0456
G01 X17.7728 Y-0.0409
G01 X17.7898 Y-0.0343
G01 X17.8088 Y-0.0245
G01 X17.8264 Y-0.0124
G01 X17.8425 Y0.0019
G01 X18.3781 Y0.5375
G01 X18.3924 Y0.5536
G01 X18.4045 Y0.5712
G01 X18.4143 Y0.5902
G01 X18.4209 Y0.6072
G01 X18.4256 Y0.6249
G01 X18.4284 Y0.6430
G01 X18.4294 Y0.6612
G01 X18.4294 Y1.4188
G01 X18.4284 Y1.4370
G01 X18.4256 Y1.4551
G01 X18.4209 Y1.4728
G01 X18.4143 Y1.4898
G01 X18.4045 Y1.5088
G01 X18.3924 Y1.5264
G01 X18.3781 Y1.5425
G01 X17.8425 Y2.0781
G01 X17.8264 Y2.0924
G01 X17.8088 Y2.1045
G01 X17.7898 Y2.1143
G01 X17.7728 Y2.1209
G01 X17.7551 Y2.1256
G01 X17.7370 Y2.1284
G01 X17.7188 Y2.1294
G01 X16.9612 Y2.1294
G01 X16.9430 Y2.1284
G01 X16.9249 Y2.1256
G01 X16.9072 Y2.1209
G01 X16.8902 Y2.1143
G01 X16.8712 Y2.1045
G01 X16.8536 Y2.0924
G01 X16.8375 Y2.0781
G01 X16.3019 Y1.5425
G01 X16.2876 Y1.5264
G01 X16.2755 Y1.5088
G01 X16.2657 Y1.4898
G01 X16.2591 Y1.4728
G01 X16.2544 Y1.4551
G01 X16.2516 Y1.4370
G01 X16.2506 Y1.4188
G01 X16.2506 Y0.8055
G01 X16.2203 Y0.7753
G01 X3.9103 Y0.7753
G01 X3.9103 Y2.0666
G01 X3.9070 Y2.1330
G01 X3.8987 Y2.1899
G01 X3.8965 Y2.2022
G01 X3.8835 Y2.2543
G01 X3.8785 Y2.2708
G01 X3.8619 Y2.3170
G01 X3.8571 Y2.3291
G01 X3.8327 Y2.3807
G01 X3.8263 Y2.3924
G01 X3.7966 Y2.4416
G01 X3.7623 Y2.4882
G01 X3.7546 Y2.4978
G01 X3.7402 Y2.5138
G01 X3.7402 Y3.0826
G01 X3.7392 Y3.1009
G01 X3.7364 Y3.1189
G01 X3.7317 Y3.1366
G01 X3.7251 Y3.1537
G01 X3.7168 Y3.1700
G01 X3.7068 Y3.1854
G01 X3.6953 Y3.1997
G01 X3.6823 Y3.2127
G01 X3.6680 Y3.2242
G01 X3.6526 Y3.2342
G01 X3.6363 Y3.2425
G01 X3.6192 Y3.2491
G01 X3.6015 Y3.2538
G01 X3.5835 Y3.2566
G01 X3.5652 Y3.2576
G01 X2.9048 Y3.2576
G01 X2.8865 Y3.2566
G01 X2.8685 Y3.2538
G01 X2.8508 Y3.2491
G01 X2.8337 Y3.2425
G01 X2.8174 Y3.2342
G01 X2.8020 Y3.2242
G01 X2.7877 Y3.2127
G01 X2.7747 Y3.1997
G01 X2.7632 Y3.1854
G01 X2.7532 Y3.1700
G01 X2.7449 Y3.1537
G01 X2.7383 Y3.1366
G01 X2.7336 Y3.1189
G01 X2.7308 Y3.1009
G01 X2.7298 Y3.0826
G01 X2.7298 Y2.5138
G01 X2.7154 Y2.4978
G01 X2.7077 Y2.4882
G01 X2.6734 Y2.4416
G01 X2.6437 Y2.3924
G01 X2.6373 Y2.3807
G01 X2.6129 Y2.3291
G01 X2.6081 Y2.3170
G01 X2.5915 Y2.2708
G01 X2.5865 Y2.2543
G01 X2.5735 Y2.2022
G01 X2.5713 Y2.1899
G01 X2.5630 Y2.1330
G01 X2.5597 Y2.0666
G01 X2.5600 Y0.4564
G00 Z2.0000
G00 X4.1748 Y0.8006
G01 F50.00
G01 Z-0.2000
G01 F45.00
G01 X4.8352 Y0.8006
G01 X4.8613 Y0.8020
G01 X4.8871 Y0.8060
G01 X4.9123 Y0.8128
G01 X4.9367 Y0.8221
G01 X4.9601 Y0.8340
G01 X4.9821 Y0.8483
G01 X5.0025 Y0.8648
G01 X5.0210 Y0.8833
G01 X5.0375 Y0.9037
G01 X5.0518 Y0.9257
G01 X5.0637 Y0.9491
G01 X5.0730 Y0.9735
G01 X5.0798 Y0.9987
G01 X5.0838 Y1.0245
G01 X5.0852 Y1.0506
G01 X5.0852 Y3.0826
G01 X5.0838 Y3.1087
G01 X5.0798 Y3.1345
G01 X5.0730 Y3.1597
G01 X5.0637 Y3.1841
G01 X5.0518 Y3.2075
G01 X5.0375 Y3.2295
G01 X5.0210 Y3.2499
G01 X5.0025 Y3.2684
G01 X4.9821 Y3.2849
G01 X4.9601 Y3.2992
G01 X4.9367 Y3.3111
G01 X4.9123 Y3.3204
G01 X4.8871 Y3.3272
G01 X4.8613 Y3.3312
G01 X4.8352 Y3.3326
G01 X4.1748 Y3.3326
G01 X4.1487 Y3.3312
G01 X4.1229 Y3.3272
G01 X4.0977 Y3.3204
G01 X4.0733 Y3.3111
G01 X4.0499 Y3.2992
G01 X4.0279 Y3.2849
G01 X4.0075 Y3.2684
G01 X3.9890 Y3.2499
G01 X3.9725 Y3.2295
G01 X3.9582 Y3.2075
G01 X3.9463 Y3.1841
G01 X3.9370 Y3.1597
G01 X3.9302 Y3.1345
G01 X3.9262 Y3.1087
G01 X3.9248 Y3.0826
G01 X3.9248 Y1.0506
G01 X3.9262 Y1.0245
G01 X3.9302 Y0.9987
G01 X3.9370 Y0.9735
G01 X3.9463 Y0.9491
G01 X3.9582 Y0.9257
G01 X3.9725 Y0.9037
G01 X3.9890 Y0.8833
G01 X4.0075 Y0.8648
G01 X4.0279 Y0.8483
G01 X4.0499 Y0.8340
G01 X4.0733 Y0.8221
G01 X4.0977 Y0.8128
G01 X4.1229 Y0.8060
G01 X4.1487 Y0.8020
G01 X4.1748 Y0.8006
G00 Z2.0000
G00 X6.7148 Y0.8006
G01 F50.00
G01 Z-0.2000
G01 F45.00
G01 X7.3752 Y0.8006
G01 X7.4013 Y0.8020
G01 X7.4271 Y0.8060
G01 X7.4523 Y0.8128
G01 X7.4767 Y0.8221
G01 X7.5001 Y0.8340
G01 X7.5221 Y0.8483
G01 X7.5425 Y0.8648
G01 X7.5610 Y0.8833
G01 X7.5775 Y0.9037
G01 X7.5918 Y0.9257
G01 X7.6037 Y0.9491
G01 X7.6130 Y0.9735
G01 X7.6198 Y0.9987
G01 X7.6238 Y1.0245
G01 X7.6252 Y1.0506
G01 X7.6252 Y3.0826
G01 X7.6238 Y3.1087
G01 X7.6198 Y3.1345
G01 X7.6130 Y3.1597
G01 X7.6037 Y3.1841
G01 X7.5918 Y3.2075
G01 X7.5775 Y3.2295
G01 X7.5610 Y3.2499
G01 X7.5425 Y3.2684
G01 X7.5221 Y3.2849
G01 X7.5001 Y3.2992
G01 X7.4767 Y3.3111
G01 X7.4523 Y3.3204
G01 X7.4271 Y3.3272
G01 X7.4013 Y3.3312
G01 X7.3752 Y3.3326
G01 X6.7148 Y3.3326
G01 X6.6887 Y3.3312
G01 X6.6629 Y3.3272
G01 X6.6377 Y3.3204
G01 X6.6133 Y3.3111
G01 X6.5899 Y3.2992
G01 X6.5679 Y3.2849
G01 X6.5475 Y3.2684
G01 X6.5290 Y3.2499
G01 X6.5125 Y3.2295
G01 X6.4982 Y3.2075
G01 X6.4863 Y3.1841
G01 X6.4770 Y3.1597
G01 X6.4702 Y3.1345
G01 X6.4662 Y3.1087
G01 X6.4648 Y3.0826
G01 X6.4648 Y1.0506
G01 X6.4662 Y1.0245
G01 X6.4702 Y0.9987
G01 X6.4770 Y0.9735
G01 X6.4863 Y0.9491
G01 X6.4982 Y0.9257
G01 X6.5125 Y0.9037
G01 X6.5290 Y0.8833
G01 X6.5475 Y0.8648
G01 X6.5679 Y0.8483
G01 X6.5899 Y0.8340
G01 X6.6133 Y0.8221
G01 X6.6377 Y0.8128
G01 X6.6629 Y0.8060
G01 X6.6887 Y0.8020
G01 X6.7148 Y0.8006
G00 Z2.0000
G00 X7.9848 Y0.8006
G01 F50.00
G01 Z-0.2000
G01 F45.00
G01 X8.6452 Y0.8006
G01 X8.6713 Y0.8020
G01 X8.6971 Y0.8060
G01 X8.7223 Y0.8128
G01 X8.7467 Y0.8221
G01 X8.7701 Y0.8340
G01 X8.7921 Y0.8483
G01 X8.8125 Y0.8648
G01 X8.8310 Y0.8833
G01 X8.8475 Y0.9037
G01 X8.8618 Y0.9257
G01 X8.8737 Y0.9491
G01 X8.8830 Y0.9735
G01 X8.8898 Y0.9987
G01 X8.8938 Y1.0245
G01 X8.8952 Y1.0506
G01 X8.8952 Y3.0826
G01 X8.8938 Y3.1087
G01 X8.8898 Y3.1345
G01 X8.8830 Y3.1597
G01 X8.8737 Y3.1841
G01 X8.8618 Y3.2075
G01 X8.8475 Y3.2295
G01 X8.8310 Y3.2499
G01 X8.8125 Y3.2684
G01 X8.7921 Y3.2849
G01 X8.7701 Y3.2992
G01 X8.7467 Y3.3111
G01 X8.7223 Y3.3204
G01 X8.6971 Y3.3272
G01 X8.6713 Y3.3312
G01 X8.6452 Y3.3326
G01 X7.9848 Y3.3326
G01 X7.9587 Y3.3312
G01 X7.9329 Y3.3272
G01 X7.9077 Y3.3204
G01 X7.8833 Y3.3111
G01 X7.8599 Y3.2992
G01 X7.8379 Y3.2849
G01 X7.8175 Y3.2684
G01 X7.7990 Y3.2499
G01 X7.7825 Y3.2295
G01 X7.7682 Y3.2075
G01 X7.7563 Y3.1841
G01 X7.7470 Y3.1597
G01 X7.7402 Y3.1345
G01 X7.7362 Y3.1087
G01 X7.7348 Y3.0826
G01 X7.7348 Y1.0506
G01 X7.7362 Y1.0245
G01 X7.7402 Y0.9987
G01 X7.7470 Y0.9735
G01 X7.7563 Y0.9491
G01 X7.7682 Y0.9257
G01 X7.7825 Y0.9037
G01 X7.7990 Y0.8833
G01 X7.8175 Y0.8648
G01 X7.8379 Y0.8483
G01 X7.8599 Y0.8340
G01 X7.8833 Y0.8221
G01 X7.9077 Y0.8128
G01 X7.9329 Y0.8060
G01 X7.9587 Y0.8020
G01 X7.9848 Y0.8006
G00 Z2.0000
G00 X9.2548 Y0.8006
G01 F50.00
G01 Z-0.2000
G01 F45.00
G01 X9.9152 Y0.8006
G01 X9.9413 Y0.8020
G01 X9.9671 Y0.8060
G01 X9.9923 Y0.8128
G01 X10.0167 Y0.8221
G01 X10.0401 Y0.8340
G01 X10.0621 Y0.8483
G01 X10.0825 Y0.8648
G01 X10.1010 Y0.8833
G01 X10.1175 Y0.9037
G01 X10.1318 Y0.9257
G01 X10.1437 Y0.9491
G01 X10.1530 Y0.9735
G01 X10.1598 Y0.9987
G01 X10.1638 Y1.0245
G01 X10.1652 Y1.0506
G01 X10.1652 Y3.0826
G01 X10.1638 Y3.1087
G01 X10.1598 Y3.1345
G01 X10.1530 Y3.1597
G01 X10.1437 Y3.1841
G01 X10.1318 Y3.2075
G01 X10.1175 Y3.2295
G01 X10.1010 Y3.2499
G01 X10.0825 Y3.2684
G01 X10.0621 Y3.2849
G01 X10.0401 Y3.2992
G01 X10.0167 Y3.3111
G01 X9.9923 Y3.3204
G01 X9.9671 Y3.3272
G01 X9.9413 Y3.3312
G01 X9.9152 Y3.3326
G01 X9.2548 Y3.3326
G01 X9.2287 Y3.3312
G01 X9.2029 Y3.3272
G01 X9.1777 Y3.3204
G01 X9.1533 Y3.3111
G01 X9.1299 Y3.2992
G01 X9.1079 Y3.2849
G01 X9.0875 Y3.2684
G01 X9.0690 Y3.2499
G01 X9.0525 Y3.2295
G01 X9.0382 Y3.2075
G01 X9.0263 Y3.1841
G01 X9.0170 Y3.1597
G01 X9.0102 Y3.1345
G01 X9.0062 Y3.1087
G01 X9.0048 Y3.0826
G01 X9.0048 Y1.0506
G01 X9.0062 Y1.0245
G01 X9.0102 Y0.9987
G01 X9.0170 Y0.9735
G01 X9.0263 Y0.9491
G01 X9.0382 Y0.9257
G01 X9.0525 Y0.9037
G01 X9.0690 Y0.8833
G01 X9.0875 Y0.8648
G01 X9.1079 Y0.8483
G01 X9.1299 Y0.8340
G01 X9.1533 Y0.8221
G01 X9.1777 Y0.8128
G01 X9.2029 Y0.8060
G01 X9.2287 Y0.8020
G01 X9.2548 Y0.8006
G00 Z2.0000
G00 X10.3498 Y2.5138
G01 F50.00
G01 Z-0.2000
G01 F45.00
G01 X10.3354 Y2.4978
G01 X10.3277 Y2.4882
G01 X10.2985 Y2.4488
G01 X10.2890 Y2.4345
G01 X10.2637 Y2.3924
G01 X10.2573 Y2.3807
G01 X10.2329 Y2.3291
G01 X10.2281 Y2.3170
G01 X10.2115 Y2.2708
G01 X10.2065 Y2.2543
G01 X10.1935 Y2.2022
G01 X10.1913 Y2.1899
G01 X10.1830 Y2.1330
G01 X10.1797 Y2.0666
G01 X10.1824 Y2.0090
G01 X10.1841 Y1.9919
G01 X10.1913 Y1.9433
G01 X10.1946 Y1.9265
G01 X10.2087 Y1.8711
G01 X10.2281 Y1.8162
G01 X10.2329 Y1.8041
G01 X10.2573 Y1.7525
G01 X10.2637 Y1.7408
G01 X10.2934 Y1.6916
G01 X10.3277 Y1.6450
G01 X10.3354 Y1.6354
G01 X10.3498 Y1.6194
G01 X10.3498 Y1.0506
G01 X10.3508 Y1.0323
G01 X10.3536 Y1.0143
G01 X10.3583 Y0.9966
G01 X10.3649 Y0.9795
G01 X10.3732 Y0.9632
G01 X10.3832 Y0.9478
G01 X10.3947 Y0.9335
G01 X10.4077 Y0.9205
G01 X10.4220 Y0.9090
G01 X10.4374 Y0.8990
G01 X10.4537 Y0.8907
G01 X10.4708 Y0.8841
G01 X10.4885 Y0.8794
G01 X10.5065 Y0.8766
G01 X10.5248 Y0.8756
G01 X11.1852 Y0.8756
G01 X11.2035 Y0.8766
G01 X11.2215 Y0.8794
G01 X11.2392 Y0.8841
G01 X11.2563 Y0.8907
G01 X11.2726 Y0.8990
G01 X11.2880 Y0.9090
G01 X11.3023 Y0.9205
G01 X11.3153 Y0.9335
G01 X11.3268 Y0.9478
G01 X11.3368 Y0.9632
G01 X11.3451 Y0.9795
G01 X11.3517 Y0.9966
G01 X11.3564 Y1.0143
G01 X11.3592 Y1.0323
G01 X11.3602 Y1.0506
G01 X11.3602 Y1.2468
G01 X11.3921 Y1.1940
G01 X11.4296 Y1.1430
G01 X11.4373 Y1.1334
G01 X11.4831 Y1.0831
G01 X11.5298 Y1.0405
G01 X11.5430 Y1.0296
G01 X11.5869 Y0.9971
G01 X11.6011 Y0.9876
G01 X11.6479 Y0.9595
G01 X11.6596 Y0.9531
G01 X11.7124 Y0.9281
G01 X11.7283 Y0.9216
G01 X11.7796 Y0.9032
G01 X11.7961 Y0.8982
G01 X11.8536 Y0.8839
G01 X11.8659 Y0.8816
G01 X11.9281 Y0.8725
G01 X11.9914 Y0.8692
G01 X12.0086 Y0.8692
G01 X12.0719 Y0.8725
G01 X12.1341 Y0.8816
G01 X12.1510 Y0.8849
G01 X12.2117 Y0.9003
G01 X12.2717 Y0.9216
G01 X12.2838 Y0.9264
G01 X12.3404 Y0.9531
G01 X12.3521 Y0.9595
G01 X12.3989 Y0.9876
G01 X12.4131 Y0.9971
G01 X12.4570 Y1.0296
G01 X12.4702 Y1.0405
G01 X12.5169 Y1.0831
G01 X12.5595 Y1.1298
G01 X12.5704 Y1.1430
G01 X12.6079 Y1.1940
G01 X12.6405 Y1.2479
G01 X12.6485 Y1.2631
G01 X12.6736 Y1.3162
G01 X12.6784 Y1.3283
G01 X12.6968 Y1.3796
G01 X12.7018 Y1.3961
G01 X12.7161 Y1.4536
G01 X12.7184 Y1.4659
G01 X12.7264 Y1.5198
G01 X12.7281 Y1.5369
G01 X12.7308 Y1.5914
G01 X12.7308 Y1.6086
G01 X12.7275 Y1.6719
G01 X12.7184 Y1.7341
G01 X12.7151 Y1.7510
G01 X12.6997 Y1.8117
G01 X12.6784 Y1.8717
G01 X12.6719 Y1.8876
G01 X12.6469 Y1.9404
G01 X12.6405 Y1.9521
G01 X12.6079 Y2.0060
G01 X12.5704 Y2.0570
G01 X12.5595 Y2.0702
G01 X12.5169 Y2.1169
G01 X12.4666 Y2.1627
G01 X12.4570 Y2.1704
G01 X12.4131 Y2.2029
G01 X12.3989 Y2.2124
G01 X12.3521 Y2.2405
G01 X12.3404 Y2.2469
G01 X12.2876 Y2.2719
G01 X12.2797 Y2.2753
G01 X12.0047 Y2.5500
G01 X11.9683 Y2.5830
G01 X11.9550 Y2.5939
G01 X11.9084 Y2.6282
G01 X11.8592 Y2.6579
G01 X11.8440 Y2.6660
G01 X11.7959 Y2.6887
G01 X11.7838 Y2.6935
G01 X11.7289 Y2.7129
G01 X11.6735 Y2.7270
G01 X11.6567 Y2.7303
G01 X11.5998 Y2.7386
G01 X11.5420 Y2.7416
G01 X11.3602 Y2.7419
G01 X11.3602 Y3.0826
G01 X11.3592 Y3.1009
G01 X11.3564 Y3.1189
G01 X11.3517 Y3.1366
G01 X11.3451 Y3.1537
G01 X11.3368 Y3.1700
G01 X11.3268 Y3.1854
G01 X11.3153 Y3.1997
G01 X11.3023 Y3.2127
G01 X11.2880 Y3.2242
G01 X11.2726 Y3.2342
G01 X11.2563 Y3.2425
G01 X11.2392 Y3.2491
G01 X11.2215 Y3.2538
G01 X11.2035 Y3.2566
G01 X11.1852 Y3.2576
G01 X10.5248 Y3.2576
G01 X10.5065 Y3.2566
G01 X10.4885 Y3.2538
G01 X10.4708 Y3.2491
G01 X10.4537 Y3.2425
G01 X10.4374 Y3.2342
G01 X10.4220 Y3.2242
G01 X10.4077 Y3.2127
G01 X10.3947 Y3.1997
G01 X10.3832 Y3.1854
G01 X10.3732 Y3.1700
G01 X10.3649 Y3.1537
G01 X10.3583 Y3.1366
G01 X10.3536 Y3.1189
G01 X10.3508 Y3.1009
G01 X10.3498 Y3.0826
G01 X10.3498 Y2.5138
G00 Z2.0000
G00 X10.5248 Y6.9474
G01 F50.00
G01 Z-0.2000
G01 F45.00
G01 X11.1852 Y6.9474
G01 X11.2113 Y6.9488
G01 X11.2371 Y6.9528
G01 X11.2623 Y6.9596
G01 X11.2867 Y6.9689
G01 X11.3101 Y6.9808
G01 X11.3321 Y6.9951
G01 X11.3525 Y7.0116
G01 X11.3710 Y7.0301
G01 X11.3875 Y7.0505
G01 X11.4018 Y7.0725
G01 X11.4137 Y7.0959
G01 X11.4230 Y7.1203
G01 X11.4298 Y7.1455
G01 X11.4338 Y7.1713
G01 X11.4352 Y7.1974
G01 X11.4352 Y9.2294
G01 X11.4338 Y9.2555
G01 X11.4298 Y9.2813
G01 X11.4230 Y9.3065
G01 X11.4137 Y9.3309
G01 X11.4018 Y9.3543
G01 X11.3875 Y9.3763
G01 X11.3710 Y9.3967
G01 X11.3525 Y9.4152
G01 X11.3321 Y9.4317
G01 X11.3101 Y9.4460
G01 X11.2867 Y9.4579
G01 X11.2623 Y9.4672
G01 X11.2371 Y9.4740
G01 X11.2113 Y9.4780
G01 X11.1852 Y9.4794
G01 X10.5248 Y9.4794
G01 X10.4987 Y9.4780
G01 X10.4729 Y9.4740
G01 X10.4477 Y9.4672
G01 X10.4233 Y9.4579
G01 X10.3999 Y9.4460
G01 X10.3779 Y9.4317
G01 X10.3575 Y9.4152
G01 X10.3390 Y9.3967
G01 X10.3225 Y9.3763
G01 X10.3082 Y9.3543
G01 X10.2963 Y9.3309
G01 X10.2870 Y9.3065
G01 X10.2802 Y9.2813
G01 X10.2762 Y9.2555
G01 X10.2748 Y9.2294
G01 X10.2748 Y7.1974
G01 X10.2762 Y7.1713
G01 X10.2802 Y7.1455
G01 X10.2870 Y7.1203
G01 X10.2963 Y7.0959
G01 X10.3082 Y7.0725
G01 X10.3225 Y7.0505
G01 X10.3390 Y7.0301
G01 X10.3575 Y7.0116
G01 X10.3779 Y6.9951
G01 X10.3999 Y6.9808
G01 X10.4233 Y6.9689
G01 X10.4477 Y6.9596
G01 X10.4729 Y6.9528
G01 X10.4987 Y6.9488
G01 X10.5248 Y6.9474
G00 Z2.0000
G00 X9.2548 Y6.9474
G01 F50.00
G01 Z-0.2000
G01 F45.00
G01 X9.9152 Y6.9474
G01 X9.9413 Y6.9488
G01 X9.9671 Y6.9528
G01 X9.9923 Y6.9596
G01 X10.0167 Y6.9689
G01 X10.0401 Y6.9808
G01 X10.0621 Y6.9951
G01 X10.0825 Y7.0116
G01 X10.1010 Y7.0301
G01 X10.1175 Y7.0505
G01 X10.1318 Y7.0725
G01 X10.1437 Y7.0959
G01 X10.1530 Y7.1203
G01 X10.1598 Y7.1455
G01 X10.1638 Y7.1713
G01 X10.1652 Y7.1974
G01 X10.1652 Y9.2294
G01 X10.1638 Y9.2555
G01 X10.1598 Y9.2813
G01 X10.1530 Y9.3065
G01 X10.1437 Y9.3309
G01 X10.1318 Y9.3543
G01 X10.1175 Y9.3763
G01 X10.1010 Y9.3967
G01 X10.0825 Y9.4152
G01 X10.0621 Y9.4317
G01 X10.0401 Y9.4460
G01 X10.0167 Y9.4579
G01 X9.9923 Y9.4672
G01 X9.9671 Y9.4740
G01 X9.9413 Y9.4780
G01 X9.9152 Y9.4794
G01 X9.2548 Y9.4794
G01 X9.2287 Y9.4780
G01 X9.2029 Y9.4740
G01 X9.1777 Y9.4672
G01 X9.1533 Y9.4579
G01 X9.1299 Y9.4460
G01 X9.1079 Y9.4317
G01 X9.0875 Y9.4152
G01 X9.0690 Y9.3967
G01 X9.0525 Y9.3763
G01 X9.0382 Y9.3543
G01 X9.0263 Y9.3309
G01 X9.0170 Y9.3065
G01 X9.0102 Y9.2813
G01 X9.0062 Y9.2555
G01 X9.0048 Y9.2294
G01 X9.0048 Y7.1974
G01 X9.0062 Y7.1713
G01 X9.0102 Y7.1455
G01 X9.0170 Y7.1203
G01 X9.0263 Y7.0959
G01 X9.0382 Y7.0725
G01 X9.0525 Y7.0505
G01 X9.0690 Y7.0301
G01 X9.0875 Y7.0116
G01 X9.1079 Y6.9951
G01 X9.1299 Y6.9808
G01 X9.1533 Y6.9689
G01 X9.1777 Y6.9596
G01 X9.2029 Y6.9528
G01 X9.2287 Y6.9488
G01 X9.2548 Y6.9474
G00 Z2.0000
G00 X7.9848 Y6.9474
G01 F50.00
G01 Z-0.2000
G01 F45.00
G01 X8.6452 Y6.9474
G01 X8.6713 Y6.9488
G01 X8.6971 Y6.9528
G01 X8.7223 Y6.9596
G01 X8.7467 Y6.9689
G01 X8.7701 Y6.9808
G01 X8.7921 Y6.9951
G01 X8.8125 Y7.0116
G01 X8.8310 Y7.0301
G01 X8.8475 Y7.0505
G01 X8.8618 Y7.0725
G01 X8.8737 Y7.0959
G01 X8.8830 Y7.1203
G01 X8.8898 Y7.1455
G01 X8.8938 Y7.1713
G01 X8.8952 Y7.1974
G01 X8.8952 Y9.2294
G01 X8.8938 Y9.2555
G01 X8.8898 Y9.2813
G01 X8.8830 Y9.3065
G01 X8.8737 Y9.3309
G01 X8.8618 Y9.3543
G01 X8.8475 Y9.3763
G01 X8.8310 Y9.3967
G01 X8.8125 Y9.4152
G01 X8.7921 Y9.4317
G01 X8.7701 Y9.4460
G01 X8.7467 Y9.4579
G01 X8.7223 Y9.4672
G01 X8.6971 Y9.4740
G01 X8.6713 Y9.4780
G01 X8.6452 Y9.4794
G01 X7.9848 Y9.4794
G01 X7.9587 Y9.4780
G01 X7.9329 Y9.4740
G01 X7.9077 Y9.4672
G01 X7.8833 Y9.4579
G01 X7.8599 Y9.4460
G01 X7.8379 Y9.4317
G01 X7.8175 Y9.4152
G01 X7.7990 Y9.3967
G01 X7.7825 Y9.3763
G01 X7.7682 Y9.3543
G01 X7.7563 Y9.3309
G01 X7.7470 Y9.3065
G01 X7.7402 Y9.2813
G01 X7.7362 Y9.2555
G01 X7.7348 Y9.2294
G01 X7.7348 Y7.1974
G01 X7.7362 Y7.1713
G01 X7.7402 Y7.1455
G01 X7.7470 Y7.1203
G01 X7.7563 Y7.0959
G01 X7.7682 Y7.0725
G01 X7.7825 Y7.0505
G01 X7.7990 Y7.0301
G01 X7.8175 Y7.0116
G01 X7.8379 Y6.9951
G01 X7.8599 Y6.9808
G01 X7.8833 Y6.9689
G01 X7.9077 Y6.9596
G01 X7.9329 Y6.9528
G01 X7.9587 Y6.9488
G01 X7.9848 Y6.9474
G00 Z2.0000
G00 X6.4648 Y9.2294
G01 F50.00
G01 Z-0.2000
G01 F45.00
G01 X6.4648 Y7.1974
G01 X6.4662 Y7.1713
G01 X6.4702 Y7.1455
G01 X6.4770 Y7.1203
G01 X6.4863 Y7.0959
G01 X6.4982 Y7.0725
G01 X6.5125 Y7.0505
G01 X6.5290 Y7.0301
G01 X6.5475 Y7.0116
G01 X6.5679 Y6.9951
G01 X6.5899 Y6.9808
G01 X6.6133 Y6.9689
G01 X6.6377 Y6.9596
G01 X6.6629 Y6.9528
G01 X6.6887 Y6.9488
G01 X6.7148 Y6.9474
G01 X7.3752 Y6.9474
G01 X7.4013 Y6.9488
G01 X7.4271 Y6.9528
G01 X7.4523 Y6.9596
G01 X7.4767 Y6.9689
G01 X7.5001 Y6.9808
G01 X7.5221 Y6.9951
G01 X7.5425 Y7.0116
G01 X7.5610 Y7.0301
G01 X7.5775 Y7.0505
G01 X7.5918 Y7.0725
G01 X7.6037 Y7.0959
G01 X7.6130 Y7.1203
G01 X7.6198 Y7.1455
G01 X7.6238 Y7.1713
G01 X7.6252 Y7.1974
G01 X7.6252 Y9.2294
G01 X7.6238 Y9.2555
G01 X7.6198 Y9.2813
G01 X7.6130 Y9.3065
G01 X7.6037 Y9.3309
G01 X7.5918 Y9.3543
G01 X7.5775 Y9.3763
G01 X7.5610 Y9.3967
G01 X7.5425 Y9.4152
G01 X7.5221 Y9.4317
G01 X7.5001 Y9.4460
G01 X7.4767 Y9.4579
G01 X7.4523 Y9.4672
G01 X7.4271 Y9.4740
G01 X7.4013 Y9.4780
G01 X7.3752 Y9.4794
G01 X6.7148 Y9.4794
G01 X6.6887 Y9.4780
G01 X6.6629 Y9.4740
G01 X6.6377 Y9.4672
G01 X6.6133 Y9.4579
G01 X6.5899 Y9.4460
G01 X6.5679 Y9.4317
G01 X6.5475 Y9.4152
G01 X6.5290 Y9.3967
G01 X6.5125 Y9.3763
G01 X6.4982 Y9.3543
G01 X6.4863 Y9.3309
G01 X6.4770 Y9.3065
G01 X6.4702 Y9.2813
G01 X6.4662 Y9.2555
G01 X6.4648 Y9.2294
G00 Z2.0000
G00 X3.8300 Y6.7864
G01 F50.00
G01 Z-0.2000
G01 F45.00
G01 X3.8330 Y6.7286
G01 X3.8413 Y6.6717
G01 X3.8435 Y6.6594
G01 X3.8587 Y6.5995
G01 X3.8781 Y6.5446
G01 X3.8829 Y6.5325
G01 X3.9073 Y6.4809
G01 X3.9137 Y6.4692
G01 X3.9434 Y6.4200
G01 X3.9777 Y6.3734
G01 X3.9854 Y6.3638
G01 X4.0216 Y6.3237
G01 X5.2287 Y5.1166
G01 X5.2651 Y5.0836
G01 X5.2784 Y5.0727
G01 X5.3250 Y5.0384
G01 X5.3742 Y5.0087
G01 X5.3859 Y5.0023
G01 X5.4375 Y4.9779
G01 X5.4496 Y4.9731
G01 X5.4958 Y4.9565
G01 X5.5123 Y4.9515
G01 X5.5644 Y4.9385
G01 X5.5767 Y4.9363
G01 X5.6253 Y4.9291
G01 X5.6424 Y4.9274
G01 X5.7000 Y4.9247
G01 X10.7303 Y4.9247
G01 X12.6906 Y2.9645
G01 X12.6906 Y2.4512
G01 X12.6916 Y2.4330
G01 X12.6944 Y2.4149
G01 X12.6991 Y2.3972
G01 X12.7057 Y2.3802
G01 X12.7155 Y2.3612
G01 X12.7276 Y2.3436
G01 X12.7419 Y2.3275
G01 X13.2775 Y1.7919
G01 X13.2936 Y1.7776
G01 X13.3112 Y1.7655
G01 X13.3302 Y1.7557
G01 X13.3472 Y1.7491
G01 X13.3649 Y1.7444
G01 X13.3830 Y1.7416
G01 X13.4012 Y1.7406
G01 X14.1588 Y1.7406
G01 X14.1770 Y1.7416
G01 X14.1951 Y1.7444
G01 X14.2128 Y1.7491
G01 X14.2298 Y1.7557
G01 X14.2488 Y1.7655
G01 X14.2664 Y1.7776
G01 X14.2825 Y1.7919
G01 X14.8181 Y2.3275
G01 X14.8324 Y2.3436
G01 X14.8445 Y2.3612
G01 X14.8543 Y2.3802
G01 X14.8609 Y2.3972
G01 X14.8656 Y2.4149
G01 X14.8684 Y2.4330
G01 X14.8694 Y2.4512
G01 X14.8694 Y3.2088
G01 X14.8684 Y3.2270
G01 X14.8656 Y3.2451
G01 X14.8609 Y3.2628
G01 X14.8543 Y3.2798
G01 X14.8445 Y3.2988
G01 X14.8324 Y3.3164
G01 X14.8181 Y3.3325
G01 X14.2825 Y3.8681
G01 X14.2664 Y3.8824
G01 X14.2488 Y3.8945
G01 X14.2298 Y3.9043
G01 X14.2128 Y3.9109
G01 X14.1951 Y3.9156
G01 X14.1770 Y3.9184
G01 X14.1588 Y3.9194
G01 X13.6455 Y3.9194
G01 X11.4875 Y6.0775
G01 X11.4412 Y6.1196
G01 X11.4316 Y6.1273
G01 X11.3850 Y6.1616
G01 X11.3358 Y6.1913
G01 X11.3241 Y6.1977
G01 X11.2725 Y6.2221
G01 X11.2604 Y6.2269
G01 X11.2055 Y6.2463
G01 X11.1456 Y6.2615
G01 X11.1333 Y6.2637
G01 X11.0764 Y6.2720
G01 X11.0100 Y6.2753
G01 X5.9797 Y6.2753
G01 X5.1803 Y7.0747
G01 X5.1803 Y8.2134
G01 X5.1770 Y8.2798
G01 X5.1687 Y8.3367
G01 X5.1665 Y8.3490
G01 X5.1535 Y8.4011
G01 X5.1485 Y8.4176
G01 X5.1319 Y8.4638
G01 X5.1271 Y8.4759
G01 X5.1027 Y8.5275
G01 X5.0963 Y8.5392
G01 X5.0666 Y8.5884
G01 X5.0323 Y8.6350
G01 X5.0246 Y8.6446
G01 X5.0102 Y8.6606
G01 X5.0102 Y9.2294
G01 X5.0092 Y9.2477
G01 X5.0064 Y9.2657
G01 X5.0017 Y9.2834
G01 X4.9951 Y9.3005
G01 X4.9868 Y9.3168
G01 X4.9768 Y9.3322
G01 X4.9653 Y9.3465
G01 X4.9523 Y9.3595
G01 X4.9380 Y9.3710
G01 X4.9226 Y9.3810
G01 X4.9063 Y9.3893
G01 X4.8892 Y9.3959
G01 X4.8715 Y9.4006
G01 X4.8535 Y9.4034
G01 X4.8352 Y9.4044
G01 X4.1748 Y9.4044
G01 X4.1565 Y9.4034
G01 X4.1385 Y9.4006
G01 X4.1208 Y9.3959
G01 X4.1037 Y9.3893
G01 X4.0874 Y9.3810
G01 X4.0720 Y9.3710
G01 X4.0577 Y9.3595
G01 X4.0447 Y9.3465
G01 X4.0332 Y9.3322
G01 X4.0232 Y9.3168
G01 X4.0149 Y9.3005
G01 X4.0083 Y9.2834
G01 X4.0036 Y9.2657
G01 X4.0008 Y9.2477
G01 X3.9998 Y9.2294
G01 X3.9998 Y8.6606
G01 X3.9854 Y8.6446
G01 X3.9777 Y8.6350
G01 X3.9434 Y8.5884
G01 X3.9137 Y8.5392
G01 X3.9073 Y8.5275
G01 X3.8829 Y8.4759
G01 X3.8781 Y8.4638
G01 X3.8587 Y8.4089
G01 X3.8446 Y8.3535
G01 X3.8413 Y8.3367
G01 X3.8341 Y8.2881
G01 X3.8324 Y8.2710
G01 X3.8297 Y8.2134
G01 X3.8300 Y6.7864
G00 Z2.0000
G00 X2.5600 Y4.6564
G01 F50.00
G01 Z-0.2000
G01 F45.00
G01 X2.5630 Y4.5986
G01 X2.5713 Y4.5417
G01 X2.5746 Y4.5249
G01 X2.5887 Y4.4695
G01 X2.6081 Y4.4146
G01 X2.6129 Y4.4025
G01 X2.6356 Y4.3544
G01 X2.6437 Y4.3392
G01 X2.6690 Y4.2971
G01 X2.6785 Y4.2828
G01 X2.7077 Y4.2434
G01 X2.7154 Y4.2338
G01 X2.7575 Y4.1875
G01 X3.0287 Y3.9166
G01 X3.0688 Y3.8804
G01 X3.0784 Y3.8727
G01 X3.1178 Y3.8435
G01 X3.1321 Y3.8340
G01 X3.1742 Y3.8087
G01 X3.1894 Y3.8006
G01 X3.2375 Y3.7779
G01 X3.2496 Y3.7731
G01 X3.3045 Y3.7537
G01 X3.3599 Y3.7396
G01 X3.3767 Y3.7363
G01 X3.4336 Y3.7280
G01 X3.4914 Y3.7250
G01 X4.8203 Y3.7247
G01 X5.0997 Y3.4453
G01 X5.0997 Y2.0666
G01 X5.1030 Y2.0002
G01 X5.1113 Y1.9433
G01 X5.1135 Y1.9310
G01 X5.1265 Y1.8789
G01 X5.1315 Y1.8624
G01 X5.1481 Y1.8162
G01 X5.1529 Y1.8041
G01 X5.1773 Y1.7525
G01 X5.1837 Y1.7408
G01 X5.2134 Y1.6916
G01 X5.2477 Y1.6450
G01 X5.2554 Y1.6354
G01 X5.2698 Y1.6194
G01 X5.2698 Y1.0506
G01 X5.2708 Y1.0323
G01 X5.2736 Y1.0143
G01 X5.2783 Y0.9966
G01 X5.2849 Y0.9795
G01 X5.2932 Y0.9632
G01 X5.3032 Y0.9478
G01 X5.3147 Y0.9335
G01 X5.3277 Y0.9205
G01 X5.3420 Y0.9090
G01 X5.3574 Y0.8990
G01 X5.3737 Y0.8907
G01 X5.3908 Y0.8841
G01 X5.4085 Y0.8794
G01 X5.4265 Y0.8766
G01 X5.4448 Y0.8756
G01 X6.1052 Y0.8756
G01 X6.1235 Y0.8766
G01 X6.1415 Y0.8794
G01 X6.1592 Y0.8841
G01 X6.1763 Y0.8907
G01 X6.1926 Y0.8990
G01 X6.2080 Y0.9090
G01 X6.2223 Y0.9205
G01 X6.2353 Y0.9335
G01 X6.2468 Y0.9478
G01 X6.2568 Y0.9632
G01 X6.2651 Y0.9795
G01 X6.2717 Y0.9966
G01 X6.2764 Y1.0143
G01 X6.2792 Y1.0323
G01 X6.2802 Y1.0506
G01 X6.2802 Y1.6194
G01 X6.2946 Y1.6354
G01 X6.3023 Y1.6450
G01 X6.3366 Y1.6916
G01 X6.3663 Y1.7408
G01 X6.3727 Y1.7525
G01 X6.3971 Y1.8041
G01 X6.4019 Y1.8162
G01 X6.4213 Y1.8711
G01 X6.4354 Y1.9265
G01 X6.4387 Y1.9433
G01 X6.4459 Y1.9919
G01 X6.4476 Y2.0090
G01 X6.4503 Y2.0666
G01 X6.4503 Y3.7250
G01 X6.4476 Y3.7826
G01 X6.4459 Y3.7997
G01 X6.4387 Y3.8483
G01 X6.4365 Y3.8606
G01 X6.4213 Y3.9205
G01 X6.4019 Y3.9754
G01 X6.3971 Y3.9875
G01 X6.3727 Y4.0391
G01 X6.3663 Y4.0508
G01 X6.3366 Y4.1000
G01 X6.3023 Y4.1466
G01 X6.2914 Y4.1599
G01 X6.2525 Y4.2025
G01 X5.5713 Y4.8834
G01 X5.5312 Y4.9196
G01 X5.5216 Y4.9273
G01 X5.4750 Y4.9616
G01 X5.4258 Y4.9913
G01 X5.4141 Y4.9977
G01 X5.3663 Y5.0204
G01 X5.3504 Y5.0269
G01 X5.2955 Y5.0463
G01 X5.2356 Y5.0615
G01 X5.2233 Y5.0637
G01 X5.1664 Y5.0720
G01 X5.1086 Y5.0750
G01 X3.9103 Y5.0753
G01 X3.9103 Y8.2134
G01 X3.9076 Y8.2710
G01 X3.9059 Y8.2881
G01 X3.8987 Y8.3367
G01 X3.8954 Y8.3535
G01 X3.8813 Y8.4089
G01 X3.8619 Y8.4638
G01 X3.8571 Y8.4759
G01 X3.8327 Y8.5275
G01 X3.8263 Y8.5392
G01 X3.7966 Y8.5884
G01 X3.7623 Y8.6350
G01 X3.7546 Y8.6446
G01 X3.7402 Y8.6606
G01 X3.7402 Y9.2294
G01 X3.7392 Y9.2477
G01 X3.7364 Y9.2657
G01 X3.7317 Y9.2834
G01 X3.7251 Y9.3005
G01 X3.7168 Y9.3168
G01 X3.7068 Y9.3322
G01 X3.6953 Y9.3465
G01 X3.6823 Y9.3595
G01 X3.6680 Y9.3710
G01 X3.6526 Y9.3810
G01 X3.6363 Y9.3893
G01 X3.6192 Y9.3959
G01 X3.6015 Y9.4006
G01 X3.5835 Y9.4034
G01 X3.5652 Y9.4044
G01 X2.9048 Y9.4044
G01 X2.8865 Y9.4034
G01 X2.8685 Y9.4006
G01 X2.8508 Y9.3959
G01 X2.8337 Y9.3893
G01 X2.8174 Y9.3810
G01 X2.8020 Y9.3710
G01 X2.7877 Y9.3595
G01 X2.7747 Y9.3465
G01 X2.7632 Y9.3322
G01 X2.7532 Y9.3168
G01 X2.7449 Y9.3005
G01 X2.7383 Y9.2834
G01 X2.7336 Y9.2657
G01 X2.7308 Y9.2477
G01 X2.7298 Y9.2294
G01 X2.7298 Y8.6606
G01 X2.7154 Y8.6446
G01 X2.7077 Y8.6350
G01 X2.6785 Y8.5956
G01 X2.6690 Y8.5813
G01 X2.6437 Y8.5392
G01 X2.6373 Y8.5275
G01 X2.6146 Y8.4797
G01 X2.6081 Y8.4638
G01 X2.5887 Y8.4089
G01 X2.5735 Y8.3490
G01 X2.5713 Y8.3367
G01 X2.5630 Y8.2798
G01 X2.5600 Y8.2220
G01 X2.5600 Y4.6564
G00 Z2.0000
G00 X1.3848 Y3.0826
G01 F50.00
G01 Z-0.2000
G01 F45.00
G01 X1.3848 Y1.0506
G01 X1.3862 Y1.0245
G01 X1.3902 Y0.9987
G01 X1.3970 Y0.9735
G01 X1.4063 Y0.9491
G01 X1.4182 Y0.9257
G01 X1.4325 Y0.9037
G01 X1.4490 Y0.8833
G01 X1.4675 Y0.8648
G01 X1.4879 Y0.8483
G01 X1.5099 Y0.8340
G01 X1.5333 Y0.8221
G01 X1.5577 Y0.8128
G01 X1.5829 Y0.8060
G01 X1.6087 Y0.8020
G01 X1.6348 Y0.8006
G01 X2.2952 Y0.8006
G01 X2.3213 Y0.8020
G01 X2.3471 Y0.8060
G01 X2.3723 Y0.8128
G01 X2.3967 Y0.8221
G01 X2.4201 Y0.8340
G01 X2.4421 Y0.8483
G01 X2.4625 Y0.8648
G01 X2.4810 Y0.8833
G01 X2.4975 Y0.9037
G01 X2.5118 Y0.9257
G01 X2.5237 Y0.9491
G01 X2.5330 Y0.9735
G01 X2.5398 Y0.9987
G01 X2.5438 Y1.0245
G01 X2.5452 Y1.0506
G01 X2.5452 Y3.0826
G01 X2.5438 Y3.1087
G01 X2.5398 Y3.1345
G01 X2.5330 Y3.1597
G01 X2.5237 Y3.1841
G01 X2.5118 Y3.2075
G01 X2.4975 Y3.2295
G01 X2.4810 Y3.2499
G01 X2.4625 Y3.2684
G01 X2.4421 Y3.2849
G01 X2.4201 Y3.2992
G01 X2.3967 Y3.3111
G01 X2.3723 Y3.3204
G01 X2.3471 Y3.3272
G01 X2.3213 Y3.3312
G01 X2.2952 Y3.3326
G01 X1.6348 Y3.3326
G01 X1.6087 Y3.3312
G01 X1.5829 Y3.3272
G01 X1.5577 Y3.3204
G01 X1.5333 Y3.3111
G01 X1.5099 Y3.2992
G01 X1.4879 Y3.2849
G01 X1.4675 Y3.2684
G01 X1.4490 Y3.2499
G01 X1.4325 Y3.2295
G01 X1.4182 Y3.2075
G01 X1.4063 Y3.1841
G01 X1.3970 Y3.1597
G01 X1.3902 Y3.1345
G01 X1.3862 Y3.1087
G01 X1.3848 Y3.0826
G00 Z2.0000
G00 X0.5600 Y10.0450
G01 F50.00
G01 Z-0.2000
G01 F45.00
G01 X1.2897 Y10.0450
G01 X1.2897 Y8.2134
G01 X1.2924 Y8.1558
G01 X1.2941 Y8.1387
G01 X1.3013 Y8.0901
G01 X1.3046 Y8.0733
G01 X1.3187 Y8.0179
G01 X1.3381 Y7.9630
G01 X1.3429 Y7.9509
G01 X1.3673 Y7.8993
G01 X1.3737 Y7.8876
G01 X1.4034 Y7.8384
G01 X1.4377 Y7.7918
G01 X1.4454 Y7.7822
G01 X1.4598 Y7.7662
G01 X1.4598 Y7.1974
G01 X1.4608 Y7.1791
G01 X1.4636 Y7.1611
G01 X1.4683 Y7.1434
G01 X1.4749 Y7.1263
G01 X1.4832 Y7.1100
G01 X1.4932 Y7.0946
G01 X1.5047 Y7.0803
G01 X1.5177 Y7.0673
G01 X1.5320 Y7.0558
G01 X1.5474 Y7.0458
G01 X1.5637 Y7.0375
G01 X1.5808 Y7.0309
G01 X1.5985 Y7.0262
G01 X1.6165 Y7.0234
G01 X1.6348 Y7.0224
G01 X2.2952 Y7.0224
G01 X2.3135 Y7.0234
G01 X2.3315 Y7.0262
G01 X2.3492 Y7.0309
G01 X2.3663 Y7.0375
G01 X2.3826 Y7.0458
G01 X2.3980 Y7.0558
G01 X2.4123 Y7.0673
G01 X2.4253 Y7.0803
G01 X2.4368 Y7.0946
G01 X2.4468 Y7.1100
G01 X2.4551 Y7.1263
G01 X2.4617 Y7.1434
G01 X2.4664 Y7.1611
G01 X2.4692 Y7.1791
G01 X2.4702 Y7.1974
G01 X2.4702 Y7.7662
G01 X2.4846 Y7.7822
G01 X2.4923 Y7.7918
G01 X2.5266 Y7.8384
G01 X2.5563 Y7.8876
G01 X2.5627 Y7.8993
G01 X2.5871 Y7.9509
G01 X2.5919 Y7.9630
G01 X2.6085 Y8.0092
G01 X2.6135 Y8.0257
G01 X2.6265 Y8.0778
G01 X2.6287 Y8.0901
G01 X2.6370 Y8.1470
G01 X2.6403 Y8.2134
G01 X2.6403 Y10.0450
G01 X3.1000 Y10.0450
G01 X3.1183 Y10.0460
G01 X3.1363 Y10.0488
G01 X3.1540 Y10.0535
G01 X3.1711 Y10.0601
G01 X3.1874 Y10.0684
G01 X3.2028 Y10.0784
G01 X3.2171 Y10.0899
G01 X3.2301 Y10.1029
G01 X3.2416 Y10.1172
G01 X3.2516 Y10.1326
G01 X3.2599 Y10.1489
G01 X3.2665 Y10.1660
G01 X3.2712 Y10.1837
G01 X3.2740 Y10.2017
G01 X3.2750 Y10.2200
G01 X3.2750 Y15.3000
G01 X3.2740 Y15.3183
G01 X3.2712 Y15.3363
G01 X3.2665 Y15.3540
G01 X3.2599 Y15.3711
G01 X3.2516 Y15.3874
G01 X3.2416 Y15.4028
G01 X3.2301 Y15.4171
G01 X3.2171 Y15.4301
G01 X3.2028 Y15.4416
G01 X3.1874 Y15.4516
G01 X3.1711 Y15.4599
G01 X3.1540 Y15.4665
G01 X3.1363 Y15.4712
G01 X3.1183 Y15.4740
G01 X3.1000 Y15.4750
G01 X0.5600 Y15.4750
G01 X0.5417 Y15.4740
G01 X0.5237 Y15.4712
G01 X0.5060 Y15.4665
G01 X0.4889 Y15.4599
G01 X0.4726 Y15.4516
G01 X0.4572 Y15.4416
G01 X0.4429 Y15.4301
G01 X0.4299 Y15.4171
G01 X0.4184 Y15.4028
G01 X0.4084 Y15.3874
G01 X0.4001 Y15.3711
G01 X0.3935 Y15.3540
G01 X0.3888 Y15.3363
G01 X0.3860 Y15.3183
G01 X0.3850 Y15.3000
G01 X0.3850 Y10.2200
G01 X0.3860 Y10.2017
G01 X0.3888 Y10.1837
G01 X0.3935 Y10.1660
G01 X0.4001 Y10.1489
G01 X0.4084 Y10.1326
G01 X0.4184 Y10.1172
G01 X0.4299 Y10.1029
G01 X0.4429 Y10.0899
G01 X0.4572 Y10.0784
G01 X0.4726 Y10.0684
G01 X0.4889 Y10.0601
G01 X0.5060 Y10.0535
G01 X0.5237 Y10.0488
G01 X0.5417 Y10.0460
G01 X0.5600 Y10.0450
G00 Z2.0000
G00 X4.1950 Y15.3000
G01 F50.00
G01 Z-0.2000
G01 F45.00
G01 X4.1950 Y10.2200
G01 X4.1960 Y10.2017
G01 X4.1988 Y10.1837
G01 X4.2035 Y10.1660
G01 X4.2101 Y10.1489
G01 X4.2184 Y10.1326
G01 X4.2284 Y10.1172
G01 X4.2399 Y10.1029
G01 X4.2529 Y10.0899
G01 X4.2672 Y10.0784
G01 X4.2826 Y10.0684
G01 X4.2989 Y10.0601
G01 X4.3160 Y10.0535
G01 X4.3337 Y10.0488
G01 X4.3517 Y10.0460
G01 X4.3700 Y10.0450
G01 X5.0997 Y10.0450
G01 X5.0997 Y8.2134
G01 X5.1030 Y8.1470
G01 X5.1113 Y8.0901
G01 X5.1135 Y8.0778
G01 X5.1265 Y8.0257
G01 X5.1315 Y8.0092
G01 X5.1481 Y7.9630
G01 X5.1529 Y7.9509
G01 X5.1773 Y7.8993
G01 X5.1837 Y7.8876
G01 X5.2134 Y7.8384
G01 X5.2477 Y7.7918
G01 X5.2554 Y7.7822
G01 X5.2698 Y7.7662
G01 X5.2698 Y7.1974
G01 X5.2708 Y7.1791
G01 X5.2736 Y7.1611
G01 X5.2783 Y7.1434
G01 X5.2849 Y7.1263
G01 X5.2932 Y7.1100
G01 X5.3032 Y7.0946
G01 X5.3147 Y7.0803
G01 X5.3277 Y7.0673
G01 X5.3420 Y7.0558
G01 X5.3574 Y7.0458
G01 X5.3737 Y7.0375
G01 X5.3908 Y7.0309
G01 X5.4085 Y7.0262
G01 X5.4265 Y7.0234
G01 X5.4448 Y7.0224
G01 X6.1052 Y7.0224
G01 X6.1235 Y7.0234
G01 X6.1415 Y7.0262
G01 X6.1592 Y7.0309
G01 X6.1763 Y7.0375
G01 X6.1926 Y7.0458
G01 X6.2080 Y7.0558
G01 X6.2223 Y7.0673
G01 X6.2353 Y7.0803
G01 X6.2468 Y7.0946
G01 X6.2568 Y7.1100
G01 X6.2651 Y7.1263
G01 X6.2717 Y7.1434
G01 X6.2764 Y7.1611
G01 X6.2792 Y7.1791
G01 X6.2802 Y7.1974
G01 X6.2802 Y7.7662
G01 X6.2946 Y7.7822
G01 X6.3023 Y7.7918
G01 X6.3366 Y7.8384
G01 X6.3663 Y7.8876
G01 X6.3727 Y7.8993
G01 X6.3971 Y7.9509
G01 X6.4019 Y7.9630
G01 X6.4213 Y8.0179
G01 X6.4354 Y8.0733
G01 X6.4387 Y8.0901
G01 X6.4459 Y8.1387
G01 X6.4476 Y8.1558
G01 X6.4503 Y8.2134
G01 X6.4503 Y10.0450
G01 X6.9100 Y10.0450
G01 X6.9283 Y10.0460
G01 X6.9463 Y10.0488
G01 X6.9640 Y10.0535
G01 X6.9811 Y10.0601
G01 X6.9974 Y10.0684
G01 X7.0128 Y10.0784
G01 X7.0271 Y10.0899
G01 X7.0401 Y10.1029
G01 X7.0516 Y10.1172
G01 X7.0616 Y10.1326
G01 X7.0699 Y10.1489
G01 X7.0765 Y10.1660
G01 X7.0812 Y10.1837
G01 X7.0840 Y10.2017
G01 X7.0850 Y10.2200
G01 X7.0850 Y10.3601
G01 X7.5225 Y9.9225
G01 X7.5651 Y9.8836
G01 X7.5784 Y9.8727
G01 X7.6250 Y9.8384
G01 X7.6742 Y9.8087
G01 X7.6859 Y9.8023
G01 X7.7375 Y9.7779
G01 X7.7496 Y9.7731
G01 X7.8045 Y9.7537
G01 X7.8599 Y9.7396
G01 X7.8767 Y9.7363
G01 X7.9336 Y9.7280
G01 X8.0000 Y9.7247
G01 X10.9203 Y9.7247
G01 X12.2451 Y8.4000
G01 X11.7225 Y7.8775
G01 X11.6804 Y7.8312
G01 X11.6727 Y7.8216
G01 X11.6384 Y7.7750
G01 X11.6087 Y7.7258
G01 X11.6006 Y7.7106
G01 X11.5779 Y7.6625
G01 X11.5731 Y7.6504
G01 X11.5565 Y7.6042
G01 X11.5515 Y7.5877
G01 X11.5385 Y7.5356
G01 X11.5363 Y7.5233
G01 X11.5291 Y7.4747
G01 X11.5274 Y7.4576
G01 X11.5247 Y7.4000
G01 X11.5247 Y7.2797
G01 X11.5216 Y7.2717
G01 X11.5032 Y7.2204
G01 X11.4982 Y7.2039
G01 X11.4839 Y7.1464
G01 X11.4816 Y7.1341
G01 X11.4725 Y7.0719
G01 X11.4690 Y7.0000
G01 X11.4719 Y6.9369
G01 X11.4736 Y6.9198
G01 X11.4816 Y6.8659
G01 X11.4839 Y6.8536
G01 X11.5003 Y6.7883
G01 X11.5216 Y6.7283
G01 X11.5264 Y6.7162
G01 X11.5531 Y6.6596
G01 X11.5595 Y6.6479
G01 X11.5921 Y6.5940
G01 X11.6296 Y6.5430
G01 X11.6373 Y6.5334
G01 X11.6831 Y6.4831
G01 X11.7334 Y6.4373
G01 X11.7430 Y6.4296
G01 X11.7940 Y6.3921
G01 X11.8479 Y6.3595
G01 X11.8596 Y6.3531
G01 X11.9124 Y6.3281
G01 X11.9283 Y6.3216
G01 X11.9883 Y6.3003
G01 X12.0536 Y6.2839
G01 X12.0659 Y6.2816
G01 X12.1198 Y6.2736
G01 X12.1369 Y6.2719
G01 X12.1914 Y6.2692
G01 X12.2086 Y6.2692
G01 X12.2719 Y6.2725
G01 X12.3341 Y6.2816
G01 X12.3510 Y6.2849
G01 X12.4039 Y6.2982
G01 X12.4204 Y6.3032
G01 X12.4717 Y6.3216
G01 X12.4838 Y6.3264
G01 X12.5404 Y6.3531
G01 X12.5521 Y6.3595
G01 X12.6060 Y6.3921
G01 X12.6570 Y6.4296
G01 X12.6702 Y6.4405
G01 X12.7107 Y6.4772
G01 X12.7228 Y6.4893
G01 X12.7627 Y6.5334
G01 X12.7704 Y6.5430
G01 X12.8079 Y6.5940
G01 X12.8405 Y6.6479
G01 X12.8485 Y6.6631
G01 X12.8736 Y6.7162
G01 X12.8784 Y6.7283
G01 X12.8968 Y6.7796
G01 X12.9018 Y6.7961
G01 X12.9151 Y6.8490
G01 X12.9184 Y6.8659
G01 X12.9275 Y6.9281
G01 X12.9308 Y6.9914
G01 X12.9308 Y7.0086
G01 X12.9275 Y7.0719
G01 X12.9184 Y7.1341
G01 X12.9161 Y7.1464
G01 X12.9132 Y7.1583
G01 X13.2000 Y7.4451
G01 X18.7925 Y1.8525
G01 X18.8388 Y1.8104
G01 X18.8484 Y1.8027
G01 X18.8950 Y1.7684
G01 X18.9442 Y1.7387
G01 X18.9559 Y1.7323
G01 X19.0075 Y1.7079
G01 X19.0196 Y1.7031
G01 X19.0658 Y1.6865
G01 X19.0823 Y1.6815
G01 X19.1344 Y1.6685
G01 X19.1467 Y1.6663
G01 X19.2036 Y1.6580
G01 X19.2700 Y1.6547
G01 X19.6309 Y1.6547
G01 X19.6455 Y1.6357
G01 X19.7150 Y1.5594
G01 X19.7913 Y1.4899
G01 X19.8010 Y1.4822
G01 X19.8803 Y1.4237
G01 X19.9644 Y1.3731
G01 X19.9795 Y1.3650
G01 X20.0644 Y1.3249
G01 X20.0765 Y1.3200
G01 X20.1697 Y1.2869
G01 X20.2692 Y1.2619
G01 X20.2814 Y1.2596
G01 X20.3703 Y1.2464
G01 X20.3873 Y1.2448
G01 X20.4856 Y1.2401
G01 X22.3144 Y1.2401
G01 X22.4215 Y1.2454
G01 X22.5186 Y1.2596
G01 X22.5354 Y1.2630
G01 X22.6303 Y1.2869
G01 X22.7235 Y1.3200
G01 X22.7393 Y1.3266
G01 X22.8239 Y1.3666
G01 X22.8356 Y1.3731
G01 X22.9197 Y1.4237
G01 X22.9990 Y1.4822
G01 X23.0123 Y1.4931
G01 X23.0788 Y1.5534
G01 X23.0910 Y1.5656
G01 X23.1545 Y1.6357
G01 X23.1622 Y1.6454
G01 X23.2156 Y1.7175
G01 X23.2252 Y1.7318
G01 X23.2713 Y1.8088
G01 X23.2778 Y1.8205
G01 X23.3195 Y1.9088
G01 X23.3244 Y1.9209
G01 X23.3575 Y2.0141
G01 X23.3814 Y2.1090
G01 X23.3848 Y2.1258
G01 X23.3990 Y2.2229
G01 X23.4040 Y2.3214
G01 X23.4040 Y2.3386
G01 X23.3996 Y2.4283
G01 X23.3980 Y2.4453
G01 X23.3848 Y2.5342
G01 X23.3825 Y2.5464
G01 X23.3596 Y2.6381
G01 X23.3546 Y2.6545
G01 X23.3244 Y2.7391
G01 X23.3178 Y2.7549
G01 X23.2778 Y2.8395
G01 X23.2713 Y2.8512
G01 X23.2252 Y2.9282
G01 X23.2156 Y2.9425
G01 X23.1622 Y3.0146
G01 X23.1545 Y3.0243
G01 X23.0850 Y3.1006
G01 X23.0087 Y3.1701
G01 X22.9990 Y3.1778
G01 X22.9269 Y3.2312
G01 X22.9126 Y3.2408
G01 X22.8356 Y3.2869
G01 X22.8239 Y3.2934
G01 X22.7393 Y3.3334
G01 X22.7235 Y3.3400
G01 X22.6389 Y3.3702
G01 X22.6225 Y3.3752
G01 X22.5354 Y3.3970
G01 X22.5186 Y3.4004
G01 X22.4215 Y3.4146
G01 X22.3144 Y3.4199
G01 X20.4856 Y3.4199
G01 X20.3785 Y3.4146
G01 X20.2814 Y3.4004
G01 X20.2692 Y3.3981
G01 X20.1697 Y3.3731
G01 X20.0765 Y3.3400
G01 X20.0644 Y3.3351
G01 X19.9761 Y3.2934
G01 X19.9644 Y3.2869
G01 X19.8803 Y3.2363
G01 X19.8010 Y3.1778
G01 X19.7913 Y3.1701
G01 X19.7150 Y3.1006
G01 X19.6455 Y3.0243
G01 X19.6309 Y3.0053
G01 X19.5497 Y3.0053
G01 X11.6775 Y10.8775
G01 X11.6312 Y10.9196
G01 X11.6216 Y10.9273
G01 X11.5822 Y10.9565
G01 X11.5679 Y10.9660
G01 X11.5258 Y10.9913
G01 X11.5141 Y10.9977
G01 X11.4663 Y11.0204
G01 X11.4504 Y11.0269
G01 X11.3955 Y11.0463
G01 X11.3401 Y11.0604
G01 X11.3233 Y11.0637
G01 X11.2664 Y11.0720
G01 X11.2086 Y11.0750
G01 X8.2797 Y11.0753
G01 X7.2702 Y12.0847
G01 X7.3146 Y12.0847
G01 X7.6775 Y11.7219
G01 X7.6936 Y11.7076
G01 X7.7112 Y11.6955
G01 X7.7302 Y11.6857
G01 X7.7472 Y11.6791
G01 X7.7649 Y11.6744
G01 X7.7830 Y11.6716
G01 X7.8012 Y11.6706
G01 X8.5588 Y11.6706
G01 X8.5770 Y11.6716
G01 X8.5951 Y11.6744
G01 X8.6128 Y11.6791
G01 X8.6298 Y11.6857
G01 X8.6488 Y11.6955
G01 X8.6664 Y11.7076
G01 X8.6825 Y11.7219
G01 X9.2181 Y12.2575
G01 X9.2324 Y12.2736
G01 X9.2445 Y12.2912
G01 X9.2543 Y12.3102
G01 X9.2609 Y12.3272
G01 X9.2656 Y12.3449
G01 X9.2684 Y12.3630
G01 X9.2694 Y12.3812
G01 X9.2694 Y13.1388
G01 X9.2684 Y13.1570
G01 X9.2656 Y13.1751
G01 X9.2609 Y13.1928
G01 X9.2543 Y13.2098
G01 X9.2445 Y13.2288
G01 X9.2324 Y13.2464
G01 X9.2181 Y13.2625
G01 X8.6825 Y13.7981
G01 X8.6664 Y13.8124
G01 X8.6488 Y13.8245
G01 X8.6298 Y13.8343
G01 X8.6128 Y13.8409
G01 X8.5951 Y13.8456
G01 X8.5770 Y13.8484
G01 X8.5588 Y13.8494
G01 X7.8012 Y13.8494
G01 X7.7830 Y13.8484
G01 X7.7649 Y13.8456
G01 X7.7472 Y13.8409
G01 X7.7302 Y13.8343
G01 X7.7112 Y13.8245
G01 X7.6936 Y13.8124
G01 X7.6775 Y13.7981
G01 X7.3146 Y13.4353
G01 X7.0850 Y13.4353
G01 X7.0850 Y15.3000
G01 X7.0840 Y15.3183
G01 X7.0812 Y15.3363
G01 X7.0765 Y15.3540
G01 X7.0699 Y15.3711
G01 X7.0616 Y15.3874
G01 X7.0516 Y15.4028
G01 X7.0401 Y15.4171
G01 X7.0271 Y15.4301
G01 X7.0128 Y15.4416
G01 X6.9974 Y15.4516
G01 X6.9811 Y15.4599
G01 X6.9640 Y15.4665
G01 X6.9463 Y15.4712
G01 X6.9283 Y15.4740
G01 X6.9100 Y15.4750
G01 X4.3700 Y15.4750
G01 X4.3517 Y15.4740
G01 X4.3337 Y15.4712
G01 X4.3160 Y15.4665
G01 X4.2989 Y15.4599
G01 X4.2826 Y15.4516
G01 X4.2672 Y15.4416
G01 X4.2529 Y15.4301
G01 X4.2399 Y15.4171
G01 X4.2284 Y15.4028
G01 X4.2184 Y15.3874
G01 X4.2101 Y15.3711
G01 X4.2035 Y15.3540
G01 X4.1988 Y15.3363
G01 X4.1960 Y15.3183
G01 X4.1950 Y15.3000
G00 Z2.0000
G00 X12.7079 Y9.9482
G01 F50.00
G01 Z-0.2000
G01 F45.00
G01 X12.7242 Y9.9298
G01 X13.2598 Y9.3942
G01 X13.2782 Y9.3779
G01 X13.2984 Y9.3641
G01 X13.3200 Y9.3528
G01 X13.3395 Y9.3454
G01 X13.3597 Y9.3400
G01 X13.3804 Y9.3367
G01 X13.4012 Y9.3356
G01 X14.1588 Y9.3356
G01 X14.1796 Y9.3367
G01 X14.2003 Y9.3400
G01 X14.2205 Y9.3454
G01 X14.2400 Y9.3528
G01 X14.2616 Y9.3641
G01 X14.2818 Y9.3779
G01 X14.3002 Y9.3942
G01 X14.8358 Y9.9298
G01 X14.8521 Y9.9482
G01 X14.8659 Y9.9684
G01 X14.8772 Y9.9900
G01 X14.8846 Y10.0095
G01 X14.8900 Y10.0297
G01 X14.8933 Y10.0504
G01 X14.8944 Y10.0712
G01 X14.8944 Y10.8288
G01 X14.8933 Y10.8496
G01 X14.8915 Y10.8612
G01 X15.6759 Y11.6456
G01 X16.1788 Y11.6456
G01 X16.1996 Y11.6467
G01 X16.2203 Y11.6500
G01 X16.2405 Y11.6554
G01 X16.2600 Y11.6628
G01 X16.2816 Y11.6741
G01 X16.3018 Y11.6879
G01 X16.3202 Y11.7042
G01 X16.6757 Y12.0597
G01 X17.1200 Y12.0597
G01 X17.1200 Y9.9900
G01 X17.1211 Y9.9691
G01 X17.1244 Y9.9485
G01 X17.1298 Y9.9283
G01 X17.1372 Y9.9088
G01 X17.1467 Y9.8901
G01 X17.1582 Y9.8725
G01 X17.1714 Y9.8562
G01 X17.1862 Y9.8414
G01 X17.2025 Y9.8282
G01 X17.2201 Y9.8167
G01 X17.2388 Y9.8072
G01 X17.2583 Y9.7998
G01 X17.2785 Y9.7944
G01 X17.2991 Y9.7911
G01 X17.3200 Y9.7900
G01 X19.8600 Y9.7900
G01 X19.8809 Y9.7911
G01 X19.9015 Y9.7944
G01 X19.9217 Y9.7998
G01 X19.9412 Y9.8072
G01 X19.9599 Y9.8167
G01 X19.9775 Y9.8282
G01 X19.9938 Y9.8414
G01 X20.0086 Y9.8562
G01 X20.0218 Y9.8725
G01 X20.0333 Y9.8901
G01 X20.0428 Y9.9088
G01 X20.0502 Y9.9283
G01 X20.0556 Y9.9485
G01 X20.0589 Y9.9691
G01 X20.0600 Y9.9900
G01 X20.0600 Y15.0700
G01 X20.0589 Y15.0909
G01 X20.0556 Y15.1115
G01 X20.0502 Y15.1317
G01 X20.0428 Y15.1512
G01 X20.0333 Y15.1699
G01 X20.0218 Y15.1875
G01 X20.0086 Y15.2038
G01 X19.9938 Y15.2186
G01 X19.9775 Y15.2318
G01 X19.9599 Y15.2433
G01 X19.9412 Y15.2528
G01 X19.9217 Y15.2602
G01 X19.9015 Y15.2656
G01 X19.8809 Y15.2689
G01 X19.8600 Y15.2700
G01 X17.3200 Y15.2700
G01 X17.2991 Y15.2689
G01 X17.2785 Y15.2656
G01 X17.2583 Y15.2602
G01 X17.2388 Y15.2528
G01 X17.2201 Y15.2433
G01 X17.2025 Y15.2318
G01 X17.1862 Y15.2186
G01 X17.1714 Y15.2038
G01 X17.1582 Y15.1875
G01 X17.1467 Y15.1699
G01 X17.1372 Y15.1512
G01 X17.1298 Y15.1317
G01 X17.1244 Y15.1115
G01 X17.1211 Y15.0909
G01 X17.1200 Y15.0700
G01 X17.1200 Y13.4603
G01 X16.6757 Y13.4603
G01 X16.3202 Y13.8158
G01 X16.3018 Y13.8321
G01 X16.2816 Y13.8459
G01 X16.2600 Y13.8572
G01 X16.2405 Y13.8646
G01 X16.2203 Y13.8700
G01 X16.1996 Y13.8733
G01 X16.1788 Y13.8744
G01 X15.4212 Y13.8744
G01 X15.4004 Y13.8733
G01 X15.3797 Y13.8700
G01 X15.3595 Y13.8646
G01 X15.3400 Y13.8572
G01 X15.3184 Y13.8459
G01 X15.2982 Y13.8321
G01 X15.2798 Y13.8158
G01 X14.7442 Y13.2802
G01 X14.7279 Y13.2618
G01 X14.7141 Y13.2416
G01 X14.7028 Y13.2200
G01 X14.6954 Y13.2005
G01 X14.6900 Y13.1803
G01 X14.6867 Y13.1596
G01 X14.6856 Y13.1388
G01 X14.6856 Y12.6359
G01 X13.6141 Y11.5644
G01 X13.4012 Y11.5644
G01 X13.3804 Y11.5633
G01 X13.3597 Y11.5600
G01 X13.3395 Y11.5546
G01 X13.3200 Y11.5472
G01 X13.2984 Y11.5359
G01 X13.2782 Y11.5221
G01 X13.2598 Y11.5058
G01 X12.7242 Y10.9702
G01 X12.7079 Y10.9518
G01 X12.6941 Y10.9316
G01 X12.6828 Y10.9100
G01 X12.6754 Y10.8905
G01 X12.6700 Y10.8703
G01 X12.6667 Y10.8496
G01 X12.6656 Y10.8288
G01 X12.6656 Y10.0712
G01 X12.6667 Y10.0504
G01 X12.6700 Y10.0297
G01 X12.6754 Y10.0095
G01 X12.6828 Y9.9900
G01 X12.6941 Y9.9684
G01 X12.7079 Y9.9482
G00 Z2.0000
G00 X16.2679 Y8.1582
G01 F50.00
G01 Z-0.2000
G01 F45.00
G01 X16.2842 Y8.1398
G01 X16.8198 Y7.6042
G01 X16.8382 Y7.5879
G01 X16.8584 Y7.5741
G01 X16.8800 Y7.5628
G01 X16.8995 Y7.5554
G01 X16.9197 Y7.5500
G01 X16.9404 Y7.5467
G01 X16.9612 Y7.5456
G01 X17.4641 Y7.5456
G01 X18.1020 Y6.9081
G01 X18.1425 Y6.8714
G01 X18.1535 Y6.8627
G01 X18.2011 Y6.8276
G01 X18.2514 Y6.7973
G01 X18.2647 Y6.7899
G01 X18.3173 Y6.7651
G01 X18.3312 Y6.7595
G01 X18.3873 Y6.7397
G01 X18.4490 Y6.7241
G01 X18.4631 Y6.7215
G01 X18.5211 Y6.7132
G01 X18.5802 Y6.7100
G01 X19.6183 Y6.7097
G01 X19.6302 Y6.6953
G01 X19.6973 Y6.6217
G01 X19.7751 Y6.5510
G01 X19.7861 Y6.5422
G01 X19.8664 Y6.4829
G01 X19.9515 Y6.4316
G01 X19.9649 Y6.4243
G01 X20.0543 Y6.3820
G01 X20.0681 Y6.3765
G01 X20.1626 Y6.3430
G01 X20.2637 Y6.3175
G01 X20.2778 Y6.3149
G01 X20.3760 Y6.3005
G01 X20.3861 Y6.2998
G01 X20.4856 Y6.2951
G01 X22.3144 Y6.2951
G01 X22.4139 Y6.2998
G01 X22.4334 Y6.3017
G01 X22.5222 Y6.3149
G01 X22.5363 Y6.3175
G01 X22.6374 Y6.3430
G01 X22.7319 Y6.3765
G01 X22.7500 Y6.3840
G01 X22.8351 Y6.4243
G01 X22.8485 Y6.4316
G01 X22.9336 Y6.4829
G01 X23.0139 Y6.5422
G01 X23.0291 Y6.5546
G01 X23.1027 Y6.6217
G01 X23.1734 Y6.6995
G01 X23.1822 Y6.7105
G01 X23.2357 Y6.7826
G01 X23.2466 Y6.7989
G01 X23.2928 Y6.8759
G01 X23.3001 Y6.8893
G01 X23.3424 Y6.9787
G01 X23.3479 Y6.9925
G01 X23.3782 Y7.0771
G01 X23.3839 Y7.0958
G01 X23.4069 Y7.1881
G01 X23.4095 Y7.2022
G01 X23.4239 Y7.3004
G01 X23.4246 Y7.3105
G01 X23.4293 Y7.4100
G01 X23.4246 Y7.5095
G01 X23.4239 Y7.5196
G01 X23.4095 Y7.6178
G01 X23.4069 Y7.6319
G01 X23.3814 Y7.7330
G01 X23.3479 Y7.8275
G01 X23.3424 Y7.8413
G01 X23.3001 Y7.9307
G01 X23.2928 Y7.9441
G01 X23.2415 Y8.0292
G01 X23.1822 Y8.1095
G01 X23.1698 Y8.1247
G01 X23.1095 Y8.1912
G01 X23.0956 Y8.2051
G01 X23.0249 Y8.2690
G01 X23.0139 Y8.2778
G01 X22.9418 Y8.3313
G01 X22.9255 Y8.3422
G01 X22.8485 Y8.3884
G01 X22.8351 Y8.3957
G01 X22.7457 Y8.4380
G01 X22.7319 Y8.4435
G01 X22.6374 Y8.4770
G01 X22.5415 Y8.5013
G01 X22.5222 Y8.5051
G01 X22.4240 Y8.5195
G01 X22.4139 Y8.5202
G01 X22.3144 Y8.5249
G01 X20.4856 Y8.5249
G01 X20.3861 Y8.5202
G01 X20.3760 Y8.5195
G01 X20.2778 Y8.5051
G01 X20.2637 Y8.5025
G01 X20.1626 Y8.4770
G01 X20.0681 Y8.4435
G01 X20.0543 Y8.4380
G01 X19.9649 Y8.3957
G01 X19.9515 Y8.3884
G01 X19.8664 Y8.3371
G01 X19.7861 Y8.2778
G01 X19.7751 Y8.2690
G01 X19.6973 Y8.1983
G01 X19.6302 Y8.1247
G01 X19.6183 Y8.1103
G01 X18.8801 Y8.1103
G01 X18.4544 Y8.5359
G01 X18.4544 Y9.0388
G01 X18.4533 Y9.0596
G01 X18.4500 Y9.0803
G01 X18.4446 Y9.1005
G01 X18.4372 Y9.1200
G01 X18.4259 Y9.1416
G01 X18.4121 Y9.1618
G01 X18.3958 Y9.1802
G01 X17.8602 Y9.7158
G01 X17.8418 Y9.7321
G01 X17.8216 Y9.7459
G01 X17.8000 Y9.7572
G01 X17.7805 Y9.7646
G01 X17.7603 Y9.7700
G01 X17.7396 Y9.7733
G01 X17.7188 Y9.7744
G01 X16.9612 Y9.7744
G01 X16.9404 Y9.7733
G01 X16.9197 Y9.7700
G01 X16.8995 Y9.7646
G01 X16.8800 Y9.7572
G01 X16.8584 Y9.7459
G01 X16.8382 Y9.7321
G01 X16.8198 Y9.7158
G01 X16.2842 Y9.1802
G01 X16.2679 Y9.1618
G01 X16.2541 Y9.1416
G01 X16.2428 Y9.1200
G01 X16.2354 Y9.1005
G01 X16.2300 Y9.0803
G01 X16.2267 Y9.0596
G01 X16.2256 Y9.0388
G01 X16.2256 Y8.2812
G01 X16.2267 Y8.2604
G01 X16.2300 Y8.2397
G01 X16.2354 Y8.2195
G01 X16.2428 Y8.2000
G01 X16.2541 Y8.1784
G01 X16.2679 Y8.1582
G00 Z2.0000
G00 X16.2679 Y8.1582
G01 F50.00
G01 Z-0.2000
G01 F45.00
G01 X16.2842 Y8.1398
G01 X16.8198 Y7.6042
G01 X16.8382 Y7.5879
G01 X16.8584 Y7.5741
G01 X16.8800 Y7.5628
G01 X16.8995 Y7.5554
G01 X16.9197 Y7.5500
G01 X16.9404 Y7.5467
G01 X16.9612 Y7.5456
G01 X17.4641 Y7.5456
G01 X18.1020 Y6.9081
G01 X18.1425 Y6.8714
G01 X18.1535 Y6.8627
G01 X18.2011 Y6.8276
G01 X18.2514 Y6.7973
G01 X18.2647 Y6.7899
G01 X18.3173 Y6.7651
G01 X18.3312 Y6.7595
G01 X18.3873 Y6.7397
G01 X18.4490 Y6.7241
G01 X18.4631 Y6.7215
G01 X18.5211 Y6.7132
G01 X18.5802 Y6.7100
G01 X19.6183 Y6.7097
G01 X19.6302 Y6.6953
G01 X19.6973 Y6.6217
G01 X19.7751 Y6.5510
G01 X19.7861 Y6.5422
G01 X19.8664 Y6.4829
G01 X19.9515 Y6.4316
G01 X19.9649 Y6.4243
G01 X20.0543 Y6.3820
G01 X20.0681 Y6.3765
G01 X20.1626 Y6.3430
G01 X20.2637 Y6.3175
G01 X20.2778 Y6.3149
G01 X20.3666 Y6.3017
G01 X20.3861 Y6.2998
G01 X20.4856 Y6.2951
G01 X22.3144 Y6.2951
G01 X22.4139 Y6.2998
G01 X22.4334 Y6.3017
G01 X22.5222 Y6.3149
G01 X22.5363 Y6.3175
G01 X22.6374 Y6.3430
G01 X22.7319 Y6.3765
G01 X22.7500 Y6.3840
G01 X22.8351 Y6.4243
G01 X22.8485 Y6.4316
G01 X22.9255 Y6.4778
G01 X22.9418 Y6.4887
G01 X23.0139 Y6.5422
G01 X23.0249 Y6.5510
G01 X23.0956 Y6.6149
G01 X23.1095 Y6.6288
G01 X23.1734 Y6.6995
G01 X23.1822 Y6.7105
G01 X23.2357 Y6.7826
G01 X23.2466 Y6.7989
G01 X23.2928 Y6.8759
G01 X23.3001 Y6.8893
G01 X23.3404 Y6.9744
G01 X23.3479 Y6.9925
G01 X23.3814 Y7.0870
G01 X23.3997 Y7.1592
G01 X23.3997 Y5.8901
G01 X23.1339 Y5.6242
G01 X23.1095 Y5.6512
G01 X23.0956 Y5.6651
G01 X23.0291 Y5.7254
G01 X23.0139 Y5.7378
G01 X22.9336 Y5.7971
G01 X22.8485 Y5.8484
G01 X22.8351 Y5.8557
G01 X22.7457 Y5.8980
G01 X22.7319 Y5.9035
G01 X22.6374 Y5.9370
G01 X22.5363 Y5.9625
G01 X22.5222 Y5.9651
G01 X22.4240 Y5.9795
G01 X22.4139 Y5.9802
G01 X22.3144 Y5.9849
G01 X20.4856 Y5.9849
G01 X20.3861 Y5.9802
G01 X20.3666 Y5.9783
G01 X20.2778 Y5.9651
G01 X20.2637 Y5.9625
G01 X20.1714 Y5.9395
G01 X20.1527 Y5.9338
G01 X20.0681 Y5.9035
G01 X20.0500 Y5.8960
G01 X19.9649 Y5.8557
G01 X19.9515 Y5.8484
G01 X19.8745 Y5.8022
G01 X19.8582 Y5.7913
G01 X19.7861 Y5.7378
G01 X19.7751 Y5.7290
G01 X19.6973 Y5.6583
G01 X19.6266 Y5.5805
G01 X19.6178 Y5.5695
G01 X19.5643 Y5.4974
G01 X19.5534 Y5.4811
G01 X19.5072 Y5.4041
G01 X19.4999 Y5.3907
G01 X19.4576 Y5.3013
G01 X19.4521 Y5.2875
G01 X19.4186 Y5.1930
G01 X19.3931 Y5.0919
G01 X19.3905 Y5.0778
G01 X19.3761 Y4.9796
G01 X19.3754 Y4.9695
G01 X19.3707 Y4.8700
G01 X19.3754 Y4.7705
G01 X19.3761 Y4.7604
G01 X19.3905 Y4.6622
G01 X19.3943 Y4.6429
G01 X19.4161 Y4.5558
G01 X19.4218 Y4.5371
G01 X19.4521 Y4.4525
G01 X19.4576 Y4.4387
G01 X19.4999 Y4.3493
G01 X19.5072 Y4.3359
G01 X19.5585 Y4.2508
G01 X19.6178 Y4.1705
G01 X19.6302 Y4.1553
G01 X19.6905 Y4.0888
G01 X19.7044 Y4.0749
G01 X19.7751 Y4.0110
G01 X19.7861 Y4.0022
G01 X19.8664 Y3.9429
G01 X19.9515 Y3.8916
G01 X19.9649 Y3.8843
G01 X20.0500 Y3.8440
G01 X20.0681 Y3.8365
G01 X20.1626 Y3.8030
G01 X20.2585 Y3.7787
G01 X20.2778 Y3.7749
G01 X20.3666 Y3.7617
G01 X20.3861 Y3.7598
G01 X20.4856 Y3.7551
G01 X22.3144 Y3.7551
G01 X22.4139 Y3.7598
G01 X22.4240 Y3.7605
G01 X22.5222 Y3.7749
G01 X22.5415 Y3.7787
G01 X22.6374 Y3.8030
G01 X22.7319 Y3.8365
G01 X22.7500 Y3.8440
G01 X22.8312 Y3.8824
G01 X22.8485 Y3.8916
G01 X22.9336 Y3.9429
G01 X23.0139 Y4.0022
G01 X23.0249 Y4.0110
G01 X23.1027 Y4.0817
G01 X23.1698 Y4.1553
G01 X23.1817 Y4.1697
G01 X23.3700 Y4.1697
G01 X23.4288 Y4.1724
G01 X23.4484 Y4.1743
G01 X23.4969 Y4.1815
G01 X23.5110 Y4.1841
G01 X23.5638 Y4.1973
G01 X23.5826 Y4.2030
G01 X23.6288 Y4.2195
G01 X23.6427 Y4.2251
G01 X23.6953 Y4.2499
G01 X23.7086 Y4.2573
G01 X23.7589 Y4.2876
G01 X23.8065 Y4.3227
G01 X23.8217 Y4.3351
G01 X23.8652 Y4.3748
G01 X24.5952 Y5.1048
G01 X24.6349 Y5.1483
G01 X24.6473 Y5.1635
G01 X24.6824 Y5.2111
G01 X24.7127 Y5.2614
G01 X24.7220 Y5.2787
G01 X24.7449 Y5.3273
G01 X24.7505 Y5.3412
G01 X24.7703 Y5.3973
G01 X24.7859 Y5.4590
G01 X24.7885 Y5.4731
G01 X24.7968 Y5.5311
G01 X24.8000 Y5.5902
G01 X24.8003 Y9.1000
G01 X24.7976 Y9.1588
G01 X24.7957 Y9.1784
G01 X24.7885 Y9.2269
G01 X24.7846 Y9.2462
G01 X24.7703 Y9.3027
G01 X24.7505 Y9.3588
G01 X24.7449 Y9.3727
G01 X24.7201 Y9.4253
G01 X24.7127 Y9.4386
G01 X24.6875 Y9.4807
G01 X24.6766 Y9.4971
G01 X24.6473 Y9.5365
G01 X24.6386 Y9.5475
G01 X24.5952 Y9.5952
G01 X24.1800 Y10.0103
G01 X24.1800 Y15.0300
G01 X24.1789 Y15.0509
G01 X24.1756 Y15.0715
G01 X24.1702 Y15.0917
G01 X24.1628 Y15.1112
G01 X24.1533 Y15.1299
G01 X24.1418 Y15.1475
G01 X24.1286 Y15.1638
G01 X24.1138 Y15.1786
G01 X24.0975 Y15.1918
G01 X24.0799 Y15.2033
G01 X24.0612 Y15.2128
G01 X24.0417 Y15.2202
G01 X24.0215 Y15.2256
G01 X24.0009 Y15.2289
G01 X23.9800 Y15.2300
G01 X21.4400 Y15.2300
G01 X21.4191 Y15.2289
G01 X21.3985 Y15.2256
G01 X21.3783 Y15.2202
G01 X21.3588 Y15.2128
G01 X21.3401 Y15.2033
G01 X21.3225 Y15.1918
G01 X21.3062 Y15.1786
G01 X21.2914 Y15.1638
G01 X21.2782 Y15.1475
G01 X21.2667 Y15.1299
G01 X21.2572 Y15.1112
G01 X21.2498 Y15.0917
G01 X21.2444 Y15.0715
G01 X21.2411 Y15.0509
G01 X21.2400 Y15.0300
G01 X21.2400 Y9.9500
G01 X21.2411 Y9.9291
G01 X21.2444 Y9.9085
G01 X21.2498 Y9.8883
G01 X21.2572 Y9.8688
G01 X21.2667 Y9.8501
G01 X21.2782 Y9.8325
G01 X21.2914 Y9.8162
G01 X21.3062 Y9.8014
G01 X21.3225 Y9.7882
G01 X21.3401 Y9.7767
G01 X21.3588 Y9.7672
G01 X21.3783 Y9.7598
G01 X21.3985 Y9.7544
G01 X21.4191 Y9.7511
G01 X21.4400 Y9.7500
G01 X22.4597 Y9.7500
G01 X23.3997 Y8.8099
G01 X23.3997 Y7.6608
G01 X23.3814 Y7.7330
G01 X23.3479 Y7.8275
G01 X23.3424 Y7.8413
G01 X23.3001 Y7.9307
G01 X23.2928 Y7.9441
G01 X23.2466 Y8.0211
G01 X23.2357 Y8.0374
G01 X23.1822 Y8.1095
G01 X23.1698 Y8.1247
G01 X23.1027 Y8.1983
G01 X23.0249 Y8.2690
G01 X23.0139 Y8.2778
G01 X22.9418 Y8.3313
G01 X22.9255 Y8.3422
G01 X22.8485 Y8.3884
G01 X22.8351 Y8.3957
G01 X22.7457 Y8.4380
G01 X22.7319 Y8.4435
G01 X22.6473 Y8.4738
G01 X22.6286 Y8.4795
G01 X22.5363 Y8.5025
G01 X22.5222 Y8.5051
G01 X22.4240 Y8.5195
G01 X22.4139 Y8.5202
G01 X22.3144 Y8.5249
G01 X20.4856 Y8.5249
G01 X20.3861 Y8.5202
G01 X20.3760 Y8.5195
G01 X20.2778 Y8.5051
G01 X20.2637 Y8.5025
G01 X20.1626 Y8.4770
G01 X20.0681 Y8.4435
G01 X20.0543 Y8.4380
G01 X19.9649 Y8.3957
G01 X19.9515 Y8.3884
G01 X19.8664 Y8.3371
G01 X19.7861 Y8.2778
G01 X19.7751 Y8.2690
G01 X19.6973 Y8.1983
G01 X19.6302 Y8.1247
G01 X19.6183 Y8.1103
G01 X18.8801 Y8.1103
G01 X18.4544 Y8.5359
G01 X18.4544 Y9.0388
G01 X18.4533 Y9.0596
G01 X18.4500 Y9.0803
G01 X18.4446 Y9.1005
G01 X18.4372 Y9.1200
G01 X18.4259 Y9.1416
G01 X18.4121 Y9.1618
G01 X18.3958 Y9.1802
G01 X17.8602 Y9.7158
G01 X17.8418 Y9.7321
G01 X17.8216 Y9.7459
G01 X17.8000 Y9.7572
G01 X17.7805 Y9.7646
G01 X17.7603 Y9.7700
G01 X17.7396 Y9.7733
G01 X17.7188 Y9.7744
G01 X16.9612 Y9.7744
G01 X16.9404 Y9.7733
G01 X16.9197 Y9.7700
G01 X16.8995 Y9.7646
G01 X16.8800 Y9.7572
G01 X16.8584 Y9.7459
G01 X16.8382 Y9.7321
G01 X16.8198 Y9.7158
G01 X16.2842 Y9.1802
G01 X16.2679 Y9.1618
G01 X16.2541 Y9.1416
G01 X16.2428 Y9.1200
G01 X16.2354 Y9.1005
G01 X16.2300 Y9.0803
G01 X16.2267 Y9.0596
G01 X16.2256 Y9.0388
G01 X16.2256 Y8.2812
G01 X16.2267 Y8.2604
G01 X16.2300 Y8.2397
G01 X16.2354 Y8.2195
G01 X16.2428 Y8.2000
G01 X16.2541 Y8.1784
G01 X16.2679 Y8.1582
G00 Z2.0000
M05
G00 Z2.0000
G00 Z15.00
G00 X0.0 Y0.0

(TOOL DIAMETER: 0.5 mm)
(Feedrate: 120.0 mm/min)
(Feedrate_Z: 60.0 mm/min)
(Feedrate rapids 1500.0 mm/min)

(Z_Cut: -2.4 mm)
(Z_Move: 2.0 mm)
(Z Toolchange: 15.0 mm)
(X,Y Toolchange: 0.0000, 0.0000 mm)
(Z Start: None mm)
(Z End: 15.0 mm)
(Steps per circle: 64)
(Preprocessor Geometry: default)

(X range:    0.3850 ...   24.8003  mm)
(Y range:   -0.5753 ...   15.4750  mm)

(Spindle Speed: None RPM)
G21
G90
G94

G01 F120.00
G00 Z2.0000

M03
G00 X2.5600 Y0.4564
G01 F60.00
G01 Z-2.4000
G01 F120.00
G01 X2.5630 Y0.3986
G01 X2.5713 Y0.3417
G01 X2.5735 Y0.3294
G01 X2.5887 Y0.2695
G01 X2.6081 Y0.2146
G01 X2.6129 Y0.2025
G01 X2.6373 Y0.1509
G01 X2.6437 Y0.1392
G01 X2.6734 Y0.0900
G01 X2.7077 Y0.0434
G01 X2.7154 Y0.0338
G01 X2.7575 Y-0.0125
G01 X3.1225 Y-0.3775
G01 X3.1688 Y-0.4196
G01 X3.1784 Y-0.4273
G01 X3.2178 Y-0.4565
G01 X3.2321 Y-0.4660
G01 X3.2742 Y-0.4913
G01 X3.2859 Y-0.4977
G01 X3.3337 Y-0.5204
G01 X3.3496 Y-0.5269
G01 X3.4045 Y-0.5463
G01 X3.4599 Y-0.5604
G01 X3.4767 Y-0.5637
G01 X3.5253 Y-0.5709
G01 X3.5424 Y-0.5726
G01 X3.6000 Y-0.5753
G01 X16.5000 Y-0.5753
G01 X16.5576 Y-0.5726
G01 X16.5747 Y-0.5709
G01 X16.6233 Y-0.5637
G01 X16.6356 Y-0.5615
G01 X16.6877 Y-0.5485
G01 X16.7042 Y-0.5435
G01 X16.7504 Y-0.5269
G01 X16.7625 Y-0.5221
G01 X16.8106 Y-0.4994
G01 X16.8258 Y-0.4913
G01 X16.8750 Y-0.4616
G01 X16.9216 Y-0.4273
G01 X16.9312 Y-0.4196
G01 X16.9775 Y-0.3775
G01 X17.3055 Y-0.0494
G01 X17.7188 Y-0.0494
G01 X17.7370 Y-0.0484
G01 X17.7551 Y-0.0456
G01 X17.7728 Y-0.0409
G01 X17.7898 Y-0.0343
G01 X17.8088 Y-0.0245
G01 X17.8264 Y-0.0124
G01 X17.8425 Y0.0019
G01 X18.3781 Y0.5375
G01 X18.3924 Y0.5536
G01 X18.4045 Y0.5712
G01 X18.4143 Y0.5902
G01 X18.4209 Y0.6072
G01 X18.4256 Y0.6249
G01 X18.4284 Y0.6430
G01 X18.4294 Y0.6612
G01 X18.4294 Y1.4188
G01 X18.4284 Y1.4370
G01 X18.4256 Y1.4551
G01 X18.4209 Y1.4728
G01 X18.4143 Y1.4898
G01 X18.4045 Y1.5088
G01 X18.3924 Y1.5264
G01 X18.3781 Y1.5425
G01 X17.8425 Y2.0781
G01 X17.8264 Y2.0924
G01 X17.8088 Y2.1045
G01 X17.7898 Y2.1143
G01 X17.7728 Y2.1209
G01 X17.7551 Y2.1256
G01 X17.7370 Y2.1284
G01 X17.7188 Y2.1294
G01 X16.9612 Y2.1294
G01 X16.9430 Y2.1284
G01 X16.9249 Y2.1256
G01 X16.9072 Y2.1209
G01 X16.8902 Y2.1143
G01 X16.8712 Y2.1045
G01 X16.8536 Y2.0924
G01 X16.8375 Y2.0781
G01 X16.3019 Y1.5425
G01 X16.2876 Y1.5264
G01 X16.2755 Y1.5088
G01 X16.2657 Y1.4898
G01 X16.2591 Y1.4728
G01 X16.2544 Y1.4551
G01 X16.2516 Y1.4370
G01 X16.2506 Y1.4188
G01 X16.2506 Y0.8055
G01 X16.2203 Y0.7753
G01 X3.9103 Y0.7753
G01 X3.9103 Y2.0666
G01 X3.9070 Y2.1330
G01 X3.8987 Y2.1899
G01 X3.8965 Y2.2022
G01 X3.8835 Y2.2543
G01 X3.8785 Y2.2708
G01 X3.8619 Y2.3170
G01 X3.8571 Y2.3291
G01 X3.8327 Y2.3807
G01 X3.8263 Y2.3924
G01 X3.7966 Y2.4416
G01 X3.7623 Y2.4882
G01 X3.7546 Y2.4978
G01 X3.7402 Y2.5138
G01 X3.7402 Y3.0826
G01 X3.7392 Y3.1009
G01 X3.7364 Y3.1189
G01 X3.7317 Y3.1366
G01 X3.7251 Y3.1537
G01 X3.7168 Y3.1700
G01 X3.7068 Y3.1854
G01 X3.6953 Y3.1997
G01 X3.6823 Y3.2127
G01 X3.6680 Y3.2242
G01 X3.6526 Y3.2342
G01 X3.6363 Y3.2425
G01 X3.6192 Y3.2491
G01 X3.6015 Y3.2538
G01 X3.5835 Y3.2566
G01 X3.5652 Y3.2576
G01 X2.9048 Y3.2576
G01 X2.8865 Y3.2566
G01 X2.8685 Y3.2538
G01 X2.8508 Y3.2491
G01 X2.8337 Y3.2425
G01 X2.8174 Y3.2342
G01 X2.8020 Y3.2242
G01 X2.7877 Y3.2127
G01 X2.7747 Y3.1997
G01 X2.7632 Y3.1854
G01 X2.7532 Y3.1700
G01 X2.7449 Y3.1537
G01 X2.7383 Y3.1366
G01 X2.7336 Y3.1189
G01 X2.7308 Y3.1009
G01 X2.7298 Y3.0826
G01 X2.7298 Y2.5138
G01 X2.7154 Y2.4978
G01 X2.7077 Y2.4882
G01 X2.6734 Y2.4416
G01 X2.6437 Y2.3924
G01 X2.6373 Y2.3807
G01 X2.6129 Y2.3291
G01 X2.6081 Y2.3170
G01 X2.5915 Y2.2708
G01 X2.5865 Y2.2543
G01 X2.5735 Y2.2022
G01 X2.5713 Y2.1899
G01 X2.5630 Y2.1330
G01 X2.5597 Y2.0666
G01 X2.5600 Y0.4564
G00 Z2.0000
G00 X4.1748 Y0.8006
G01 F60.00
G01 Z-2.4000
G01 F120.00
G01 X4.8352 Y0.8006
G01 X4.8613 Y0.8020
G01 X4.8871 Y0.8060
G01 X4.9123 Y0.8128
G01 X4.9367 Y0.8221
G01 X4.9601 Y0.8340
G01 X4.9821 Y0.8483
G01 X5.0025 Y0.8648
G01 X5.0210 Y0.8833
G01 X5.0375 Y0.9037
G01 X5.0518 Y0.9257
G01 X5.0637 Y0.9491
G01 X5.0730 Y0.9735
G01 X5.0798 Y0.9987
G01 X5.0838 Y1.0245
G01 X5.0852 Y1.0506
G01 X5.0852 Y3.0826
G01 X5.0838 Y3.1087
G01 X5.0798 Y3.1345
G01 X5.0730 Y3.1597
G01 X5.0637 Y3.1841
G01 X5.0518 Y3.2075
G01 X5.0375 Y3.2295
G01 X5.0210 Y3.2499
G01 X5.0025 Y3.2684
G01 X4.9821 Y3.2849
G01 X4.9601 Y3.2992
G01 X4.9367 Y3.3111
G01 X4.9123 Y3.3204
G01 X4.8871 Y3.3272
G01 X4.8613 Y3.3312
G01 X4.8352 Y3.3326
G01 X4.1748 Y3.3326
G01 X4.1487 Y3.3312
G01 X4.1229 Y3.3272
G01 X4.0977 Y3.3204
G01 X4.0733 Y3.3111
G01 X4.0499 Y3.2992
G01 X4.0279 Y3.2849
G01 X4.0075 Y3.2684
G01 X3.9890 Y3.2499
G01 X3.9725 Y3.2295
G01 X3.9582 Y3.2075
G01 X3.9463 Y3.1841
G01 X3.9370 Y3.1597
G01 X3.9302 Y3.1345
G01 X3.9262 Y3.1087
G01 X3.9248 Y3.0826
G01 X3.9248 Y1.0506
G01 X3.9262 Y1.0245
G01 X3.9302 Y0.9987
G01 X3.9370 Y0.9735
G01 X3.9463 Y0.9491
G01 X3.9582 Y0.9257
G01 X3.9725 Y0.9037
G01 X3.9890 Y0.8833
G01 X4.0075 Y0.8648
G01 X4.0279 Y0.8483
G01 X4.0499 Y0.8340
G01 X4.0733 Y0.8221
G01 X4.0977 Y0.8128
G01 X4.1229 Y0.8060
G01 X4.1487 Y0.8020
G01 X4.1748 Y0.8006
G00 Z2.0000
G00 X6.7148 Y0.8006
G01 F60.00
G01 Z-2.4000
G01 F120.00
G01 X7.3752 Y0.8006
G01 X7.4013 Y0.8020
G01 X7.4271 Y0.8060
G01 X7.4523 Y0.8128
G01 X7.4767 Y0.8221
G01 X7.5001 Y0.8340
G01 X7.5221 Y0.8483
G01 X7.5425 Y0.8648
G01 X7.5610 Y0.8833
G01 X7.5775 Y0.9037
G01 X7.5918 Y0.9257
G01 X7.6037 Y0.9491
G01 X7.6130 Y0.9735
G01 X7.6198 Y0.9987
G01 X7.6238 Y1.0245
G01 X7.6252 Y1.0506
G01 X7.6252 Y3.0826
G01 X7.6238 Y3.1087
G01 X7.6198 Y3.1345
G01 X7.6130 Y3.1597
G01 X7.6037 Y3.1841
G01 X7.5918 Y3.2075
G01 X7.5775 Y3.2295
G01 X7.5610 Y3.2499
G01 X7.5425 Y3.2684
G01 X7.5221 Y3.2849
G01 X7.5001 Y3.2992
G01 X7.4767 Y3.3111
G01 X7.4523 Y3.3204
G01 X7.4271 Y3.3272
G01 X7.4013 Y3.3312
G01 X7.3752 Y3.3326
G01 X6.7148 Y3.3326
G01 X6.6887 Y3.3312
G01 X6.6629 Y3.3272
G01 X6.6377 Y3.3204
G01 X6.6133 Y3.3111
G01 X6.5899 Y3.2992
G01 X6.5679 Y3.2849
G01 X6.5475 Y3.2684
G01 X6.5290 Y3.2499
G01 X6.5125 Y3.2295
G01 X6.4982 Y3.2075
G01 X6.4863 Y3.1841
G01 X6.4770 Y3.1597
G01 X6.4702 Y3.1345
G01 X6.4662 Y3.1087
G01 X6.4648 Y3.0826
G01 X6.4648 Y1.0506
G01 X6.4662 Y1.0245
G01 X6.4702 Y0.9987
G01 X6.4770 Y0.9735
G01 X6.4863 Y0.9491
G01 X6.4982 Y0.9257
G01 X6.5125 Y0.9037
G01 X6.5290 Y0.8833
G01 X6.5475 Y0.8648
G01 X6.5679 Y0.8483
G01 X6.5899 Y0.8340
G01 X6.6133 Y0.8221
G01 X6.6377 Y0.8128
G01 X6.6629 Y0.8060
G01 X6.6887 Y0.8020
G01 X6.7148 Y0.8006
G00 Z2.0000
G00 X7.9848 Y0.8006
G01 F60.00
G01 Z-2.4000
G01 F120.00
G01 X8.6452 Y0.8006
G01 X8.6713 Y0.8020
G01 X8.6971 Y0.8060
G01 X8.7223 Y0.8128
G01 X8.7467 Y0.8221
G01 X8.7701 Y0.8340
G01 X8.7921 Y0.8483
G01 X8.8125 Y0.8648
G01 X8.8310 Y0.8833
G01 X8.8475 Y0.9037
G01 X8.8618 Y0.9257
G01 X8.8737 Y0.9491
G01 X8.8830 Y0.9735
G01 X8.8898 Y0.9987
G01 X8.8938 Y1.0245
G01 X8.8952 Y1.0506
G01 X8.8952 Y3.0826
G01 X8.8938 Y3.1087
G01 X8.8898 Y3.1345
G01 X8.8830 Y3.1597
G01 X8.8737 Y3.1841
G01 X8.8618 Y3.2075
G01 X8.8475 Y3.2295
G01 X8.8310 Y3.2499
G01 X8.8125 Y3.2684
G01 X8.7921 Y3.2849
G01 X8.7701 Y3.2992
G01 X8.7467 Y3.3111
G01 X8.7223 Y3.3204
G01 X8.6971 Y3.3272
G01 X8.6713 Y3.3312
G01 X8.6452 Y3.3326
G01 X7.9848 Y3.3326
G01 X7.9587 Y3.3312
G01 X7.9329 Y3.3272
G01 X7.9077 Y3.3204
G01 X7.8833 Y3.3111
G01 X7.8599 Y3.2992
G01 X7.8379 Y3.2849
G01 X7.8175 Y3.2684
G01 X7.7990 Y3.2499
G01 X7.7825 Y3.2295
G01 X7.7682 Y3.2075
G01 X7.7563 Y3.1841
G01 X7.7470 Y3.1597
G01 X7.7402 Y3.1345
G01 X7.7362 Y3.1087
G01 X7.7348 Y3.0826
G01 X7.7348 Y1.0506
G01 X7.7362 Y1.0245
G01 X7.7402 Y0.9987
G01 X7.7470 Y0.9735
G01 X7.7563 Y0.9491
G01 X7.7682 Y0.9257
G01 X7.7825 Y0.9037
G01 X7.7990 Y0.8833
G01 X7.8175 Y0.8648
G01 X7.8379 Y0.8483
G01 X7.8599 Y0.8340
G01 X7.8833 Y0.8221
G01 X7.9077 Y0.8128
G01 X7.9329 Y0.8060
G01 X7.9587 Y0.8020
G01 X7.9848 Y0.8006
G00 Z2.0000
G00 X9.2548 Y0.8006
G01 F60.00
G01 Z-2.4000
G01 F120.00
G01 X9.9152 Y0.8006
G01 X9.9413 Y0.8020
G01 X9.9671 Y0.8060
G01 X9.9923 Y0.8128
G01 X10.0167 Y0.8221
G01 X10.0401 Y0.8340
G01 X10.0621 Y0.8483
G01 X10.0825 Y0.8648
G01 X10.1010 Y0.8833
G01 X10.1175 Y0.9037
G01 X10.1318 Y0.9257
G01 X10.1437 Y0.9491
G01 X10.1530 Y0.9735
G01 X10.1598 Y0.9987
G01 X10.1638 Y1.0245
G01 X10.1652 Y1.0506
G01 X10.1652 Y3.0826
G01 X10.1638 Y3.1087
G01 X10.1598 Y3.1345
G01 X10.1530 Y3.1597
G01 X10.1437 Y3.1841
G01 X10.1318 Y3.2075
G01 X10.1175 Y3.2295
G01 X10.1010 Y3.2499
G01 X10.0825 Y3.2684
G01 X10.0621 Y3.2849
G01 X10.0401 Y3.2992
G01 X10.0167 Y3.3111
G01 X9.9923 Y3.3204
G01 X9.9671 Y3.3272
G01 X9.9413 Y3.3312
G01 X9.9152 Y3.3326
G01 X9.2548 Y3.3326
G01 X9.2287 Y3.3312
G01 X9.2029 Y3.3272
G01 X9.1777 Y3.3204
G01 X9.1533 Y3.3111
G01 X9.1299 Y3.2992
G01 X9.1079 Y3.2849
G01 X9.0875 Y3.2684
G01 X9.0690 Y3.2499
G01 X9.0525 Y3.2295
G01 X9.0382 Y3.2075
G01 X9.0263 Y3.1841
G01 X9.0170 Y3.1597
G01 X9.0102 Y3.1345
G01 X9.0062 Y3.1087
G01 X9.0048 Y3.0826
G01 X9.0048 Y1.0506
G01 X9.0062 Y1.0245
G01 X9.0102 Y0.9987
G01 X9.0170 Y0.9735
G01 X9.0263 Y0.9491
G01 X9.0382 Y0.9257
G01 X9.0525 Y0.9037
G01 X9.0690 Y0.8833
G01 X9.0875 Y0.8648
G01 X9.1079 Y0.8483
G01 X9.1299 Y0.8340
G01 X9.1533 Y0.8221
G01 X9.1777 Y0.8128
G01 X9.2029 Y0.8060
G01 X9.2287 Y0.8020
G01 X9.2548 Y0.8006
G00 Z2.0000
G00 X10.3498 Y2.5138
G01 F60.00
G01 Z-2.4000
G01 F120.00
G01 X10.3354 Y2.4978
G01 X10.3277 Y2.4882
G01 X10.2985 Y2.4488
G01 X10.2890 Y2.4345
G01 X10.2637 Y2.3924
G01 X10.2573 Y2.3807
G01 X10.2329 Y2.3291
G01 X10.2281 Y2.3170
G01 X10.2115 Y2.2708
G01 X10.2065 Y2.2543
G01 X10.1935 Y2.2022
G01 X10.1913 Y2.1899
G01 X10.1830 Y2.1330
G01 X10.1797 Y2.0666
G01 X10.1824 Y2.0090
G01 X10.1841 Y1.9919
G01 X10.1913 Y1.9433
G01 X10.1946 Y1.9265
G01 X10.2087 Y1.8711
G01 X10.2281 Y1.8162
G01 X10.2329 Y1.8041
G01 X10.2573 Y1.7525
G01 X10.2637 Y1.7408
G01 X10.2934 Y1.6916
G01 X10.3277 Y1.6450
G01 X10.3354 Y1.6354
G01 X10.3498 Y1.6194
G01 X10.3498 Y1.0506
G01 X10.3508 Y1.0323
G01 X10.3536 Y1.0143
G01 X10.3583 Y0.9966
G01 X10.3649 Y0.9795
G01 X10.3732 Y0.9632
G01 X10.3832 Y0.9478
G01 X10.3947 Y0.9335
G01 X10.4077 Y0.9205
G01 X10.4220 Y0.9090
G01 X10.4374 Y0.8990
G01 X10.4537 Y0.8907
G01 X10.4708 Y0.8841
G01 X10.4885 Y0.8794
G01 X10.5065 Y0.8766
G01 X10.5248 Y0.8756
G01 X11.1852 Y0.8756
G01 X11.2035 Y0.8766
G01 X11.2215 Y0.8794
G01 X11.2392 Y0.8841
G01 X11.2563 Y0.8907
G01 X11.2726 Y0.8990
G01 X11.2880 Y0.9090
G01 X11.3023 Y0.9205
G01 X11.3153 Y0.9335
G01 X11.3268 Y0.9478
G01 X11.3368 Y0.9632
G01 X11.3451 Y0.9795
G01 X11.3517 Y0.9966
G01 X11.3564 Y1.0143
G01 X11.3592 Y1.0323
G01 X11.3602 Y1.0506
G01 X11.3602 Y1.2468
G01 X11.3921 Y1.1940
G01 X11.4296 Y1.1430
G01 X11.4373 Y1.1334
G01 X11.4831 Y1.0831
G01 X11.5298 Y1.0405
G01 X11.5430 Y1.0296
G01 X11.5869 Y0.9971
G01 X11.6011 Y0.9876
G01 X11.6479 Y0.9595
G01 X11.6596 Y0.9531
G01 X11.7124 Y0.9281
G01 X11.7283 Y0.9216
G01 X11.7796 Y0.9032
G01 X11.7961 Y0.8982
G01 X11.8536 Y0.8839
G01 X11.8659 Y0.8816
G01 X11.9281 Y0.8725
G01 X11.9914 Y0.8692
G01 X12.0086 Y0.8692
G01 X12.0719 Y0.8725
G01 X12.1341 Y0.8816
G01 X12.1510 Y0.8849
G01 X12.2117 Y0.9003
G01 X12.2717 Y0.9216
G01 X12.2838 Y0.9264
G01 X12.3404 Y0.9531
G01 X12.3521 Y0.9595
G01 X12.3989 Y0.9876
G01 X12.4131 Y0.9971
G01 X12.4570 Y1.0296
G01 X12.4702 Y1.0405
G01 X12.5169 Y1.0831
G01 X12.5595 Y1.1298
G01 X12.5704 Y1.1430
G01 X12.6079 Y1.1940
G01 X12.6405 Y1.2479
G01 X12.6485 Y1.2631
G01 X12.6736 Y1.3162
G01 X12.6784 Y1.3283
G01 X12.6968 Y1.3796
G01 X12.7018 Y1.3961
G01 X12.7161 Y1.4536
G01 X12.7184 Y1.4659
G01 X12.7264 Y1.5198
G01 X12.7281 Y1.5369
G01 X12.7308 Y1.5914
G01 X12.7308 Y1.6086
G01 X12.7275 Y1.6719
G01 X12.7184 Y1.7341
G01 X12.7151 Y1.7510
G01 X12.6997 Y1.8117
G01 X12.6784 Y1.8717
G01 X12.6719 Y1.8876
G01 X12.6469 Y1.9404
G01 X12.6405 Y1.9521
G01 X12.6079 Y2.0060
G01 X12.5704 Y2.0570
G01 X12.5595 Y2.0702
G01 X12.5169 Y2.1169
G01 X12.4666 Y2.1627
G01 X12.4570 Y2.1704
G01 X12.4131 Y2.2029
G01 X12.3989 Y2.2124
G01 X12.3521 Y2.2405
G01 X12.3404 Y2.2469
G01 X12.2876 Y2.2719
G01 X12.2797 Y2.2753
G01 X12.0047 Y2.5500
G01 X11.9683 Y2.5830
G01 X11.9550 Y2.5939
G01 X11.9084 Y2.6282
G01 X11.8592 Y2.6579
G01 X11.8440 Y2.6660
G01 X11.7959 Y2.6887
G01 X11.7838 Y2.6935
G01 X11.7289 Y2.7129
G01 X11.6735 Y2.7270
G01 X11.6567 Y2.7303
G01 X11.5998 Y2.7386
G01 X11.5420 Y2.7416
G01 X11.3602 Y2.7419
G01 X11.3602 Y3.0826
G01 X11.3592 Y3.1009
G01 X11.3564 Y3.1189
G01 X11.3517 Y3.1366
G01 X11.3451 Y3.1537
G01 X11.3368 Y3.1700
G01 X11.3268 Y3.1854
G01 X11.3153 Y3.1997
G01 X11.3023 Y3.2127
G01 X11.2880 Y3.2242
G01 X11.2726 Y3.2342
G01 X11.2563 Y3.2425
G01 X11.2392 Y3.2491
G01 X11.2215 Y3.2538
G01 X11.2035 Y3.2566
G01 X11.1852 Y3.2576
G01 X10.5248 Y3.2576
G01 X10.5065 Y3.2566
G01 X10.4885 Y3.2538
G01 X10.4708 Y3.2491
G01 X10.4537 Y3.2425
G01 X10.4374 Y3.2342
G01 X10.4220 Y3.2242
G01 X10.4077 Y3.2127
G01 X10.3947 Y3.1997
G01 X10.3832 Y3.1854
G01 X10.3732 Y3.1700
G01 X10.3649 Y3.1537
G01 X10.3583 Y3.1366
G01 X10.3536 Y3.1189
G01 X10.3508 Y3.1009
G01 X10.3498 Y3.0826
G01 X10.3498 Y2.5138
G00 Z2.0000
G00 X10.5248 Y6.9474
G01 F60.00
G01 Z-2.4000
G01 F120.00
G01 X11.1852 Y6.9474
G01 X11.2113 Y6.9488
G01 X11.2371 Y6.9528
G01 X11.2623 Y6.9596
G01 X11.2867 Y6.9689
G01 X11.3101 Y6.9808
G01 X11.3321 Y6.9951
G01 X11.3525 Y7.0116
G01 X11.3710 Y7.0301
G01 X11.3875 Y7.0505
G01 X11.4018 Y7.0725
G01 X11.4137 Y7.0959
G01 X11.4230 Y7.1203
G01 X11.4298 Y7.1455
G01 X11.4338 Y7.1713
G01 X11.4352 Y7.1974
G01 X11.4352 Y9.2294
G01 X11.4338 Y9.2555
G01 X11.4298 Y9.2813
G01 X11.4230 Y9.3065
G01 X11.4137 Y9.3309
G01 X11.4018 Y9.3543
G01 X11.3875 Y9.3763
G01 X11.3710 Y9.3967
G01 X11.3525 Y9.4152
G01 X11.3321 Y9.4317
G01 X11.3101 Y9.4460
G01 X11.2867 Y9.4579
G01 X11.2623 Y9.4672
G01 X11.2371 Y9.4740
G01 X11.2113 Y9.4780
G01 X11.1852 Y9.4794
G01 X10.5248 Y9.4794
G01 X10.4987 Y9.4780
G01 X10.4729 Y9.4740
G01 X10.4477 Y9.4672
G01 X10.4233 Y9.4579
G01 X10.3999 Y9.4460
G01 X10.3779 Y9.4317
G01 X10.3575 Y9.4152
G01 X10.3390 Y9.3967
G01 X10.3225 Y9.3763
G01 X10.3082 Y9.3543
G01 X10.2963 Y9.3309
G01 X10.2870 Y9.3065
G01 X10.2802 Y9.2813
G01 X10.2762 Y9.2555
G01 X10.2748 Y9.2294
G01 X10.2748 Y7.1974
G01 X10.2762 Y7.1713
G01 X10.2802 Y7.1455
G01 X10.2870 Y7.1203
G01 X10.2963 Y7.0959
G01 X10.3082 Y7.0725
G01 X10.3225 Y7.0505
G01 X10.3390 Y7.0301
G01 X10.3575 Y7.0116
G01 X10.3779 Y6.9951
G01 X10.3999 Y6.9808
G01 X10.4233 Y6.9689
G01 X10.4477 Y6.9596
G01 X10.4729 Y6.9528
G01 X10.4987 Y6.9488
G01 X10.5248 Y6.9474
G00 Z2.0000
G00 X9.2548 Y6.9474
G01 F60.00
G01 Z-2.4000
G01 F120.00
G01 X9.9152 Y6.9474
G01 X9.9413 Y6.9488
G01 X9.9671 Y6.9528
G01 X9.9923 Y6.9596
G01 X10.0167 Y6.9689
G01 X10.0401 Y6.9808
G01 X10.0621 Y6.9951
G01 X10.0825 Y7.0116
G01 X10.1010 Y7.0301
G01 X10.1175 Y7.0505
G01 X10.1318 Y7.0725
G01 X10.1437 Y7.0959
G01 X10.1530 Y7.1203
G01 X10.1598 Y7.1455
G01 X10.1638 Y7.1713
G01 X10.1652 Y7.1974
G01 X10.1652 Y9.2294
G01 X10.1638 Y9.2555
G01 X10.1598 Y9.2813
G01 X10.1530 Y9.3065
G01 X10.1437 Y9.3309
G01 X10.1318 Y9.3543
G01 X10.1175 Y9.3763
G01 X10.1010 Y9.3967
G01 X10.0825 Y9.4152
G01 X10.0621 Y9.4317
G01 X10.0401 Y9.4460
G01 X10.0167 Y9.4579
G01 X9.9923 Y9.4672
G01 X9.9671 Y9.4740
G01 X9.9413 Y9.4780
G01 X9.9152 Y9.4794
G01 X9.2548 Y9.4794
G01 X9.2287 Y9.4780
G01 X9.2029 Y9.4740
G01 X9.1777 Y9.4672
G01 X9.1533 Y9.4579
G01 X9.1299 Y9.4460
G01 X9.1079 Y9.4317
G01 X9.0875 Y9.4152
G01 X9.0690 Y9.3967
G01 X9.0525 Y9.3763
G01 X9.0382 Y9.3543
G01 X9.0263 Y9.3309
G01 X9.0170 Y9.3065
G01 X9.0102 Y9.2813
G01 X9.0062 Y9.2555
G01 X9.0048 Y9.2294
G01 X9.0048 Y7.1974
G01 X9.0062 Y7.1713
G01 X9.0102 Y7.1455
G01 X9.0170 Y7.1203
G01 X9.0263 Y7.0959
G01 X9.0382 Y7.0725
G01 X9.0525 Y7.0505
G01 X9.0690 Y7.0301
G01 X9.0875 Y7.0116
G01 X9.1079 Y6.9951
G01 X9.1299 Y6.9808
G01 X9.1533 Y6.9689
G01 X9.1777 Y6.9596
G01 X9.2029 Y6.9528
G01 X9.2287 Y6.9488
G01 X9.2548 Y6.9474
G00 Z2.0000
G00 X7.9848 Y6.9474
G01 F60.00
G01 Z-2.4000
G01 F120.00
G01 X8.6452 Y6.9474
G01 X8.6713 Y6.9488
G01 X8.6971 Y6.9528
G01 X8.7223 Y6.9596
G01 X8.7467 Y6.9689
G01 X8.7701 Y6.9808
G01 X8.7921 Y6.9951
G01 X8.8125 Y7.0116
G01 X8.8310 Y7.0301
G01 X8.8475 Y7.0505
G01 X8.8618 Y7.0725
G01 X8.8737 Y7.0959
G01 X8.8830 Y7.1203
G01 X8.8898 Y7.1455
G01 X8.8938 Y7.1713
G01 X8.8952 Y7.1974
G01 X8.8952 Y9.2294
G01 X8.8938 Y9.2555
G01 X8.8898 Y9.2813
G01 X8.8830 Y9.3065
G01 X8.8737 Y9.3309
G01 X8.8618 Y9.3543
G01 X8.8475 Y9.3763
G01 X8.8310 Y9.3967
G01 X8.8125 Y9.4152
G01 X8.7921 Y9.4317
G01 X8.7701 Y9.4460
G01 X8.7467 Y9.4579
G01 X8.7223 Y9.4672
G01 X8.6971 Y9.4740
G01 X8.6713 Y9.4780
G01 X8.6452 Y9.4794
G01 X7.9848 Y9.4794
G01 X7.9587 Y9.4780
G01 X7.9329 Y9.4740
G01 X7.9077 Y9.4672
G01 X7.8833 Y9.4579
G01 X7.8599 Y9.4460
G01 X7.8379 Y9.4317
G01 X7.8175 Y9.4152
G01 X7.7990 Y9.3967
G01 X7.7825 Y9.3763
G01 X7.7682 Y9.3543
G01 X7.7563 Y9.3309
G01 X7.7470 Y9.3065
G01 X7.7402 Y9.2813
G01 X7.7362 Y9.2555
G01 X7.7348 Y9.2294
G01 X7.7348 Y7.1974
G01 X7.7362 Y7.1713
G01 X7.7402 Y7.1455
G01 X7.7470 Y7.1203
G01 X7.7563 Y7.0959
G01 X7.7682 Y7.0725
G01 X7.7825 Y7.0505
G01 X7.7990 Y7.0301
G01 X7.8175 Y7.0116
G01 X7.8379 Y6.9951
G01 X7.8599 Y6.9808
G01 X7.8833 Y6.9689
G01 X7.9077 Y6.9596
G01 X7.9329 Y6.9528
G01 X7.9587 Y6.9488
G01 X7.9848 Y6.9474
G00 Z2.0000
G00 X6.4648 Y9.2294
G01 F60.00
G01 Z-2.4000
G01 F120.00
G01 X6.4648 Y7.1974
G01 X6.4662 Y7.1713
G01 X6.4702 Y7.1455
G01 X6.4770 Y7.1203
G01 X6.4863 Y7.0959
G01 X6.4982 Y7.0725
G01 X6.5125 Y7.0505
G01 X6.5290 Y7.0301
G01 X6.5475 Y7.0116
G01 X6.5679 Y6.9951
G01 X6.5899 Y6.9808
G01 X6.6133 Y6.9689
G01 X6.6377 Y6.9596
G01 X6.6629 Y6.9528
G01 X6.6887 Y6.9488
G01 X6.7148 Y6.9474
G01 X7.3752 Y6.9474
G01 X7.4013 Y6.9488
G01 X7.4271 Y6.9528
G01 X7.4523 Y6.9596
G01 X7.4767 Y6.9689
G01 X7.5001 Y6.9808
G01 X7.5221 Y6.9951
G01 X7.5425 Y7.0116
G01 X7.5610 Y7.0301
G01 X7.5775 Y7.0505
G01 X7.5918 Y7.0725
G01 X7.6037 Y7.0959
G01 X7.6130 Y7.1203
G01 X7.6198 Y7.1455
G01 X7.6238 Y7.1713
G01 X7.6252 Y7.1974
G01 X7.6252 Y9.2294
G01 X7.6238 Y9.2555
G01 X7.6198 Y9.2813
G01 X7.6130 Y9.3065
G01 X7.6037 Y9.3309
G01 X7.5918 Y9.3543
G01 X7.5775 Y9.3763
G01 X7.5610 Y9.3967
G01 X7.5425 Y9.4152
G01 X7.5221 Y9.4317
G01 X7.5001 Y9.4460
G01 X7.4767 Y9.4579
G01 X7.4523 Y9.4672
G01 X7.4271 Y9.4740
G01 X7.4013 Y9.4780
G01 X7.3752 Y9.4794
G01 X6.7148 Y9.4794
G01 X6.6887 Y9.4780
G01 X6.6629 Y9.4740
G01 X6.6377 Y9.4672
G01 X6.6133 Y9.4579
G01 X6.5899 Y9.4460
G01 X6.5679 Y9.4317
G01 X6.5475 Y9.4152
G01 X6.5290 Y9.3967
G01 X6.5125 Y9.3763
G01 X6.4982 Y9.3543
G01 X6.4863 Y9.3309
G01 X6.4770 Y9.3065
G01 X6.4702 Y9.2813
G01 X6.4662 Y9.2555
G01 X6.4648 Y9.2294
G00 Z2.0000
G00 X3.8300 Y6.7864
G01 F60.00
G01 Z-2.4000
G01 F120.00
G01 X3.8330 Y6.7286
G01 X3.8413 Y6.6717
G01 X3.8435 Y6.6594
G01 X3.8587 Y6.5995
G01 X3.8781 Y6.5446
G01 X3.8829 Y6.5325
G01 X3.9073 Y6.4809
G01 X3.9137 Y6.4692
G01 X3.9434 Y6.4200
G01 X3.9777 Y6.3734
G01 X3.9854 Y6.3638
G01 X4.0216 Y6.3237
G01 X5.2287 Y5.1166
G01 X5.2651 Y5.0836
G01 X5.2784 Y5.0727
G01 X5.3250 Y5.0384
G01 X5.3742 Y5.0087
G01 X5.3859 Y5.0023
G01 X5.4375 Y4.9779
G01 X5.4496 Y4.9731
G01 X5.4958 Y4.9565
G01 X5.5123 Y4.9515
G01 X5.5644 Y4.9385
G01 X5.5767 Y4.9363
G01 X5.6253 Y4.9291
G01 X5.6424 Y4.9274
G01 X5.7000 Y4.9247
G01 X10.7303 Y4.9247
G01 X12.6906 Y2.9645
G01 X12.6906 Y2.4512
G01 X12.6916 Y2.4330
G01 X12.6944 Y2.4149
G01 X12.6991 Y2.3972
G01 X12.7057 Y2.3802
G01 X12.7155 Y2.3612
G01 X12.7276 Y2.3436
G01 X12.7419 Y2.3275
G01 X13.2775 Y1.7919
G01 X13.2936 Y1.7776
G01 X13.3112 Y1.7655
G01 X13.3302 Y1.7557
G01 X13.3472 Y1.7491
G01 X13.3649 Y1.7444
G01 X13.3830 Y1.7416
G01 X13.4012 Y1.7406
G01 X14.1588 Y1.7406
G01 X14.1770 Y1.7416
G01 X14.1951 Y1.7444
G01 X14.2128 Y1.7491
G01 X14.2298 Y1.7557
G01 X14.2488 Y1.7655
G01 X14.2664 Y1.7776
G01 X14.2825 Y1.7919
G01 X14.8181 Y2.3275
G01 X14.8324 Y2.3436
G01 X14.8445 Y2.3612
G01 X14.8543 Y2.3802
G01 X14.8609 Y2.3972
G01 X14.8656 Y2.4149
G01 X14.8684 Y2.4330
G01 X14.8694 Y2.4512
G01 X14.8694 Y3.2088
G01 X14.8684 Y3.2270
G01 X14.8656 Y3.2451
G01 X14.8609 Y3.2628
G01 X14.8543 Y3.2798
G01 X14.8445 Y3.2988
G01 X14.8324 Y3.3164
G01 X14.8181 Y3.3325
G01 X14.2825 Y3.8681
G01 X14.2664 Y3.8824
G01 X14.2488 Y3.8945
G01 X14.2298 Y3.9043
G01 X14.2128 Y3.9109
G01 X14.1951 Y3.9156
G01 X14.1770 Y3.9184
G01 X14.1588 Y3.9194
G01 X13.6455 Y3.9194
G01 X11.4875 Y6.0775
G01 X11.4412 Y6.1196
G01 X11.4316 Y6.1273
G01 X11.3850 Y6.1616
G01 X11.3358 Y6.1913
G01 X11.3241 Y6.1977
G01 X11.2725 Y6.2221
G01 X11.2604 Y6.2269
G01 X11.2055 Y6.2463
G01 X11.1456 Y6.2615
G01 X11.1333 Y6.2637
G01 X11.0764 Y6.2720
G01 X11.0100 Y6.2753
G01 X5.9797 Y6.2753
G01 X5.1803 Y7.0747
G01 X5.1803 Y8.2134
G01 X5.1770 Y8.2798
G01 X5.1687 Y8.3367
G01 X5.1665 Y8.3490
G01 X5.1535 Y8.4011
G01 X5.1485 Y8.4176
G01 X5.1319 Y8.4638
G01 X5.1271 Y8.4759
G01 X5.1027 Y8.5275
G01 X5.0963 Y8.5392
G01 X5.0666 Y8.5884
G01 X5.0323 Y8.6350
G01 X5.0246 Y8.6446
G01 X5.0102 Y8.6606
G01 X5.0102 Y9.2294
G01 X5.0092 Y9.2477
G01 X5.0064 Y9.2657
G01 X5.0017 Y9.2834
G01 X4.9951 Y9.3005
G01 X4.9868 Y9.3168
G01 X4.9768 Y9.3322
G01 X4.9653 Y9.3465
G01 X4.9523 Y9.3595
G01 X4.9380 Y9.3710
G01 X4.9226 Y9.3810
G01 X4.9063 Y9.3893
G01 X4.8892 Y9.3959
G01 X4.8715 Y9.4006
G01 X4.8535 Y9.4034
G01 X4.8352 Y9.4044
G01 X4.1748 Y9.4044
G01 X4.1565 Y9.4034
G01 X4.1385 Y9.4006
G01 X4.1208 Y9.3959
G01 X4.1037 Y9.3893
G01 X4.0874 Y9.3810
G01 X4.0720 Y9.3710
G01 X4.0577 Y9.3595
G01 X4.0447 Y9.3465
G01 X4.0332 Y9.3322
G01 X4.0232 Y9.3168
G01 X4.0149 Y9.3005
G01 X4.0083 Y9.2834
G01 X4.0036 Y9.2657
G01 X4.0008 Y9.2477
G01 X3.9998 Y9.2294
G01 X3.9998 Y8.6606
G01 X3.9854 Y8.6446
G01 X3.9777 Y8.6350
G01 X3.9434 Y8.5884
G01 X3.9137 Y8.5392
G01 X3.9073 Y8.5275
G01 X3.8829 Y8.4759
G01 X3.8781 Y8.4638
G01 X3.8587 Y8.4089
G01 X3.8446 Y8.3535
G01 X3.8413 Y8.3367
G01 X3.8341 Y8.2881
G01 X3.8324 Y8.2710
G01 X3.8297 Y8.2134
G01 X3.8300 Y6.7864
G00 Z2.0000
G00 X2.5600 Y4.6564
G01 F60.00
G01 Z-2.4000
G01 F120.00
G01 X2.5630 Y4.5986
G01 X2.5713 Y4.5417
G01 X2.5746 Y4.5249
G01 X2.5887 Y4.4695
G01 X2.6081 Y4.4146
G01 X2.6129 Y4.4025
G01 X2.6356 Y4.3544
G01 X2.6437 Y4.3392
G01 X2.6690 Y4.2971
G01 X2.6785 Y4.2828
G01 X2.7077 Y4.2434
G01 X2.7154 Y4.2338
G01 X2.7575 Y4.1875
G01 X3.0287 Y3.9166
G01 X3.0688 Y3.8804
G01 X3.0784 Y3.8727
G01 X3.1178 Y3.8435
G01 X3.1321 Y3.8340
G01 X3.1742 Y3.8087
G01 X3.1894 Y3.8006
G01 X3.2375 Y3.7779
G01 X3.2496 Y3.7731
G01 X3.3045 Y3.7537
G01 X3.3599 Y3.7396
G01 X3.3767 Y3.7363
G01 X3.4336 Y3.7280
G01 X3.4914 Y3.7250
G01 X4.8203 Y3.7247
G01 X5.0997 Y3.4453
G01 X5.0997 Y2.0666
G01 X5.1030 Y2.0002
G01 X5.1113 Y1.9433
G01 X5.1135 Y1.9310
G01 X5.1265 Y1.8789
G01 X5.1315 Y1.8624
G01 X5.1481 Y1.8162
G01 X5.1529 Y1.8041
G01 X5.1773 Y1.7525
G01 X5.1837 Y1.7408
G01 X5.2134 Y1.6916
G01 X5.2477 Y1.6450
G01 X5.2554 Y1.6354
G01 X5.2698 Y1.6194
G01 X5.2698 Y1.0506
G01 X5.2708 Y1.0323
G01 X5.2736 Y1.0143
G01 X5.2783 Y0.9966
G01 X5.2849 Y0.9795
G01 X5.2932 Y0.9632
G01 X5.3032 Y0.9478
G01 X5.3147 Y0.9335
G01 X5.3277 Y0.9205
G01 X5.3420 Y0.9090
G01 X5.3574 Y0.8990
G01 X5.3737 Y0.8907
G01 X5.3908 Y0.8841
G01 X5.4085 Y0.8794
G01 X5.4265 Y0.8766
G01 X5.4448 Y0.8756
G01 X6.1052 Y0.8756
G01 X6.1235 Y0.8766
G01 X6.1415 Y0.8794
G01 X6.1592 Y0.8841
G01 X6.1763 Y0.8907
G01 X6.1926 Y0.8990
G01 X6.2080 Y0.9090
G01 X6.2223 Y0.9205
G01 X6.2353 Y0.9335
G01 X6.2468 Y0.9478
G01 X6.2568 Y0.9632
G01 X6.2651 Y0.9795
G01 X6.2717 Y0.9966
G01 X6.2764 Y1.0143
G01 X6.2792 Y1.0323
G01 X6.2802 Y1.0506
G01 X6.2802 Y1.6194
G01 X6.2946 Y1.6354
G01 X6.3023 Y1.6450
G01 X6.3366 Y1.6916
G01 X6.3663 Y1.7408
G01 X6.3727 Y1.7525
G01 X6.3971 Y1.8041
G01 X6.4019 Y1.8162
G01 X6.4213 Y1.8711
G01 X6.4354 Y1.9265
G01 X6.4387 Y1.9433
G01 X6.4459 Y1.9919
G01 X6.4476 Y2.0090
G01 X6.4503 Y2.0666
G01 X6.4503 Y3.7250
G01 X6.4476 Y3.7826
G01 X6.4459 Y3.7997
G01 X6.4387 Y3.8483
G01 X6.4365 Y3.8606
G01 X6.4213 Y3.9205
G01 X6.4019 Y3.9754
G01 X6.3971 Y3.9875
G01 X6.3727 Y4.0391
G01 X6.3663 Y4.0508
G01 X6.3366 Y4.1000
G01 X6.3023 Y4.1466
G01 X6.2914 Y4.1599
G01 X6.2525 Y4.2025
G01 X5.5713 Y4.8834
G01 X5.5312 Y4.9196
G01 X5.5216 Y4.9273
G01 X5.4750 Y4.9616
G01 X5.4258 Y4.9913
G01 X5.4141 Y4.9977
G01 X5.3663 Y5.0204
G01 X5.3504 Y5.0269
G01 X5.2955 Y5.0463
G01 X5.2356 Y5.0615
G01 X5.2233 Y5.0637
G01 X5.1664 Y5.0720
G01 X5.1086 Y5.0750
G01 X3.9103 Y5.0753
G01 X3.9103 Y8.2134
G01 X3.9076 Y8.2710
G01 X3.9059 Y8.2881
G01 X3.8987 Y8.3367
G01 X3.8954 Y8.3535
G01 X3.8813 Y8.4089
G01 X3.8619 Y8.4638
G01 X3.8571 Y8.4759
G01 X3.8327 Y8.5275
G01 X3.8263 Y8.5392
G01 X3.7966 Y8.5884
G01 X3.7623 Y8.6350
G01 X3.7546 Y8.6446
G01 X3.7402 Y8.6606
G01 X3.7402 Y9.2294
G01 X3.7392 Y9.2477
G01 X3.7364 Y9.2657
G01 X3.7317 Y9.2834
G01 X3.7251 Y9.3005
G01 X3.7168 Y9.3168
G01 X3.7068 Y9.3322
G01 X3.6953 Y9.3465
G01 X3.6823 Y9.3595
G01 X3.6680 Y9.3710
G01 X3.6526 Y9.3810
G01 X3.6363 Y9.3893
G01 X3.6192 Y9.3959
G01 X3.6015 Y9.4006
G01 X3.5835 Y9.4034
G01 X3.5652 Y9.4044
G01 X2.9048 Y9.4044
G01 X2.8865 Y9.4034
G01 X2.8685 Y9.4006
G01 X2.8508 Y9.3959
G01 X2.8337 Y9.3893
G01 X2.8174 Y9.3810
G01 X2.8020 Y9.3710
G01 X2.7877 Y9.3595
G01 X2.7747 Y9.3465
G01 X2.7632 Y9.3322
G01 X2.7532 Y9.3168
G01 X2.7449 Y9.3005
G01 X2.7383 Y9.2834
G01 X2.7336 Y9.2657
G01 X2.7308 Y9.2477
G01 X2.7298 Y9.2294
G01 X2.7298 Y8.6606
G01 X2.7154 Y8.6446
G01 X2.7077 Y8.6350
G01 X2.6785 Y8.5956
G01 X2.6690 Y8.5813
G01 X2.6437 Y8.5392
G01 X2.6373 Y8.5275
G01 X2.6146 Y8.4797
G01 X2.6081 Y8.4638
G01 X2.5887 Y8.4089
G01 X2.5735 Y8.3490
G01 X2.5713 Y8.3367
G01 X2.5630 Y8.2798
G01 X2.5600 Y8.2220
G01 X2.5600 Y4.6564
G00 Z2.0000
G00 X1.3848 Y3.0826
G01 F60.00
G01 Z-2.4000
G01 F120.00
G01 X1.3848 Y1.0506
G01 X1.3862 Y1.0245
G01 X1.3902 Y0.9987
G01 X1.3970 Y0.9735
G01 X1.4063 Y0.9491
G01 X1.4182 Y0.9257
G01 X1.4325 Y0.9037
G01 X1.4490 Y0.8833
G01 X1.4675 Y0.8648
G01 X1.4879 Y0.8483
G01 X1.5099 Y0.8340
G01 X1.5333 Y0.8221
G01 X1.5577 Y0.8128
G01 X1.5829 Y0.8060
G01 X1.6087 Y0.8020
G01 X1.6348 Y0.8006
G01 X2.2952 Y0.8006
G01 X2.3213 Y0.8020
G01 X2.3471 Y0.8060
G01 X2.3723 Y0.8128
G01 X2.3967 Y0.8221
G01 X2.4201 Y0.8340
G01 X2.4421 Y0.8483
G01 X2.4625 Y0.8648
G01 X2.4810 Y0.8833
G01 X2.4975 Y0.9037
G01 X2.5118 Y0.9257
G01 X2.5237 Y0.9491
G01 X2.5330 Y0.9735
G01 X2.5398 Y0.9987
G01 X2.5438 Y1.0245
G01 X2.5452 Y1.0506
G01 X2.5452 Y3.0826
G01 X2.5438 Y3.1087
G01 X2.5398 Y3.1345
G01 X2.5330 Y3.1597
G01 X2.5237 Y3.1841
G01 X2.5118 Y3.2075
G01 X2.4975 Y3.2295
G01 X2.4810 Y3.2499
G01 X2.4625 Y3.2684
G01 X2.4421 Y3.2849
G01 X2.4201 Y3.2992
G01 X2.3967 Y3.3111
G01 X2.3723 Y3.3204
G01 X2.3471 Y3.3272
G01 X2.3213 Y3.3312
G01 X2.2952 Y3.3326
G01 X1.6348 Y3.3326
G01 X1.6087 Y3.3312
G01 X1.5829 Y3.3272
G01 X1.5577 Y3.3204
G01 X1.5333 Y3.3111
G01 X1.5099 Y3.2992
G01 X1.4879 Y3.2849
G01 X1.4675 Y3.2684
G01 X1.4490 Y3.2499
G01 X1.4325 Y3.2295
G01 X1.4182 Y3.2075
G01 X1.4063 Y3.1841
G01 X1.3970 Y3.1597
G01 X1.3902 Y3.1345
G01 X1.3862 Y3.1087
G01 X1.3848 Y3.0826
G00 Z2.0000
G00 X0.5600 Y10.0450
G01 F60.00
G01 Z-2.4000
G01 F120.00
G01 X1.2897 Y10.0450
G01 X1.2897 Y8.2134
G01 X1.2924 Y8.1558
G01 X1.2941 Y8.1387
G01 X1.3013 Y8.0901
G01 X1.3046 Y8.0733
G01 X1.3187 Y8.0179
G01 X1.3381 Y7.9630
G01 X1.3429 Y7.9509
G01 X1.3673 Y7.8993
G01 X1.3737 Y7.8876
G01 X1.4034 Y7.8384
G01 X1.4377 Y7.7918
G01 X1.4454 Y7.7822
G01 X1.4598 Y7.7662
G01 X1.4598 Y7.1974
G01 X1.4608 Y7.1791
G01 X1.4636 Y7.1611
G01 X1.4683 Y7.1434
G01 X1.4749 Y7.1263
G01 X1.4832 Y7.1100
G01 X1.4932 Y7.0946
G01 X1.5047 Y7.0803
G01 X1.5177 Y7.0673
G01 X1.5320 Y7.0558
G01 X1.5474 Y7.0458
G01 X1.5637 Y7.0375
G01 X1.5808 Y7.0309
G01 X1.5985 Y7.0262
G01 X1.6165 Y7.0234
G01 X1.6348 Y7.0224
G01 X2.2952 Y7.0224
G01 X2.3135 Y7.0234
G01 X2.3315 Y7.0262
G01 X2.3492 Y7.0309
G01 X2.3663 Y7.0375
G01 X2.3826 Y7.0458
G01 X2.3980 Y7.0558
G01 X2.4123 Y7.0673
G01 X2.4253 Y7.0803
G01 X2.4368 Y7.0946
G01 X2.4468 Y7.1100
G01 X2.4551 Y7.1263
G01 X2.4617 Y7.1434
G01 X2.4664 Y7.1611
G01 X2.4692 Y7.1791
G01 X2.4702 Y7.1974
G01 X2.4702 Y7.7662
G01 X2.4846 Y7.7822
G01 X2.4923 Y7.7918
G01 X2.5266 Y7.8384
G01 X2.5563 Y7.8876
G01 X2.5627 Y7.8993
G01 X2.5871 Y7.9509
G01 X2.5919 Y7.9630
G01 X2.6085 Y8.0092
G01 X2.6135 Y8.0257
G01 X2.6265 Y8.0778
G01 X2.6287 Y8.0901
G01 X2.6370 Y8.1470
G01 X2.6403 Y8.2134
G01 X2.6403 Y10.0450
G01 X3.1000 Y10.0450
G01 X3.1183 Y10.0460
G01 X3.1363 Y10.0488
G01 X3.1540 Y10.0535
G01 X3.1711 Y10.0601
G01 X3.1874 Y10.0684
G01 X3.2028 Y10.0784
G01 X3.2171 Y10.0899
G01 X3.2301 Y10.1029
G01 X3.2416 Y10.1172
G01 X3.2516 Y10.1326
G01 X3.2599 Y10.1489
G01 X3.2665 Y10.1660
G01 X3.2712 Y10.1837
G01 X3.2740 Y10.2017
G01 X3.2750 Y10.2200
G01 X3.2750 Y15.3000
G01 X3.2740 Y15.3183
G01 X3.2712 Y15.3363
G01 X3.2665 Y15.3540
G01 X3.2599 Y15.3711
G01 X3.2516 Y15.3874
G01 X3.2416 Y15.4028
G01 X3.2301 Y15.4171
G01 X3.2171 Y15.4301
G01 X3.2028 Y15.4416
G01 X3.1874 Y15.4516
G01 X3.1711 Y15.4599
G01 X3.1540 Y15.4665
G01 X3.1363 Y15.4712
G01 X3.1183 Y15.4740
G01 X3.1000 Y15.4750
G01 X0.5600 Y15.4750
G01 X0.5417 Y15.4740
G01 X0.5237 Y15.4712
G01 X0.5060 Y15.4665
G01 X0.4889 Y15.4599
G01 X0.4726 Y15.4516
G01 X0.4572 Y15.4416
G01 X0.4429 Y15.4301
G01 X0.4299 Y15.4171
G01 X0.4184 Y15.4028
G01 X0.4084 Y15.3874
G01 X0.4001 Y15.3711
G01 X0.3935 Y15.3540
G01 X0.3888 Y15.3363
G01 X0.3860 Y15.3183
G01 X0.3850 Y15.3000
G01 X0.3850 Y10.2200
G01 X0.3860 Y10.2017
G01 X0.3888 Y10.1837
G01 X0.3935 Y10.1660
G01 X0.4001 Y10.1489
G01 X0.4084 Y10.1326
G01 X0.4184 Y10.1172
G01 X0.4299 Y10.1029
G01 X0.4429 Y10.0899
G01 X0.4572 Y10.0784
G01 X0.4726 Y10.0684
G01 X0.4889 Y10.0601
G01 X0.5060 Y10.0535
G01 X0.5237 Y10.0488
G01 X0.5417 Y10.0460
G01 X0.5600 Y10.0450
G00 Z2.0000
G00 X4.1950 Y15.3000
G01 F60.00
G01 Z-2.4000
G01 F120.00
G01 X4.1950 Y10.2200
G01 X4.1960 Y10.2017
G01 X4.1988 Y10.1837
G01 X4.2035 Y10.1660
G01 X4.2101 Y10.1489
G01 X4.2184 Y10.1326
G01 X4.2284 Y10.1172
G01 X4.2399 Y10.1029
G01 X4.2529 Y10.0899
G01 X4.2672 Y10.0784
G01 X4.2826 Y10.0684
G01 X4.2989 Y10.0601
G01 X4.3160 Y10.0535
G01 X4.3337 Y10.0488
G01 X4.3517 Y10.0460
G01 X4.3700 Y10.0450
G01 X5.0997 Y10.0450
G01 X5.0997 Y8.2134
G01 X5.1030 Y8.1470
G01 X5.1113 Y8.0901
G01 X5.1135 Y8.0778
G01 X5.1265 Y8.0257
G01 X5.1315 Y8.0092
G01 X5.1481 Y7.9630
G01 X5.1529 Y7.9509
G01 X5.1773 Y7.8993
G01 X5.1837 Y7.8876
G01 X5.2134 Y7.8384
G01 X5.2477 Y7.7918
G01 X5.2554 Y7.7822
G01 X5.2698 Y7.7662
G01 X5.2698 Y7.1974
G01 X5.2708 Y7.1791
G01 X5.2736 Y7.1611
G01 X5.2783 Y7.1434
G01 X5.2849 Y7.1263
G01 X5.2932 Y7.1100
G01 X5.3032 Y7.0946
G01 X5.3147 Y7.0803
G01 X5.3277 Y7.0673
G01 X5.3420 Y7.0558
G01 X5.3574 Y7.0458
G01 X5.3737 Y7.0375
G01 X5.3908 Y7.0309
G01 X5.4085 Y7.0262
G01 X5.4265 Y7.0234
G01 X5.4448 Y7.0224
G01 X6.1052 Y7.0224
G01 X6.1235 Y7.0234
G01 X6.1415 Y7.0262
G01 X6.1592 Y7.0309
G01 X6.1763 Y7.0375
G01 X6.1926 Y7.0458
G01 X6.2080 Y7.0558
G01 X6.2223 Y7.0673
G01 X6.2353 Y7.0803
G01 X6.2468 Y7.0946
G01 X6.2568 Y7.1100
G01 X6.2651 Y7.1263
G01 X6.2717 Y7.1434
G01 X6.2764 Y7.1611
G01 X6.2792 Y7.1791
G01 X6.2802 Y7.1974
G01 X6.2802 Y7.7662
G01 X6.2946 Y7.7822
G01 X6.3023 Y7.7918
G01 X6.3366 Y7.8384
G01 X6.3663 Y7.8876
G01 X6.3727 Y7.8993
G01 X6.3971 Y7.9509
G01 X6.4019 Y7.9630
G01 X6.4213 Y8.0179
G01 X6.4354 Y8.0733
G01 X6.4387 Y8.0901
G01 X6.4459 Y8.1387
G01 X6.4476 Y8.1558
G01 X6.4503 Y8.2134
G01 X6.4503 Y10.0450
G01 X6.9100 Y10.0450
G01 X6.9283 Y10.0460
G01 X6.9463 Y10.0488
G01 X6.9640 Y10.0535
G01 X6.9811 Y10.0601
G01 X6.9974 Y10.0684
G01 X7.0128 Y10.0784
G01 X7.0271 Y10.0899
G01 X7.0401 Y10.1029
G01 X7.0516 Y10.1172
G01 X7.0616 Y10.1326
G01 X7.0699 Y10.1489
G01 X7.0765 Y10.1660
G01 X7.0812 Y10.1837
G01 X7.0840 Y10.2017
G01 X7.0850 Y10.2200
G01 X7.0850 Y10.3601
G01 X7.5225 Y9.9225
G01 X7.5651 Y9.8836
G01 X7.5784 Y9.8727
G01 X7.6250 Y9.8384
G01 X7.6742 Y9.8087
G01 X7.6859 Y9.8023
G01 X7.7375 Y9.7779
G01 X7.7496 Y9.7731
G01 X7.8045 Y9.7537
G01 X7.8599 Y9.7396
G01 X7.8767 Y9.7363
G01 X7.9336 Y9.7280
G01 X8.0000 Y9.7247
G01 X10.9203 Y9.7247
G01 X12.2451 Y8.4000
G01 X11.7225 Y7.8775
G01 X11.6804 Y7.8312
G01 X11.6727 Y7.8216
G01 X11.6384 Y7.7750
G01 X11.6087 Y7.7258
G01 X11.6006 Y7.7106
G01 X11.5779 Y7.6625
G01 X11.5731 Y7.6504
G01 X11.5565 Y7.6042
G01 X11.5515 Y7.5877
G01 X11.5385 Y7.5356
G01 X11.5363 Y7.5233
G01 X11.5291 Y7.4747
G01 X11.5274 Y7.4576
G01 X11.5247 Y7.4000
G01 X11.5247 Y7.2797
G01 X11.5216 Y7.2717
G01 X11.5032 Y7.2204
G01 X11.4982 Y7.2039
G01 X11.4839 Y7.1464
G01 X11.4816 Y7.1341
G01 X11.4725 Y7.0719
G01 X11.4690 Y7.0000
G01 X11.4719 Y6.9369
G01 X11.4736 Y6.9198
G01 X11.4816 Y6.8659
G01 X11.4839 Y6.8536
G01 X11.5003 Y6.7883
G01 X11.5216 Y6.7283
G01 X11.5264 Y6.7162
G01 X11.5531 Y6.6596
G01 X11.5595 Y6.6479
G01 X11.5921 Y6.5940
G01 X11.6296 Y6.5430
G01 X11.6373 Y6.5334
G01 X11.6831 Y6.4831
G01 X11.7334 Y6.4373
G01 X11.7430 Y6.4296
G01 X11.7940 Y6.3921
G01 X11.8479 Y6.3595
G01 X11.8596 Y6.3531
G01 X11.9124 Y6.3281
G01 X11.9283 Y6.3216
G01 X11.9883 Y6.3003
G01 X12.0536 Y6.2839
G01 X12.0659 Y6.2816
G01 X12.1198 Y6.2736
G01 X12.1369 Y6.2719
G01 X12.1914 Y6.2692
G01 X12.2086 Y6.2692
G01 X12.2719 Y6.2725
G01 X12.3341 Y6.2816
G01 X12.3510 Y6.2849
G01 X12.4039 Y6.2982
G01 X12.4204 Y6.3032
G01 X12.4717 Y6.3216
G01 X12.4838 Y6.3264
G01 X12.5404 Y6.3531
G01 X12.5521 Y6.3595
G01 X12.6060 Y6.3921
G01 X12.6570 Y6.4296
G01 X12.6702 Y6.4405
G01 X12.7107 Y6.4772
G01 X12.7228 Y6.4893
G01 X12.7627 Y6.5334
G01 X12.7704 Y6.5430
G01 X12.8079 Y6.5940
G01 X12.8405 Y6.6479
G01 X12.8485 Y6.6631
G01 X12.8736 Y6.7162
G01 X12.8784 Y6.7283
G01 X12.8968 Y6.7796
G01 X12.9018 Y6.7961
G01 X12.9151 Y6.8490
G01 X12.9184 Y6.8659
G01 X12.9275 Y6.9281
G01 X12.9308 Y6.9914
G01 X12.9308 Y7.0086
G01 X12.9275 Y7.0719
G01 X12.9184 Y7.1341
G01 X12.9161 Y7.1464
G01 X12.9132 Y7.1583
G01 X13.2000 Y7.4451
G01 X18.7925 Y1.8525
G01 X18.8388 Y1.8104
G01 X18.8484 Y1.8027
G01 X18.8950 Y1.7684
G01 X18.9442 Y1.7387
G01 X18.9559 Y1.7323
G01 X19.0075 Y1.7079
G01 X19.0196 Y1.7031
G01 X19.0658 Y1.6865
G01 X19.0823 Y1.6815
G01 X19.1344 Y1.6685
G01 X19.1467 Y1.6663
G01 X19.2036 Y1.6580
G01 X19.2700 Y1.6547
G01 X19.6309 Y1.6547
G01 X19.6455 Y1.6357
G01 X19.7150 Y1.5594
G01 X19.7913 Y1.4899
G01 X19.8010 Y1.4822
G01 X19.8803 Y1.4237
G01 X19.9644 Y1.3731
G01 X19.9795 Y1.3650
G01 X20.0644 Y1.3249
G01 X20.0765 Y1.3200
G01 X20.1697 Y1.2869
G01 X20.2692 Y1.2619
G01 X20.2814 Y1.2596
G01 X20.3703 Y1.2464
G01 X20.3873 Y1.2448
G01 X20.4856 Y1.2401
G01 X22.3144 Y1.2401
G01 X22.4215 Y1.2454
G01 X22.5186 Y1.2596
G01 X22.5354 Y1.2630
G01 X22.6303 Y1.2869
G01 X22.7235 Y1.3200
G01 X22.7393 Y1.3266
G01 X22.8239 Y1.3666
G01 X22.8356 Y1.3731
G01 X22.9197 Y1.4237
G01 X22.9990 Y1.4822
G01 X23.0123 Y1.4931
G01 X23.0788 Y1.5534
G01 X23.0910 Y1.5656
G01 X23.1545 Y1.6357
G01 X23.1622 Y1.6454
G01 X23.2156 Y1.7175
G01 X23.2252 Y1.7318
G01 X23.2713 Y1.8088
G01 X23.2778 Y1.8205
G01 X23.3195 Y1.9088
G01 X23.3244 Y1.9209
G01 X23.3575 Y2.0141
G01 X23.3814 Y2.1090
G01 X23.3848 Y2.1258
G01 X23.3990 Y2.2229
G01 X23.4040 Y2.3214
G01 X23.4040 Y2.3386
G01 X23.3996 Y2.4283
G01 X23.3980 Y2.4453
G01 X23.3848 Y2.5342
G01 X23.3825 Y2.5464
G01 X23.3596 Y2.6381
G01 X23.3546 Y2.6545
G01 X23.3244 Y2.7391
G01 X23.3178 Y2.7549
G01 X23.2778 Y2.8395
G01 X23.2713 Y2.8512
G01 X23.2252 Y2.9282
G01 X23.2156 Y2.9425
G01 X23.1622 Y3.0146
G01 X23.1545 Y3.0243
G01 X23.0850 Y3.1006
G01 X23.0087 Y3.1701
G01 X22.9990 Y3.1778
G01 X22.9269 Y3.2312
G01 X22.9126 Y3.2408
G01 X22.8356 Y3.2869
G01 X22.8239 Y3.2934
G01 X22.7393 Y3.3334
G01 X22.7235 Y3.3400
G01 X22.6389 Y3.3702
G01 X22.6225 Y3.3752
G01 X22.5354 Y3.3970
G01 X22.5186 Y3.4004
G01 X22.4215 Y3.4146
G01 X22.3144 Y3.4199
G01 X20.4856 Y3.4199
G01 X20.3785 Y3.4146
G01 X20.2814 Y3.4004
G01 X20.2692 Y3.3981
G01 X20.1697 Y3.3731
G01 X20.0765 Y3.3400
G01 X20.0644 Y3.3351
G01 X19.9761 Y3.2934
G01 X19.9644 Y3.2869
G01 X19.8803 Y3.2363
G01 X19.8010 Y3.1778
G01 X19.7913 Y3.1701
G01 X19.7150 Y3.1006
G01 X19.6455 Y3.0243
G01 X19.6309 Y3.0053
G01 X19.5497 Y3.0053
G01 X11.6775 Y10.8775
G01 X11.6312 Y10.9196
G01 X11.6216 Y10.9273
G01 X11.5822 Y10.9565
G01 X11.5679 Y10.9660
G01 X11.5258 Y10.9913
G01 X11.5141 Y10.9977
G01 X11.4663 Y11.0204
G01 X11.4504 Y11.0269
G01 X11.3955 Y11.0463
G01 X11.3401 Y11.0604
G01 X11.3233 Y11.0637
G01 X11.2664 Y11.0720
G01 X11.2086 Y11.0750
G01 X8.2797 Y11.0753
G01 X7.2702 Y12.0847
G01 X7.3146 Y12.0847
G01 X7.6775 Y11.7219
G01 X7.6936 Y11.7076
G01 X7.7112 Y11.6955
G01 X7.7302 Y11.6857
G01 X7.7472 Y11.6791
G01 X7.7649 Y11.6744
G01 X7.7830 Y11.6716
G01 X7.8012 Y11.6706
G01 X8.5588 Y11.6706
G01 X8.5770 Y11.6716
G01 X8.5951 Y11.6744
G01 X8.6128 Y11.6791
G01 X8.6298 Y11.6857
G01 X8.6488 Y11.6955
G01 X8.6664 Y11.7076
G01 X8.6825 Y11.7219
G01 X9.2181 Y12.2575
G01 X9.2324 Y12.2736
G01 X9.2445 Y12.2912
G01 X9.2543 Y12.3102
G01 X9.2609 Y12.3272
G01 X9.2656 Y12.3449
G01 X9.2684 Y12.3630
G01 X9.2694 Y12.3812
G01 X9.2694 Y13.1388
G01 X9.2684 Y13.1570
G01 X9.2656 Y13.1751
G01 X9.2609 Y13.1928
G01 X9.2543 Y13.2098
G01 X9.2445 Y13.2288
G01 X9.2324 Y13.2464
G01 X9.2181 Y13.2625
G01 X8.6825 Y13.7981
G01 X8.6664 Y13.8124
G01 X8.6488 Y13.8245
G01 X8.6298 Y13.8343
G01 X8.6128 Y13.8409
G01 X8.5951 Y13.8456
G01 X8.5770 Y13.8484
G01 X8.5588 Y13.8494
G01 X7.8012 Y13.8494
G01 X7.7830 Y13.8484
G01 X7.7649 Y13.8456
G01 X7.7472 Y13.8409
G01 X7.7302 Y13.8343
G01 X7.7112 Y13.8245
G01 X7.6936 Y13.8124
G01 X7.6775 Y13.7981
G01 X7.3146 Y13.4353
G01 X7.0850 Y13.4353
G01 X7.0850 Y15.3000
G01 X7.0840 Y15.3183
G01 X7.0812 Y15.3363
G01 X7.0765 Y15.3540
G01 X7.0699 Y15.3711
G01 X7.0616 Y15.3874
G01 X7.0516 Y15.4028
G01 X7.0401 Y15.4171
G01 X7.0271 Y15.4301
G01 X7.0128 Y15.4416
G01 X6.9974 Y15.4516
G01 X6.9811 Y15.4599
G01 X6.9640 Y15.4665
G01 X6.9463 Y15.4712
G01 X6.9283 Y15.4740
G01 X6.9100 Y15.4750
G01 X4.3700 Y15.4750
G01 X4.3517 Y15.4740
G01 X4.3337 Y15.4712
G01 X4.3160 Y15.4665
G01 X4.2989 Y15.4599
G01 X4.2826 Y15.4516
G01 X4.2672 Y15.4416
G01 X4.2529 Y15.4301
G01 X4.2399 Y15.4171
G01 X4.2284 Y15.4028
G01 X4.2184 Y15.3874
G01 X4.2101 Y15.3711
G01 X4.2035 Y15.3540
G01 X4.1988 Y15.3363
G01 X4.1960 Y15.3183
G01 X4.1950 Y15.3000
G00 Z2.0000
G00 X12.7079 Y9.9482
G01 F60.00
G01 Z-2.4000
G01 F120.00
G01 X12.7242 Y9.9298
G01 X13.2598 Y9.3942
G01 X13.2782 Y9.3779
G01 X13.2984 Y9.3641
G01 X13.3200 Y9.3528
G01 X13.3395 Y9.3454
G01 X13.3597 Y9.3400
G01 X13.3804 Y9.3367
G01 X13.4012 Y9.3356
G01 X14.1588 Y9.3356
G01 X14.1796 Y9.3367
G01 X14.2003 Y9.3400
G01 X14.2205 Y9.3454
G01 X14.2400 Y9.3528
G01 X14.2616 Y9.3641
G01 X14.2818 Y9.3779
G01 X14.3002 Y9.3942
G01 X14.8358 Y9.9298
G01 X14.8521 Y9.9482
G01 X14.8659 Y9.9684
G01 X14.8772 Y9.9900
G01 X14.8846 Y10.0095
G01 X14.8900 Y10.0297
G01 X14.8933 Y10.0504
G01 X14.8944 Y10.0712
G01 X14.8944 Y10.8288
G01 X14.8933 Y10.8496
G01 X14.8915 Y10.8612
G01 X15.6759 Y11.6456
G01 X16.1788 Y11.6456
G01 X16.1996 Y11.6467
G01 X16.2203 Y11.6500
G01 X16.2405 Y11.6554
G01 X16.2600 Y11.6628
G01 X16.2816 Y11.6741
G01 X16.3018 Y11.6879
G01 X16.3202 Y11.7042
G01 X16.6757 Y12.0597
G01 X17.1200 Y12.0597
G01 X17.1200 Y9.9900
G01 X17.1211 Y9.9691
G01 X17.1244 Y9.9485
G01 X17.1298 Y9.9283
G01 X17.1372 Y9.9088
G01 X17.1467 Y9.8901
G01 X17.1582 Y9.8725
G01 X17.1714 Y9.8562
G01 X17.1862 Y9.8414
G01 X17.2025 Y9.8282
G01 X17.2201 Y9.8167
G01 X17.2388 Y9.8072
G01 X17.2583 Y9.7998
G01 X17.2785 Y9.7944
G01 X17.2991 Y9.7911
G01 X17.3200 Y9.7900
G01 X19.8600 Y9.7900
G01 X19.8809 Y9.7911
G01 X19.9015 Y9.7944
G01 X19.9217 Y9.7998
G01 X19.9412 Y9.8072
G01 X19.9599 Y9.8167
G01 X19.9775 Y9.8282
G01 X19.9938 Y9.8414
G01 X20.0086 Y9.8562
G01 X20.0218 Y9.8725
G01 X20.0333 Y9.8901
G01 X20.0428 Y9.9088
G01 X20.0502 Y9.9283
G01 X20.0556 Y9.9485
G01 X20.0589 Y9.9691
G01 X20.0600 Y9.9900
G01 X20.0600 Y15.0700
G01 X20.0589 Y15.0909
G01 X20.0556 Y15.1115
G01 X20.0502 Y15.1317
G01 X20.0428 Y15.1512
G01 X20.0333 Y15.1699
G01 X20.0218 Y15.1875
G01 X20.0086 Y15.2038
G01 X19.9938 Y15.2186
G01 X19.9775 Y15.2318
G01 X19.9599 Y15.2433
G01 X19.9412 Y15.2528
G01 X19.9217 Y15.2602
G01 X19.9015 Y15.2656
G01 X19.8809 Y15.2689
G01 X19.8600 Y15.2700
G01 X17.3200 Y15.2700
G01 X17.2991 Y15.2689
G01 X17.2785 Y15.2656
G01 X17.2583 Y15.2602
G01 X17.2388 Y15.2528
G01 X17.2201 Y15.2433
G01 X17.2025 Y15.2318
G01 X17.1862 Y15.2186
G01 X17.1714 Y15.2038
G01 X17.1582 Y15.1875
G01 X17.1467 Y15.1699
G01 X17.1372 Y15.1512
G01 X17.1298 Y15.1317
G01 X17.1244 Y15.1115
G01 X17.1211 Y15.0909
G01 X17.1200 Y15.0700
G01 X17.1200 Y13.4603
G01 X16.6757 Y13.4603
G01 X16.3202 Y13.8158
G01 X16.3018 Y13.8321
G01 X16.2816 Y13.8459
G01 X16.2600 Y13.8572
G01 X16.2405 Y13.8646
G01 X16.2203 Y13.8700
G01 X16.1996 Y13.8733
G01 X16.1788 Y13.8744
G01 X15.4212 Y13.8744
G01 X15.4004 Y13.8733
G01 X15.3797 Y13.8700
G01 X15.3595 Y13.8646
G01 X15.3400 Y13.8572
G01 X15.3184 Y13.8459
G01 X15.2982 Y13.8321
G01 X15.2798 Y13.8158
G01 X14.7442 Y13.2802
G01 X14.7279 Y13.2618
G01 X14.7141 Y13.2416
G01 X14.7028 Y13.2200
G01 X14.6954 Y13.2005
G01 X14.6900 Y13.1803
G01 X14.6867 Y13.1596
G01 X14.6856 Y13.1388
G01 X14.6856 Y12.6359
G01 X13.6141 Y11.5644
G01 X13.4012 Y11.5644
G01 X13.3804 Y11.5633
G01 X13.3597 Y11.5600
G01 X13.3395 Y11.5546
G01 X13.3200 Y11.5472
G01 X13.2984 Y11.5359
G01 X13.2782 Y11.5221
G01 X13.2598 Y11.5058
G01 X12.7242 Y10.9702
G01 X12.7079 Y10.9518
G01 X12.6941 Y10.9316
G01 X12.6828 Y10.9100
G01 X12.6754 Y10.8905
G01 X12.6700 Y10.8703
G01 X12.6667 Y10.8496
G01 X12.6656 Y10.8288
G01 X12.6656 Y10.0712
G01 X12.6667 Y10.0504
G01 X12.6700 Y10.0297
G01 X12.6754 Y10.0095
G01 X12.6828 Y9.9900
G01 X12.6941 Y9.9684
G01 X12.7079 Y9.9482
G00 Z2.0000
G00 X16.2679 Y8.1582
G01 F60.00
G01 Z-2.4000
G01 F120.00
G01 X16.2842 Y8.1398
G01 X16.8198 Y7.6042
G01 X16.8382 Y7.5879
G01 X16.8584 Y7.5741
G01 X16.8800 Y7.5628
G01 X16.8995 Y7.5554
G01 X16.9197 Y7.5500
G01 X16.9404 Y7.5467
G01 X16.9612 Y7.5456
G01 X17.4641 Y7.5456
G01 X18.1020 Y6.9081
G01 X18.1425 Y6.8714
G01 X18.1535 Y6.8627
G01 X18.2011 Y6.8276
G01 X18.2514 Y6.7973
G01 X18.2647 Y6.7899
G01 X18.3173 Y6.7651
G01 X18.3312 Y6.7595
G01 X18.3873 Y6.7397
G01 X18.4490 Y6.7241
G01 X18.4631 Y6.7215
G01 X18.5211 Y6.7132
G01 X18.5802 Y6.7100
G01 X19.6183 Y6.7097
G01 X19.6302 Y6.6953
G01 X19.6973 Y6.6217
G01 X19.7751 Y6.5510
G01 X19.7861 Y6.5422
G01 X19.8664 Y6.4829
G01 X19.9515 Y6.4316
G01 X19.9649 Y6.4243
G01 X20.0543 Y6.3820
G01 X20.0681 Y6.3765
G01 X20.1626 Y6.3430
G01 X20.2637 Y6.3175
G01 X20.2778 Y6.3149
G01 X20.3760 Y6.3005
G01 X20.3861 Y6.2998
G01 X20.4856 Y6.2951
G01 X22.3144 Y6.2951
G01 X22.4139 Y6.2998
G01 X22.4334 Y6.3017
G01 X22.5222 Y6.3149
G01 X22.5363 Y6.3175
G01 X22.6374 Y6.3430
G01 X22.7319 Y6.3765
G01 X22.7500 Y6.3840
G01 X22.8351 Y6.4243
G01 X22.8485 Y6.4316
G01 X22.9336 Y6.4829
G01 X23.0139 Y6.5422
G01 X23.0291 Y6.5546
G01 X23.1027 Y6.6217
G01 X23.1734 Y6.6995
G01 X23.1822 Y6.7105
G01 X23.2357 Y6.7826
G01 X23.2466 Y6.7989
G01 X23.2928 Y6.8759
G01 X23.3001 Y6.8893
G01 X23.3424 Y6.9787
G01 X23.3479 Y6.9925
G01 X23.3782 Y7.0771
G01 X23.3839 Y7.0958
G01 X23.4069 Y7.1881
G01 X23.4095 Y7.2022
G01 X23.4239 Y7.3004
G01 X23.4246 Y7.3105
G01 X23.4293 Y7.4100
G01 X23.4246 Y7.5095
G01 X23.4239 Y7.5196
G01 X23.4095 Y7.6178
G01 X23.4069 Y7.6319
G01 X23.3814 Y7.7330
G01 X23.3479 Y7.8275
G01 X23.3424 Y7.8413
G01 X23.3001 Y7.9307
G01 X23.2928 Y7.9441
G01 X23.2415 Y8.0292
G01 X23.1822 Y8.1095
G01 X23.1698 Y8.1247
G01 X23.1095 Y8.1912
G01 X23.0956 Y8.2051
G01 X23.0249 Y8.2690
G01 X23.0139 Y8.2778
G01 X22.9418 Y8.3313
G01 X22.9255 Y8.3422
G01 X22.8485 Y8.3884
G01 X22.8351 Y8.3957
G01 X22.7457 Y8.4380
G01 X22.7319 Y8.4435
G01 X22.6374 Y8.4770
G01 X22.5415 Y8.5013
G01 X22.5222 Y8.5051
G01 X22.4240 Y8.5195
G01 X22.4139 Y8.5202
G01 X22.3144 Y8.5249
G01 X20.4856 Y8.5249
G01 X20.3861 Y8.5202
G01 X20.3760 Y8.5195
G01 X20.2778 Y8.5051
G01 X20.2637 Y8.5025
G01 X20.1626 Y8.4770
G01 X20.0681 Y8.4435
G01 X20.0543 Y8.4380
G01 X19.9649 Y8.3957
G01 X19.9515 Y8.3884
G01 X19.8664 Y8.3371
G01 X19.7861 Y8.2778
G01 X19.7751 Y8.2690
G01 X19.6973 Y8.1983
G01 X19.6302 Y8.1247
G01 X19.6183 Y8.1103
G01 X18.8801 Y8.1103
G01 X18.4544 Y8.5359
G01 X18.4544 Y9.0388
G01 X18.4533 Y9.0596
G01 X18.4500 Y9.0803
G01 X18.4446 Y9.1005
G01 X18.4372 Y9.1200
G01 X18.4259 Y9.1416
G01 X18.4121 Y9.1618
G01 X18.3958 Y9.1802
G01 X17.8602 Y9.7158
G01 X17.8418 Y9.7321
G01 X17.8216 Y9.7459
G01 X17.8000 Y9.7572
G01 X17.7805 Y9.7646
G01 X17.7603 Y9.7700
G01 X17.7396 Y9.7733
G01 X17.7188 Y9.7744
G01 X16.9612 Y9.7744
G01 X16.9404 Y9.7733
