(G-CODE GENERATED BY FLATCAM v8.99 - www.flatcam.org - Version Date: 2019/12/15)

(Name: copper_top.gbr_iso_4)
(Type: G-code from Geometry)
(Units: MM)

(Created on Saturday, 15 February 2020 at 12:01)

(TOOL DIAMETER: 0.5 mm)
(Feedrate: 120.0 mm/min)
(Feedrate_Z: 60.0 mm/min)
(Feedrate rapids 1500.0 mm/min)

(Z_Cut: -2.4 mm)
(Z_Move: 2.0 mm)
(Z Toolchange: 15.0 mm)
(X,Y Toolchange: 0.0000, 0.0000 mm)
(Z Start: None mm)
(Z End: 15.0 mm)
(Steps per circle: 64)
(Preprocessor Geometry: default)

(X range:    0.4100 ...   24.7753  mm)
(Y range:   -0.5503 ...   15.4500  mm)

(Spindle Speed: None RPM)
G21
G90
G94




G01 F120.00
G00 Z2.0000

M03
G00 X2.5849 Y0.4576
G01 F60.00
G01 Z-2.4000
G01 F120.00
G01 X2.5879 Y0.4010
G01 X2.5960 Y0.3454
G01 X2.5979 Y0.3349
G01 X2.6126 Y0.2767
G01 X2.6316 Y0.2230
G01 X2.6358 Y0.2126
G01 X2.6597 Y0.1621
G01 X2.6652 Y0.1521
G01 X2.6942 Y0.1039
G01 X2.7278 Y0.0583
G01 X2.7344 Y0.0500
G01 X2.7752 Y0.0052
G01 X3.1402 Y-0.3598
G01 X3.1850 Y-0.4006
G01 X3.1933 Y-0.4072
G01 X3.2327 Y-0.4364
G01 X3.2450 Y-0.4446
G01 X3.2871 Y-0.4698
G01 X3.2971 Y-0.4753
G01 X3.3444 Y-0.4978
G01 X3.3580 Y-0.5034
G01 X3.4117 Y-0.5224
G01 X3.4660 Y-0.5361
G01 X3.4804 Y-0.5390
G01 X3.5290 Y-0.5462
G01 X3.5436 Y-0.5477
G01 X3.6000 Y-0.5503
G01 X16.5000 Y-0.5503
G01 X16.5564 Y-0.5477
G01 X16.5710 Y-0.5462
G01 X16.6196 Y-0.5390
G01 X16.6340 Y-0.5361
G01 X16.6883 Y-0.5224
G01 X16.7420 Y-0.5034
G01 X16.7556 Y-0.4978
G01 X16.8029 Y-0.4753
G01 X16.8129 Y-0.4698
G01 X16.8550 Y-0.4446
G01 X16.8673 Y-0.4364
G01 X16.9067 Y-0.4072
G01 X16.9150 Y-0.4006
G01 X16.9598 Y-0.3598
G01 X17.2952 Y-0.0244
G01 X17.7188 Y-0.0244
G01 X17.7344 Y-0.0236
G01 X17.7499 Y-0.0211
G01 X17.7650 Y-0.0171
G01 X17.7797 Y-0.0115
G01 X17.7959 Y-0.0030
G01 X17.8110 Y0.0073
G01 X17.8248 Y0.0195
G01 X18.3605 Y0.5552
G01 X18.3727 Y0.5690
G01 X18.3830 Y0.5841
G01 X18.3915 Y0.6003
G01 X18.3971 Y0.6150
G01 X18.4011 Y0.6301
G01 X18.4036 Y0.6456
G01 X18.4044 Y0.6612
G01 X18.4044 Y1.4188
G01 X18.4036 Y1.4344
G01 X18.4011 Y1.4499
G01 X18.3971 Y1.4650
G01 X18.3915 Y1.4797
G01 X18.3830 Y1.4959
G01 X18.3727 Y1.5110
G01 X18.3605 Y1.5248
G01 X17.8248 Y2.0605
G01 X17.8110 Y2.0727
G01 X17.7959 Y2.0830
G01 X17.7797 Y2.0915
G01 X17.7650 Y2.0971
G01 X17.7499 Y2.1011
G01 X17.7344 Y2.1036
G01 X17.7188 Y2.1044
G01 X16.9612 Y2.1044
G01 X16.9456 Y2.1036
G01 X16.9301 Y2.1011
G01 X16.9150 Y2.0971
G01 X16.9003 Y2.0915
G01 X16.8841 Y2.0830
G01 X16.8690 Y2.0727
G01 X16.8552 Y2.0605
G01 X16.3195 Y1.5248
G01 X16.3073 Y1.5110
G01 X16.2970 Y1.4959
G01 X16.2885 Y1.4797
G01 X16.2829 Y1.4650
G01 X16.2789 Y1.4499
G01 X16.2764 Y1.4344
G01 X16.2756 Y1.4188
G01 X16.2756 Y0.7952
G01 X16.2307 Y0.7503
G01 X3.8853 Y0.7503
G01 X3.8853 Y2.0666
G01 X3.8821 Y2.1306
G01 X3.8740 Y2.1862
G01 X3.8721 Y2.1967
G01 X3.8592 Y2.2483
G01 X3.8549 Y2.2623
G01 X3.8384 Y2.3086
G01 X3.8342 Y2.3190
G01 X3.8103 Y2.3695
G01 X3.8048 Y2.3795
G01 X3.7758 Y2.4277
G01 X3.7422 Y2.4733
G01 X3.7356 Y2.4816
G01 X3.7152 Y2.5042
G01 X3.7152 Y3.0826
G01 X3.7144 Y3.0983
G01 X3.7119 Y3.1137
G01 X3.7079 Y3.1289
G01 X3.7023 Y3.1435
G01 X3.6951 Y3.1575
G01 X3.6866 Y3.1707
G01 X3.6767 Y3.1830
G01 X3.6656 Y3.1941
G01 X3.6533 Y3.2040
G01 X3.6401 Y3.2125
G01 X3.6261 Y3.2197
G01 X3.6115 Y3.2253
G01 X3.5963 Y3.2293
G01 X3.5809 Y3.2318
G01 X3.5652 Y3.2326
G01 X2.9048 Y3.2326
G01 X2.8891 Y3.2318
G01 X2.8737 Y3.2293
G01 X2.8585 Y3.2253
G01 X2.8439 Y3.2197
G01 X2.8299 Y3.2125
G01 X2.8167 Y3.2040
G01 X2.8044 Y3.1941
G01 X2.7933 Y3.1830
G01 X2.7834 Y3.1707
G01 X2.7749 Y3.1575
G01 X2.7677 Y3.1435
G01 X2.7621 Y3.1289
G01 X2.7581 Y3.1137
G01 X2.7556 Y3.0983
G01 X2.7548 Y3.0826
G01 X2.7548 Y2.5042
G01 X2.7344 Y2.4816
G01 X2.7278 Y2.4733
G01 X2.6942 Y2.4277
G01 X2.6652 Y2.3795
G01 X2.6597 Y2.3695
G01 X2.6358 Y2.3190
G01 X2.6316 Y2.3086
G01 X2.6151 Y2.2623
G01 X2.6108 Y2.2483
G01 X2.5979 Y2.1967
G01 X2.5960 Y2.1862
G01 X2.5879 Y2.1306
G01 X2.5847 Y2.0666
G01 X2.5849 Y0.4576
G00 Z2.0000
G00 X4.1748 Y0.8006
G01 F60.00
G01 Z-2.4000
G01 F120.00
G01 X4.8352 Y0.8006
G01 X4.8613 Y0.8020
G01 X4.8871 Y0.8060
G01 X4.9123 Y0.8128
G01 X4.9367 Y0.8221
G01 X4.9601 Y0.8340
G01 X4.9821 Y0.8483
G01 X5.0025 Y0.8648
G01 X5.0210 Y0.8833
G01 X5.0375 Y0.9037
G01 X5.0518 Y0.9257
G01 X5.0637 Y0.9491
G01 X5.0730 Y0.9735
G01 X5.0798 Y0.9987
G01 X5.0838 Y1.0245
G01 X5.0852 Y1.0506
G01 X5.0852 Y3.0826
G01 X5.0838 Y3.1087
G01 X5.0798 Y3.1345
G01 X5.0730 Y3.1597
G01 X5.0637 Y3.1841
G01 X5.0518 Y3.2075
G01 X5.0375 Y3.2295
G01 X5.0210 Y3.2499
G01 X5.0025 Y3.2684
G01 X4.9821 Y3.2849
G01 X4.9601 Y3.2992
G01 X4.9367 Y3.3111
G01 X4.9123 Y3.3204
G01 X4.8871 Y3.3272
G01 X4.8613 Y3.3312
G01 X4.8352 Y3.3326
G01 X4.1748 Y3.3326
G01 X4.1487 Y3.3312
G01 X4.1229 Y3.3272
G01 X4.0977 Y3.3204
G01 X4.0733 Y3.3111
G01 X4.0499 Y3.2992
G01 X4.0279 Y3.2849
G01 X4.0075 Y3.2684
G01 X3.9890 Y3.2499
G01 X3.9725 Y3.2295
G01 X3.9582 Y3.2075
G01 X3.9463 Y3.1841
G01 X3.9370 Y3.1597
G01 X3.9302 Y3.1345
G01 X3.9262 Y3.1087
G01 X3.9248 Y3.0826
G01 X3.9248 Y1.0506
G01 X3.9262 Y1.0245
G01 X3.9302 Y0.9987
G01 X3.9370 Y0.9735
G01 X3.9463 Y0.9491
G01 X3.9582 Y0.9257
G01 X3.9725 Y0.9037
G01 X3.9890 Y0.8833
G01 X4.0075 Y0.8648
G01 X4.0279 Y0.8483
G01 X4.0499 Y0.8340
G01 X4.0733 Y0.8221
G01 X4.0977 Y0.8128
G01 X4.1229 Y0.8060
G01 X4.1487 Y0.8020
G01 X4.1748 Y0.8006
G00 Z2.0000
G00 X6.7148 Y0.8006
G01 F60.00
G01 Z-2.4000
G01 F120.00
G01 X7.3752 Y0.8006
G01 X7.4013 Y0.8020
G01 X7.4271 Y0.8060
G01 X7.4523 Y0.8128
G01 X7.4767 Y0.8221
G01 X7.5001 Y0.8340
G01 X7.5221 Y0.8483
G01 X7.5425 Y0.8648
G01 X7.5610 Y0.8833
G01 X7.5775 Y0.9037
G01 X7.5918 Y0.9257
G01 X7.6037 Y0.9491
G01 X7.6130 Y0.9735
G01 X7.6198 Y0.9987
G01 X7.6238 Y1.0245
G01 X7.6252 Y1.0506
G01 X7.6252 Y3.0826
G01 X7.6238 Y3.1087
G01 X7.6198 Y3.1345
G01 X7.6130 Y3.1597
G01 X7.6037 Y3.1841
G01 X7.5918 Y3.2075
G01 X7.5775 Y3.2295
G01 X7.5610 Y3.2499
G01 X7.5425 Y3.2684
G01 X7.5221 Y3.2849
G01 X7.5001 Y3.2992
G01 X7.4767 Y3.3111
G01 X7.4523 Y3.3204
G01 X7.4271 Y3.3272
G01 X7.4013 Y3.3312
G01 X7.3752 Y3.3326
G01 X6.7148 Y3.3326
G01 X6.6887 Y3.3312
G01 X6.6629 Y3.3272
G01 X6.6377 Y3.3204
G01 X6.6133 Y3.3111
G01 X6.5899 Y3.2992
G01 X6.5679 Y3.2849
G01 X6.5475 Y3.2684
G01 X6.5290 Y3.2499
G01 X6.5125 Y3.2295
G01 X6.4982 Y3.2075
G01 X6.4863 Y3.1841
G01 X6.4770 Y3.1597
G01 X6.4702 Y3.1345
G01 X6.4662 Y3.1087
G01 X6.4648 Y3.0826
G01 X6.4648 Y1.0506
G01 X6.4662 Y1.0245
G01 X6.4702 Y0.9987
G01 X6.4770 Y0.9735
G01 X6.4863 Y0.9491
G01 X6.4982 Y0.9257
G01 X6.5125 Y0.9037
G01 X6.5290 Y0.8833
G01 X6.5475 Y0.8648
G01 X6.5679 Y0.8483
G01 X6.5899 Y0.8340
G01 X6.6133 Y0.8221
G01 X6.6377 Y0.8128
G01 X6.6629 Y0.8060
G01 X6.6887 Y0.8020
G01 X6.7148 Y0.8006
G00 Z2.0000
G00 X7.9848 Y0.8006
G01 F60.00
G01 Z-2.4000
G01 F120.00
G01 X8.6452 Y0.8006
G01 X8.6713 Y0.8020
G01 X8.6971 Y0.8060
G01 X8.7223 Y0.8128
G01 X8.7467 Y0.8221
G01 X8.7701 Y0.8340
G01 X8.7921 Y0.8483
G01 X8.8125 Y0.8648
G01 X8.8310 Y0.8833
G01 X8.8475 Y0.9037
G01 X8.8618 Y0.9257
G01 X8.8737 Y0.9491
G01 X8.8830 Y0.9735
G01 X8.8898 Y0.9987
G01 X8.8938 Y1.0245
G01 X8.8952 Y1.0506
G01 X8.8952 Y3.0826
G01 X8.8938 Y3.1087
G01 X8.8898 Y3.1345
G01 X8.8830 Y3.1597
G01 X8.8737 Y3.1841
G01 X8.8618 Y3.2075
G01 X8.8475 Y3.2295
G01 X8.8310 Y3.2499
G01 X8.8125 Y3.2684
G01 X8.7921 Y3.2849
G01 X8.7701 Y3.2992
G01 X8.7467 Y3.3111
G01 X8.7223 Y3.3204
G01 X8.6971 Y3.3272
G01 X8.6713 Y3.3312
G01 X8.6452 Y3.3326
G01 X7.9848 Y3.3326
G01 X7.9587 Y3.3312
G01 X7.9329 Y3.3272
G01 X7.9077 Y3.3204
G01 X7.8833 Y3.3111
G01 X7.8599 Y3.2992
G01 X7.8379 Y3.2849
G01 X7.8175 Y3.2684
G01 X7.7990 Y3.2499
G01 X7.7825 Y3.2295
G01 X7.7682 Y3.2075
G01 X7.7563 Y3.1841
G01 X7.7470 Y3.1597
G01 X7.7402 Y3.1345
G01 X7.7362 Y3.1087
G01 X7.7348 Y3.0826
G01 X7.7348 Y1.0506
G01 X7.7362 Y1.0245
G01 X7.7402 Y0.9987
G01 X7.7470 Y0.9735
G01 X7.7563 Y0.9491
G01 X7.7682 Y0.9257
G01 X7.7825 Y0.9037
G01 X7.7990 Y0.8833
G01 X7.8175 Y0.8648
G01 X7.8379 Y0.8483
G01 X7.8599 Y0.8340
G01 X7.8833 Y0.8221
G01 X7.9077 Y0.8128
G01 X7.9329 Y0.8060
G01 X7.9587 Y0.8020
G01 X7.9848 Y0.8006
G00 Z2.0000
G00 X9.2548 Y0.8006
G01 F60.00
G01 Z-2.4000
G01 F120.00
G01 X9.9152 Y0.8006
G01 X9.9413 Y0.8020
G01 X9.9671 Y0.8060
G01 X9.9923 Y0.8128
G01 X10.0167 Y0.8221
G01 X10.0401 Y0.8340
G01 X10.0621 Y0.8483
G01 X10.0825 Y0.8648
G01 X10.1010 Y0.8833
G01 X10.1175 Y0.9037
G01 X10.1318 Y0.9257
G01 X10.1437 Y0.9491
G01 X10.1530 Y0.9735
G01 X10.1598 Y0.9987
G01 X10.1638 Y1.0245
G01 X10.1652 Y1.0506
G01 X10.1652 Y3.0826
G01 X10.1638 Y3.1087
G01 X10.1598 Y3.1345
G01 X10.1530 Y3.1597
G01 X10.1437 Y3.1841
G01 X10.1318 Y3.2075
G01 X10.1175 Y3.2295
G01 X10.1010 Y3.2499
G01 X10.0825 Y3.2684
G01 X10.0621 Y3.2849
G01 X10.0401 Y3.2992
G01 X10.0167 Y3.3111
G01 X9.9923 Y3.3204
G01 X9.9671 Y3.3272
G01 X9.9413 Y3.3312
G01 X9.9152 Y3.3326
G01 X9.2548 Y3.3326
G01 X9.2287 Y3.3312
G01 X9.2029 Y3.3272
G01 X9.1777 Y3.3204
G01 X9.1533 Y3.3111
G01 X9.1299 Y3.2992
G01 X9.1079 Y3.2849
G01 X9.0875 Y3.2684
G01 X9.0690 Y3.2499
G01 X9.0525 Y3.2295
G01 X9.0382 Y3.2075
G01 X9.0263 Y3.1841
G01 X9.0170 Y3.1597
G01 X9.0102 Y3.1345
G01 X9.0062 Y3.1087
G01 X9.0048 Y3.0826
G01 X9.0048 Y1.0506
G01 X9.0062 Y1.0245
G01 X9.0102 Y0.9987
G01 X9.0170 Y0.9735
G01 X9.0263 Y0.9491
G01 X9.0382 Y0.9257
G01 X9.0525 Y0.9037
G01 X9.0690 Y0.8833
G01 X9.0875 Y0.8648
G01 X9.1079 Y0.8483
G01 X9.1299 Y0.8340
G01 X9.1533 Y0.8221
G01 X9.1777 Y0.8128
G01 X9.2029 Y0.8060
G01 X9.2287 Y0.8020
G01 X9.2548 Y0.8006
G00 Z2.0000
G00 X10.3748 Y2.5042
G01 F60.00
G01 Z-2.4000
G01 F120.00
G01 X10.3544 Y2.4816
G01 X10.3478 Y2.4733
G01 X10.3186 Y2.4339
G01 X10.3104 Y2.4216
G01 X10.2852 Y2.3795
G01 X10.2797 Y2.3695
G01 X10.2572 Y2.3222
G01 X10.2516 Y2.3086
G01 X10.2326 Y2.2549
G01 X10.2179 Y2.1967
G01 X10.2160 Y2.1862
G01 X10.2079 Y2.1306
G01 X10.2049 Y2.0740
G01 X10.2049 Y2.0592
G01 X10.2079 Y2.0026
G01 X10.2160 Y1.9470
G01 X10.2179 Y1.9365
G01 X10.2326 Y1.8783
G01 X10.2516 Y1.8246
G01 X10.2572 Y1.8110
G01 X10.2797 Y1.7637
G01 X10.2852 Y1.7537
G01 X10.3104 Y1.7116
G01 X10.3186 Y1.6993
G01 X10.3478 Y1.6599
G01 X10.3544 Y1.6516
G01 X10.3748 Y1.6290
G01 X10.3748 Y1.0506
G01 X10.3756 Y1.0349
G01 X10.3781 Y1.0195
G01 X10.3821 Y1.0043
G01 X10.3877 Y0.9897
G01 X10.3949 Y0.9757
G01 X10.4034 Y0.9625
G01 X10.4133 Y0.9502
G01 X10.4244 Y0.9391
G01 X10.4367 Y0.9292
G01 X10.4499 Y0.9207
G01 X10.4639 Y0.9135
G01 X10.4785 Y0.9079
G01 X10.4937 Y0.9039
G01 X10.5091 Y0.9014
G01 X10.5248 Y0.9006
G01 X11.1852 Y0.9006
G01 X11.2009 Y0.9014
G01 X11.2163 Y0.9039
G01 X11.2315 Y0.9079
G01 X11.2461 Y0.9135
G01 X11.2601 Y0.9207
G01 X11.2733 Y0.9292
G01 X11.2856 Y0.9391
G01 X11.2967 Y0.9502
G01 X11.3066 Y0.9625
G01 X11.3151 Y0.9757
G01 X11.3223 Y0.9897
G01 X11.3279 Y1.0043
G01 X11.3319 Y1.0195
G01 X11.3344 Y1.0349
G01 X11.3352 Y1.0506
G01 X11.3352 Y1.3452
G01 X11.3460 Y1.3344
G01 X11.3507 Y1.3231
G01 X11.3755 Y1.2708
G01 X11.3810 Y1.2608
G01 X11.4090 Y1.2140
G01 X11.4172 Y1.2017
G01 X11.4497 Y1.1579
G01 X11.4591 Y1.1465
G01 X11.5008 Y1.1008
G01 X11.5465 Y1.0591
G01 X11.5579 Y1.0497
G01 X11.6079 Y1.0129
G01 X11.6608 Y0.9810
G01 X11.6738 Y0.9741
G01 X11.7263 Y0.9493
G01 X11.7367 Y0.9451
G01 X11.7955 Y0.9243
G01 X11.8551 Y0.9092
G01 X11.8695 Y0.9063
G01 X11.9235 Y0.8983
G01 X11.9381 Y0.8969
G01 X12.0000 Y0.8940
G01 X12.0619 Y0.8969
G01 X12.0765 Y0.8983
G01 X12.1305 Y0.9063
G01 X12.1410 Y0.9083
G01 X12.1978 Y0.9224
G01 X12.2119 Y0.9267
G01 X12.2633 Y0.9451
G01 X12.2737 Y0.9493
G01 X12.3292 Y0.9755
G01 X12.3392 Y0.9810
G01 X12.3860 Y1.0090
G01 X12.3983 Y1.0172
G01 X12.4421 Y1.0497
G01 X12.4503 Y1.0563
G01 X12.4992 Y1.1008
G01 X12.5409 Y1.1465
G01 X12.5503 Y1.1579
G01 X12.5871 Y1.2079
G01 X12.6190 Y1.2608
G01 X12.6259 Y1.2738
G01 X12.6507 Y1.3263
G01 X12.6549 Y1.3367
G01 X12.6733 Y1.3881
G01 X12.6776 Y1.4022
G01 X12.6917 Y1.4590
G01 X12.6937 Y1.4695
G01 X12.7017 Y1.5235
G01 X12.7031 Y1.5381
G01 X12.7058 Y1.5926
G01 X12.7058 Y1.6074
G01 X12.7026 Y1.6694
G01 X12.6937 Y1.7305
G01 X12.6908 Y1.7449
G01 X12.6757 Y1.8045
G01 X12.6549 Y1.8633
G01 X12.6493 Y1.8769
G01 X12.6245 Y1.9292
G01 X12.6190 Y1.9392
G01 X12.5871 Y1.9921
G01 X12.5503 Y2.0421
G01 X12.5409 Y2.0535
G01 X12.4992 Y2.0992
G01 X12.4503 Y2.1437
G01 X12.4421 Y2.1503
G01 X12.3921 Y2.1871
G01 X12.3392 Y2.2190
G01 X12.3262 Y2.2259
G01 X12.2769 Y2.2493
G01 X12.2656 Y2.2540
G01 X11.9879 Y2.5315
G01 X11.9515 Y2.5644
G01 X11.9401 Y2.5738
G01 X11.8945 Y2.6074
G01 X11.8463 Y2.6364
G01 X11.8333 Y2.6434
G01 X11.7890 Y2.6644
G01 X11.7754 Y2.6700
G01 X11.7217 Y2.6890
G01 X11.6674 Y2.7027
G01 X11.6530 Y2.7056
G01 X11.5974 Y2.7137
G01 X11.5408 Y2.7167
G01 X11.3352 Y2.7169
G01 X11.3352 Y3.0826
G01 X11.3344 Y3.0983
G01 X11.3319 Y3.1137
G01 X11.3279 Y3.1289
G01 X11.3223 Y3.1435
G01 X11.3151 Y3.1575
G01 X11.3066 Y3.1707
G01 X11.2967 Y3.1830
G01 X11.2856 Y3.1941
G01 X11.2733 Y3.2040
G01 X11.2601 Y3.2125
G01 X11.2461 Y3.2197
G01 X11.2315 Y3.2253
G01 X11.2163 Y3.2293
G01 X11.2009 Y3.2318
G01 X11.1852 Y3.2326
G01 X10.5248 Y3.2326
G01 X10.5091 Y3.2318
G01 X10.4937 Y3.2293
G01 X10.4785 Y3.2253
G01 X10.4639 Y3.2197
G01 X10.4499 Y3.2125
G01 X10.4367 Y3.2040
G01 X10.4244 Y3.1941
G01 X10.4133 Y3.1830
G01 X10.4034 Y3.1707
G01 X10.3949 Y3.1575
G01 X10.3877 Y3.1435
G01 X10.3821 Y3.1289
G01 X10.3781 Y3.1137
G01 X10.3756 Y3.0983
G01 X10.3748 Y3.0826
G01 X10.3748 Y2.5042
G00 Z2.0000
G00 X10.5248 Y6.9474
G01 F60.00
G01 Z-2.4000
G01 F120.00
G01 X11.1852 Y6.9474
G01 X11.2113 Y6.9488
G01 X11.2371 Y6.9528
G01 X11.2623 Y6.9596
G01 X11.2867 Y6.9689
G01 X11.3101 Y6.9808
G01 X11.3321 Y6.9951
G01 X11.3525 Y7.0116
G01 X11.3710 Y7.0301
G01 X11.3875 Y7.0505
G01 X11.4018 Y7.0725
G01 X11.4137 Y7.0959
G01 X11.4230 Y7.1203
G01 X11.4298 Y7.1455
G01 X11.4338 Y7.1713
G01 X11.4352 Y7.1974
G01 X11.4352 Y9.2294
G01 X11.4338 Y9.2555
G01 X11.4298 Y9.2813
G01 X11.4230 Y9.3065
G01 X11.4137 Y9.3309
G01 X11.4018 Y9.3543
G01 X11.3875 Y9.3763
G01 X11.3710 Y9.3967
G01 X11.3525 Y9.4152
G01 X11.3321 Y9.4317
G01 X11.3101 Y9.4460
G01 X11.2867 Y9.4579
G01 X11.2623 Y9.4672
G01 X11.2371 Y9.4740
G01 X11.2113 Y9.4780
G01 X11.1852 Y9.4794
G01 X10.5248 Y9.4794
G01 X10.4987 Y9.4780
G01 X10.4729 Y9.4740
G01 X10.4477 Y9.4672
G01 X10.4233 Y9.4579
G01 X10.3999 Y9.4460
G01 X10.3779 Y9.4317
G01 X10.3575 Y9.4152
G01 X10.3390 Y9.3967
G01 X10.3225 Y9.3763
G01 X10.3082 Y9.3543
G01 X10.2963 Y9.3309
G01 X10.2870 Y9.3065
G01 X10.2802 Y9.2813
G01 X10.2762 Y9.2555
G01 X10.2748 Y9.2294
G01 X10.2748 Y7.1974
G01 X10.2762 Y7.1713
G01 X10.2802 Y7.1455
G01 X10.2870 Y7.1203
G01 X10.2963 Y7.0959
G01 X10.3082 Y7.0725
G01 X10.3225 Y7.0505
G01 X10.3390 Y7.0301
G01 X10.3575 Y7.0116
G01 X10.3779 Y6.9951
G01 X10.3999 Y6.9808
G01 X10.4233 Y6.9689
G01 X10.4477 Y6.9596
G01 X10.4729 Y6.9528
G01 X10.4987 Y6.9488
G01 X10.5248 Y6.9474
G00 Z2.0000
G00 X9.2548 Y6.9474
G01 F60.00
G01 Z-2.4000
G01 F120.00
G01 X9.9152 Y6.9474
G01 X9.9413 Y6.9488
G01 X9.9671 Y6.9528
G01 X9.9923 Y6.9596
G01 X10.0167 Y6.9689
G01 X10.0401 Y6.9808
G01 X10.0621 Y6.9951
G01 X10.0825 Y7.0116
G01 X10.1010 Y7.0301
G01 X10.1175 Y7.0505
G01 X10.1318 Y7.0725
G01 X10.1437 Y7.0959
G01 X10.1530 Y7.1203
G01 X10.1598 Y7.1455
G01 X10.1638 Y7.1713
G01 X10.1652 Y7.1974
G01 X10.1652 Y9.2294
G01 X10.1638 Y9.2555
G01 X10.1598 Y9.2813
G01 X10.1530 Y9.3065
G01 X10.1437 Y9.3309
G01 X10.1318 Y9.3543
G01 X10.1175 Y9.3763
G01 X10.1010 Y9.3967
G01 X10.0825 Y9.4152
G01 X10.0621 Y9.4317
G01 X10.0401 Y9.4460
G01 X10.0167 Y9.4579
G01 X9.9923 Y9.4672
G01 X9.9671 Y9.4740
G01 X9.9413 Y9.4780
G01 X9.9152 Y9.4794
G01 X9.2548 Y9.4794
G01 X9.2287 Y9.4780
G01 X9.2029 Y9.4740
G01 X9.1777 Y9.4672
G01 X9.1533 Y9.4579
G01 X9.1299 Y9.4460
G01 X9.1079 Y9.4317
G01 X9.0875 Y9.4152
G01 X9.0690 Y9.3967
G01 X9.0525 Y9.3763
G01 X9.0382 Y9.3543
G01 X9.0263 Y9.3309
G01 X9.0170 Y9.3065
G01 X9.0102 Y9.2813
G01 X9.0062 Y9.2555
G01 X9.0048 Y9.2294
G01 X9.0048 Y7.1974
G01 X9.0062 Y7.1713
G01 X9.0102 Y7.1455
G01 X9.0170 Y7.1203
G01 X9.0263 Y7.0959
G01 X9.0382 Y7.0725
G01 X9.0525 Y7.0505
G01 X9.0690 Y7.0301
G01 X9.0875 Y7.0116
G01 X9.1079 Y6.9951
G01 X9.1299 Y6.9808
G01 X9.1533 Y6.9689
G01 X9.1777 Y6.9596
G01 X9.2029 Y6.9528
G01 X9.2287 Y6.9488
G01 X9.2548 Y6.9474
G00 Z2.0000
G00 X7.9848 Y6.9474
G01 F60.00
G01 Z-2.4000
G01 F120.00
G01 X8.6452 Y6.9474
G01 X8.6713 Y6.9488
G01 X8.6971 Y6.9528
G01 X8.7223 Y6.9596
G01 X8.7467 Y6.9689
G01 X8.7701 Y6.9808
G01 X8.7921 Y6.9951
G01 X8.8125 Y7.0116
G01 X8.8310 Y7.0301
G01 X8.8475 Y7.0505
G01 X8.8618 Y7.0725
G01 X8.8737 Y7.0959
G01 X8.8830 Y7.1203
G01 X8.8898 Y7.1455
G01 X8.8938 Y7.1713
G01 X8.8952 Y7.1974
G01 X8.8952 Y9.2294
G01 X8.8938 Y9.2555
G01 X8.8898 Y9.2813
G01 X8.8830 Y9.3065
G01 X8.8737 Y9.3309
G01 X8.8618 Y9.3543
G01 X8.8475 Y9.3763
G01 X8.8310 Y9.3967
G01 X8.8125 Y9.4152
G01 X8.7921 Y9.4317
G01 X8.7701 Y9.4460
G01 X8.7467 Y9.4579
G01 X8.7223 Y9.4672
G01 X8.6971 Y9.4740
G01 X8.6713 Y9.4780
G01 X8.6452 Y9.4794
G01 X7.9848 Y9.4794
G01 X7.9587 Y9.4780
G01 X7.9329 Y9.4740
G01 X7.9077 Y9.4672
G01 X7.8833 Y9.4579
G01 X7.8599 Y9.4460
G01 X7.8379 Y9.4317
G01 X7.8175 Y9.4152
G01 X7.7990 Y9.3967
G01 X7.7825 Y9.3763
G01 X7.7682 Y9.3543
G01 X7.7563 Y9.3309
G01 X7.7470 Y9.3065
G01 X7.7402 Y9.2813
G01 X7.7362 Y9.2555
G01 X7.7348 Y9.2294
G01 X7.7348 Y7.1974
G01 X7.7362 Y7.1713
G01 X7.7402 Y7.1455
G01 X7.7470 Y7.1203
G01 X7.7563 Y7.0959
G01 X7.7682 Y7.0725
G01 X7.7825 Y7.0505
G01 X7.7990 Y7.0301
G01 X7.8175 Y7.0116
G01 X7.8379 Y6.9951
G01 X7.8599 Y6.9808
G01 X7.8833 Y6.9689
G01 X7.9077 Y6.9596
G01 X7.9329 Y6.9528
G01 X7.9587 Y6.9488
G01 X7.9848 Y6.9474
G00 Z2.0000
G00 X6.4648 Y9.2294
G01 F60.00
G01 Z-2.4000
G01 F120.00
G01 X6.4648 Y7.1974
G01 X6.4662 Y7.1713
G01 X6.4702 Y7.1455
G01 X6.4770 Y7.1203
G01 X6.4863 Y7.0959
G01 X6.4982 Y7.0725
G01 X6.5125 Y7.0505
G01 X6.5290 Y7.0301
G01 X6.5475 Y7.0116
G01 X6.5679 Y6.9951
G01 X6.5899 Y6.9808
G01 X6.6133 Y6.9689
G01 X6.6377 Y6.9596
G01 X6.6629 Y6.9528
G01 X6.6887 Y6.9488
G01 X6.7148 Y6.9474
G01 X7.3752 Y6.9474
G01 X7.4013 Y6.9488
G01 X7.4271 Y6.9528
G01 X7.4523 Y6.9596
G01 X7.4767 Y6.9689
G01 X7.5001 Y6.9808
G01 X7.5221 Y6.9951
G01 X7.5425 Y7.0116
G01 X7.5610 Y7.0301
G01 X7.5775 Y7.0505
G01 X7.5918 Y7.0725
G01 X7.6037 Y7.0959
G01 X7.6130 Y7.1203
G01 X7.6198 Y7.1455
G01 X7.6238 Y7.1713
G01 X7.6252 Y7.1974
G01 X7.6252 Y9.2294
G01 X7.6238 Y9.2555
G01 X7.6198 Y9.2813
G01 X7.6130 Y9.3065
G01 X7.6037 Y9.3309
G01 X7.5918 Y9.3543
G01 X7.5775 Y9.3763
G01 X7.5610 Y9.3967
G01 X7.5425 Y9.4152
G01 X7.5221 Y9.4317
G01 X7.5001 Y9.4460
G01 X7.4767 Y9.4579
G01 X7.4523 Y9.4672
G01 X7.4271 Y9.4740
G01 X7.4013 Y9.4780
G01 X7.3752 Y9.4794
G01 X6.7148 Y9.4794
G01 X6.6887 Y9.4780
G01 X6.6629 Y9.4740
G01 X6.6377 Y9.4672
G01 X6.6133 Y9.4579
G01 X6.5899 Y9.4460
G01 X6.5679 Y9.4317
G01 X6.5475 Y9.4152
G01 X6.5290 Y9.3967
G01 X6.5125 Y9.3763
G01 X6.4982 Y9.3543
G01 X6.4863 Y9.3309
G01 X6.4770 Y9.3065
G01 X6.4702 Y9.2813
G01 X6.4662 Y9.2555
G01 X6.4648 Y9.2294
G00 Z2.0000
G00 X3.8549 Y6.7876
G01 F60.00
G01 Z-2.4000
G01 F120.00
G01 X3.8579 Y6.7310
G01 X3.8660 Y6.6754
G01 X3.8679 Y6.6649
G01 X3.8826 Y6.6067
G01 X3.9016 Y6.5530
G01 X3.9058 Y6.5426
G01 X3.9297 Y6.4921
G01 X3.9352 Y6.4821
G01 X3.9642 Y6.4339
G01 X3.9978 Y6.3883
G01 X4.0044 Y6.3800
G01 X4.0401 Y6.3405
G01 X5.2455 Y5.1351
G01 X5.2819 Y5.1022
G01 X5.2933 Y5.0928
G01 X5.3389 Y5.0592
G01 X5.3871 Y5.0302
G01 X5.4001 Y5.0232
G01 X5.4476 Y5.0008
G01 X5.4580 Y4.9966
G01 X5.5043 Y4.9801
G01 X5.5183 Y4.9758
G01 X5.5699 Y4.9629
G01 X5.5804 Y4.9610
G01 X5.6290 Y4.9538
G01 X5.6436 Y4.9523
G01 X5.7000 Y4.9497
G01 X10.7407 Y4.9497
G01 X12.7156 Y2.9748
G01 X12.7156 Y2.4512
G01 X12.7164 Y2.4356
G01 X12.7189 Y2.4201
G01 X12.7229 Y2.4050
G01 X12.7285 Y2.3903
G01 X12.7370 Y2.3741
G01 X12.7473 Y2.3590
G01 X12.7595 Y2.3452
G01 X13.2952 Y1.8095
G01 X13.3090 Y1.7973
G01 X13.3241 Y1.7870
G01 X13.3403 Y1.7785
G01 X13.3550 Y1.7729
G01 X13.3701 Y1.7689
G01 X13.3856 Y1.7664
G01 X13.4012 Y1.7656
G01 X14.1588 Y1.7656
G01 X14.1744 Y1.7664
G01 X14.1899 Y1.7689
G01 X14.2050 Y1.7729
G01 X14.2197 Y1.7785
G01 X14.2359 Y1.7870
G01 X14.2510 Y1.7973
G01 X14.2648 Y1.8095
G01 X14.8005 Y2.3452
G01 X14.8127 Y2.3590
G01 X14.8230 Y2.3741
G01 X14.8315 Y2.3903
G01 X14.8371 Y2.4050
G01 X14.8411 Y2.4201
G01 X14.8436 Y2.4356
G01 X14.8444 Y2.4512
G01 X14.8444 Y3.2088
G01 X14.8436 Y3.2244
G01 X14.8411 Y3.2399
G01 X14.8371 Y3.2550
G01 X14.8315 Y3.2697
G01 X14.8230 Y3.2859
G01 X14.8127 Y3.3010
G01 X14.8005 Y3.3148
G01 X14.2648 Y3.8505
G01 X14.2510 Y3.8627
G01 X14.2359 Y3.8730
G01 X14.2197 Y3.8815
G01 X14.2050 Y3.8871
G01 X14.1899 Y3.8911
G01 X14.1744 Y3.8936
G01 X14.1588 Y3.8944
G01 X13.6352 Y3.8944
G01 X11.4698 Y6.0598
G01 X11.4250 Y6.1006
G01 X11.4167 Y6.1072
G01 X11.3711 Y6.1408
G01 X11.3229 Y6.1698
G01 X11.3129 Y6.1753
G01 X11.2624 Y6.1992
G01 X11.2520 Y6.2034
G01 X11.1983 Y6.2224
G01 X11.1401 Y6.2371
G01 X11.1296 Y6.2390
G01 X11.0740 Y6.2471
G01 X11.0100 Y6.2503
G01 X5.9693 Y6.2503
G01 X5.1553 Y7.0643
G01 X5.1553 Y8.2134
G01 X5.1521 Y8.2774
G01 X5.1440 Y8.3330
G01 X5.1421 Y8.3435
G01 X5.1292 Y8.3951
G01 X5.1249 Y8.4091
G01 X5.1084 Y8.4554
G01 X5.1042 Y8.4658
G01 X5.0803 Y8.5163
G01 X5.0748 Y8.5263
G01 X5.0458 Y8.5745
G01 X5.0122 Y8.6201
G01 X5.0056 Y8.6284
G01 X4.9852 Y8.6510
G01 X4.9852 Y9.2294
G01 X4.9844 Y9.2451
G01 X4.9819 Y9.2605
G01 X4.9779 Y9.2757
G01 X4.9723 Y9.2903
G01 X4.9651 Y9.3043
G01 X4.9566 Y9.3175
G01 X4.9467 Y9.3298
G01 X4.9356 Y9.3409
G01 X4.9233 Y9.3508
G01 X4.9101 Y9.3593
G01 X4.8961 Y9.3665
G01 X4.8815 Y9.3721
G01 X4.8663 Y9.3761
G01 X4.8509 Y9.3786
G01 X4.8352 Y9.3794
G01 X4.1748 Y9.3794
G01 X4.1591 Y9.3786
G01 X4.1437 Y9.3761
G01 X4.1285 Y9.3721
G01 X4.1139 Y9.3665
G01 X4.0999 Y9.3593
G01 X4.0867 Y9.3508
G01 X4.0744 Y9.3409
G01 X4.0633 Y9.3298
G01 X4.0534 Y9.3175
G01 X4.0449 Y9.3043
G01 X4.0377 Y9.2903
G01 X4.0321 Y9.2757
G01 X4.0281 Y9.2605
G01 X4.0256 Y9.2451
G01 X4.0248 Y9.2294
G01 X4.0248 Y8.6510
G01 X4.0044 Y8.6284
G01 X3.9978 Y8.6201
G01 X3.9642 Y8.5745
G01 X3.9352 Y8.5263
G01 X3.9297 Y8.5163
G01 X3.9058 Y8.4658
G01 X3.9016 Y8.4554
G01 X3.8826 Y8.4017
G01 X3.8689 Y8.3474
G01 X3.8660 Y8.3330
G01 X3.8588 Y8.2844
G01 X3.8573 Y8.2698
G01 X3.8547 Y8.2134
G01 X3.8549 Y6.7876
G00 Z2.0000
G00 X2.5849 Y4.6576
G01 F60.00
G01 Z-2.4000
G01 F120.00
G01 X2.5879 Y4.6010
G01 X2.5960 Y4.5454
G01 X2.5989 Y4.5310
G01 X2.6126 Y4.4767
G01 X2.6316 Y4.4230
G01 X2.6358 Y4.4126
G01 X2.6582 Y4.3651
G01 X2.6652 Y4.3521
G01 X2.6904 Y4.3100
G01 X2.6986 Y4.2977
G01 X2.7278 Y4.2583
G01 X2.7344 Y4.2500
G01 X2.7752 Y4.2052
G01 X3.0455 Y3.9351
G01 X3.0850 Y3.8994
G01 X3.0933 Y3.8928
G01 X3.1327 Y3.8636
G01 X3.1450 Y3.8554
G01 X3.1871 Y3.8302
G01 X3.2001 Y3.8232
G01 X3.2444 Y3.8022
G01 X3.2580 Y3.7966
G01 X3.3117 Y3.7776
G01 X3.3660 Y3.7639
G01 X3.3804 Y3.7610
G01 X3.4360 Y3.7529
G01 X3.4926 Y3.7499
G01 X4.8307 Y3.7497
G01 X5.1247 Y3.4557
G01 X5.1247 Y2.0666
G01 X5.1273 Y2.0102
G01 X5.1288 Y1.9956
G01 X5.1360 Y1.9470
G01 X5.1389 Y1.9326
G01 X5.1526 Y1.8783
G01 X5.1716 Y1.8246
G01 X5.1758 Y1.8142
G01 X5.1997 Y1.7637
G01 X5.2052 Y1.7537
G01 X5.2342 Y1.7055
G01 X5.2678 Y1.6599
G01 X5.2744 Y1.6516
G01 X5.2948 Y1.6290
G01 X5.2948 Y1.0506
G01 X5.2956 Y1.0349
G01 X5.2981 Y1.0195
G01 X5.3021 Y1.0043
G01 X5.3077 Y0.9897
G01 X5.3149 Y0.9757
G01 X5.3234 Y0.9625
G01 X5.3333 Y0.9502
G01 X5.3444 Y0.9391
G01 X5.3567 Y0.9292
G01 X5.3699 Y0.9207
G01 X5.3839 Y0.9135
G01 X5.3985 Y0.9079
G01 X5.4137 Y0.9039
G01 X5.4291 Y0.9014
G01 X5.4448 Y0.9006
G01 X6.1052 Y0.9006
G01 X6.1209 Y0.9014
G01 X6.1363 Y0.9039
G01 X6.1515 Y0.9079
G01 X6.1661 Y0.9135
G01 X6.1801 Y0.9207
G01 X6.1933 Y0.9292
G01 X6.2056 Y0.9391
G01 X6.2167 Y0.9502
G01 X6.2266 Y0.9625
G01 X6.2351 Y0.9757
G01 X6.2423 Y0.9897
G01 X6.2479 Y1.0043
G01 X6.2519 Y1.0195
G01 X6.2544 Y1.0349
G01 X6.2552 Y1.0506
G01 X6.2552 Y1.6290
G01 X6.2756 Y1.6516
G01 X6.2822 Y1.6599
G01 X6.3158 Y1.7055
G01 X6.3448 Y1.7537
G01 X6.3503 Y1.7637
G01 X6.3742 Y1.8142
G01 X6.3784 Y1.8246
G01 X6.3974 Y1.8783
G01 X6.4111 Y1.9326
G01 X6.4140 Y1.9470
G01 X6.4212 Y1.9956
G01 X6.4227 Y2.0102
G01 X6.4253 Y2.0666
G01 X6.4253 Y3.7250
G01 X6.4227 Y3.7814
G01 X6.4212 Y3.7960
G01 X6.4140 Y3.8446
G01 X6.4121 Y3.8551
G01 X6.3974 Y3.9133
G01 X6.3784 Y3.9670
G01 X6.3742 Y3.9774
G01 X6.3518 Y4.0249
G01 X6.3448 Y4.0379
G01 X6.3158 Y4.0861
G01 X6.2822 Y4.1317
G01 X6.2728 Y4.1431
G01 X6.2348 Y4.1848
G01 X5.5545 Y4.8649
G01 X5.5150 Y4.9006
G01 X5.5067 Y4.9072
G01 X5.4611 Y4.9408
G01 X5.4129 Y4.9698
G01 X5.4029 Y4.9753
G01 X5.3524 Y4.9992
G01 X5.3420 Y5.0034
G01 X5.2883 Y5.0224
G01 X5.2301 Y5.0371
G01 X5.2196 Y5.0390
G01 X5.1640 Y5.0471
G01 X5.1074 Y5.0501
G01 X3.8853 Y5.0503
G01 X3.8853 Y8.2134
G01 X3.8827 Y8.2698
G01 X3.8812 Y8.2844
G01 X3.8740 Y8.3330
G01 X3.8711 Y8.3474
G01 X3.8574 Y8.4017
G01 X3.8384 Y8.4554
G01 X3.8342 Y8.4658
G01 X3.8103 Y8.5163
G01 X3.8048 Y8.5263
G01 X3.7758 Y8.5745
G01 X3.7422 Y8.6201
G01 X3.7356 Y8.6284
G01 X3.7152 Y8.6510
G01 X3.7152 Y9.2294
G01 X3.7144 Y9.2451
G01 X3.7119 Y9.2605
G01 X3.7079 Y9.2757
G01 X3.7023 Y9.2903
G01 X3.6951 Y9.3043
G01 X3.6866 Y9.3175
G01 X3.6767 Y9.3298
G01 X3.6656 Y9.3409
G01 X3.6533 Y9.3508
G01 X3.6401 Y9.3593
G01 X3.6261 Y9.3665
G01 X3.6115 Y9.3721
G01 X3.5963 Y9.3761
G01 X3.5809 Y9.3786
G01 X3.5652 Y9.3794
G01 X2.9048 Y9.3794
G01 X2.8891 Y9.3786
G01 X2.8737 Y9.3761
G01 X2.8585 Y9.3721
G01 X2.8439 Y9.3665
G01 X2.8299 Y9.3593
G01 X2.8167 Y9.3508
G01 X2.8044 Y9.3409
G01 X2.7933 Y9.3298
G01 X2.7834 Y9.3175
G01 X2.7749 Y9.3043
G01 X2.7677 Y9.2903
G01 X2.7621 Y9.2757
G01 X2.7581 Y9.2605
G01 X2.7556 Y9.2451
G01 X2.7548 Y9.2294
G01 X2.7548 Y8.6510
G01 X2.7344 Y8.6284
G01 X2.7278 Y8.6201
G01 X2.6986 Y8.5807
G01 X2.6904 Y8.5684
G01 X2.6652 Y8.5263
G01 X2.6597 Y8.5163
G01 X2.6372 Y8.4690
G01 X2.6316 Y8.4554
G01 X2.6126 Y8.4017
G01 X2.5979 Y8.3435
G01 X2.5960 Y8.3330
G01 X2.5879 Y8.2774
G01 X2.5849 Y8.2208
G01 X2.5849 Y4.6576
G00 Z2.0000
G00 X1.3848 Y3.0826
G01 F60.00
G01 Z-2.4000
G01 F120.00
G01 X1.3848 Y1.0506
G01 X1.3862 Y1.0245
G01 X1.3902 Y0.9987
G01 X1.3970 Y0.9735
G01 X1.4063 Y0.9491
G01 X1.4182 Y0.9257
G01 X1.4325 Y0.9037
G01 X1.4490 Y0.8833
G01 X1.4675 Y0.8648
G01 X1.4879 Y0.8483
G01 X1.5099 Y0.8340
G01 X1.5333 Y0.8221
G01 X1.5577 Y0.8128
G01 X1.5829 Y0.8060
G01 X1.6087 Y0.8020
G01 X1.6348 Y0.8006
G01 X2.2952 Y0.8006
G01 X2.3213 Y0.8020
G01 X2.3471 Y0.8060
G01 X2.3723 Y0.8128
G01 X2.3967 Y0.8221
G01 X2.4201 Y0.8340
G01 X2.4421 Y0.8483
G01 X2.4625 Y0.8648
G01 X2.4810 Y0.8833
G01 X2.4975 Y0.9037
G01 X2.5118 Y0.9257
G01 X2.5237 Y0.9491
G01 X2.5330 Y0.9735
G01 X2.5398 Y0.9987
G01 X2.5438 Y1.0245
G01 X2.5452 Y1.0506
G01 X2.5452 Y3.0826
G01 X2.5438 Y3.1087
G01 X2.5398 Y3.1345
G01 X2.5330 Y3.1597
G01 X2.5237 Y3.1841
G01 X2.5118 Y3.2075
G01 X2.4975 Y3.2295
G01 X2.4810 Y3.2499
G01 X2.4625 Y3.2684
G01 X2.4421 Y3.2849
G01 X2.4201 Y3.2992
G01 X2.3967 Y3.3111
G01 X2.3723 Y3.3204
G01 X2.3471 Y3.3272
G01 X2.3213 Y3.3312
G01 X2.2952 Y3.3326
G01 X1.6348 Y3.3326
G01 X1.6087 Y3.3312
G01 X1.5829 Y3.3272
G01 X1.5577 Y3.3204
G01 X1.5333 Y3.3111
G01 X1.5099 Y3.2992
G01 X1.4879 Y3.2849
G01 X1.4675 Y3.2684
G01 X1.4490 Y3.2499
G01 X1.4325 Y3.2295
G01 X1.4182 Y3.2075
G01 X1.4063 Y3.1841
G01 X1.3970 Y3.1597
G01 X1.3902 Y3.1345
G01 X1.3862 Y3.1087
G01 X1.3848 Y3.0826
G00 Z2.0000
G00 X0.5600 Y10.0700
G01 F60.00
G01 Z-2.4000
G01 F120.00
G01 X1.3147 Y10.0700
G01 X1.3147 Y8.2134
G01 X1.3173 Y8.1570
G01 X1.3188 Y8.1424
G01 X1.3260 Y8.0938
G01 X1.3289 Y8.0794
G01 X1.3426 Y8.0251
G01 X1.3616 Y7.9714
G01 X1.3658 Y7.9610
G01 X1.3897 Y7.9105
G01 X1.3952 Y7.9005
G01 X1.4242 Y7.8523
G01 X1.4578 Y7.8067
G01 X1.4644 Y7.7984
G01 X1.4848 Y7.7758
G01 X1.4848 Y7.1974
G01 X1.4856 Y7.1817
G01 X1.4881 Y7.1663
G01 X1.4921 Y7.1511
G01 X1.4977 Y7.1365
G01 X1.5049 Y7.1225
G01 X1.5134 Y7.1093
G01 X1.5233 Y7.0970
G01 X1.5344 Y7.0859
G01 X1.5467 Y7.0760
G01 X1.5599 Y7.0675
G01 X1.5739 Y7.0603
G01 X1.5885 Y7.0547
G01 X1.6037 Y7.0507
G01 X1.6191 Y7.0482
G01 X1.6348 Y7.0474
G01 X2.2952 Y7.0474
G01 X2.3109 Y7.0482
G01 X2.3263 Y7.0507
G01 X2.3415 Y7.0547
G01 X2.3561 Y7.0603
G01 X2.3701 Y7.0675
G01 X2.3833 Y7.0760
G01 X2.3956 Y7.0859
G01 X2.4067 Y7.0970
G01 X2.4166 Y7.1093
G01 X2.4251 Y7.1225
G01 X2.4323 Y7.1365
G01 X2.4379 Y7.1511
G01 X2.4419 Y7.1663
G01 X2.4444 Y7.1817
G01 X2.4452 Y7.1974
G01 X2.4452 Y7.7758
G01 X2.4656 Y7.7984
G01 X2.4722 Y7.8067
G01 X2.5058 Y7.8523
G01 X2.5348 Y7.9005
G01 X2.5403 Y7.9105
G01 X2.5642 Y7.9610
G01 X2.5684 Y7.9714
G01 X2.5849 Y8.0177
G01 X2.5892 Y8.0317
G01 X2.6021 Y8.0833
G01 X2.6040 Y8.0938
G01 X2.6121 Y8.1494
G01 X2.6153 Y8.2134
G01 X2.6153 Y10.0700
G01 X3.1000 Y10.0700
G01 X3.1157 Y10.0708
G01 X3.1311 Y10.0733
G01 X3.1463 Y10.0773
G01 X3.1609 Y10.0829
G01 X3.1749 Y10.0901
G01 X3.1881 Y10.0986
G01 X3.2004 Y10.1085
G01 X3.2115 Y10.1196
G01 X3.2214 Y10.1319
G01 X3.2299 Y10.1451
G01 X3.2371 Y10.1591
G01 X3.2427 Y10.1737
G01 X3.2467 Y10.1889
G01 X3.2492 Y10.2043
G01 X3.2500 Y10.2200
G01 X3.2500 Y15.3000
G01 X3.2492 Y15.3157
G01 X3.2467 Y15.3311
G01 X3.2427 Y15.3463
G01 X3.2371 Y15.3609
G01 X3.2299 Y15.3749
G01 X3.2214 Y15.3881
G01 X3.2115 Y15.4004
G01 X3.2004 Y15.4115
G01 X3.1881 Y15.4214
G01 X3.1749 Y15.4299
G01 X3.1609 Y15.4371
G01 X3.1463 Y15.4427
G01 X3.1311 Y15.4467
G01 X3.1157 Y15.4492
G01 X3.1000 Y15.4500
G01 X0.5600 Y15.4500
G01 X0.5443 Y15.4492
G01 X0.5289 Y15.4467
G01 X0.5137 Y15.4427
G01 X0.4991 Y15.4371
G01 X0.4851 Y15.4299
G01 X0.4719 Y15.4214
G01 X0.4596 Y15.4115
G01 X0.4485 Y15.4004
G01 X0.4386 Y15.3881
G01 X0.4301 Y15.3749
G01 X0.4229 Y15.3609
G01 X0.4173 Y15.3463
G01 X0.4133 Y15.3311
G01 X0.4108 Y15.3157
G01 X0.4100 Y15.3000
G01 X0.4100 Y10.2200
G01 X0.4108 Y10.2043
G01 X0.4133 Y10.1889
G01 X0.4173 Y10.1737
G01 X0.4229 Y10.1591
G01 X0.4301 Y10.1451
G01 X0.4386 Y10.1319
G01 X0.4485 Y10.1196
G01 X0.4596 Y10.1085
G01 X0.4719 Y10.0986
G01 X0.4851 Y10.0901
G01 X0.4991 Y10.0829
G01 X0.5137 Y10.0773
G01 X0.5289 Y10.0733
G01 X0.5443 Y10.0708
G01 X0.5600 Y10.0700
G00 Z2.0000
G00 X4.2200 Y15.3000
G01 F60.00
G01 Z-2.4000
G01 F120.00
G01 X4.2200 Y10.2200
G01 X4.2208 Y10.2043
G01 X4.2233 Y10.1889
G01 X4.2273 Y10.1737
G01 X4.2329 Y10.1591
G01 X4.2401 Y10.1451
G01 X4.2486 Y10.1319
G01 X4.2585 Y10.1196
G01 X4.2696 Y10.1085
G01 X4.2819 Y10.0986
G01 X4.2951 Y10.0901
G01 X4.3091 Y10.0829
G01 X4.3237 Y10.0773
G01 X4.3389 Y10.0733
G01 X4.3543 Y10.0708
G01 X4.3700 Y10.0700
G01 X5.1247 Y10.0700
G01 X5.1247 Y8.2134
G01 X5.1279 Y8.1494
G01 X5.1360 Y8.0938
G01 X5.1379 Y8.0833
G01 X5.1508 Y8.0317
G01 X5.1551 Y8.0177
G01 X5.1716 Y7.9714
G01 X5.1758 Y7.9610
G01 X5.1997 Y7.9105
G01 X5.2052 Y7.9005
G01 X5.2342 Y7.8523
G01 X5.2678 Y7.8067
G01 X5.2744 Y7.7984
G01 X5.2948 Y7.7758
G01 X5.2948 Y7.1974
G01 X5.2956 Y7.1817
G01 X5.2981 Y7.1663
G01 X5.3021 Y7.1511
G01 X5.3077 Y7.1365
G01 X5.3149 Y7.1225
G01 X5.3234 Y7.1093
G01 X5.3333 Y7.0970
G01 X5.3444 Y7.0859
G01 X5.3567 Y7.0760
G01 X5.3699 Y7.0675
G01 X5.3839 Y7.0603
G01 X5.3985 Y7.0547
G01 X5.4137 Y7.0507
G01 X5.4291 Y7.0482
G01 X5.4448 Y7.0474
G01 X6.1052 Y7.0474
G01 X6.1209 Y7.0482
G01 X6.1363 Y7.0507
G01 X6.1515 Y7.0547
G01 X6.1661 Y7.0603
G01 X6.1801 Y7.0675
G01 X6.1933 Y7.0760
G01 X6.2056 Y7.0859
G01 X6.2167 Y7.0970
G01 X6.2266 Y7.1093
G01 X6.2351 Y7.1225
G01 X6.2423 Y7.1365
G01 X6.2479 Y7.1511
G01 X6.2519 Y7.1663
G01 X6.2544 Y7.1817
G01 X6.2552 Y7.1974
G01 X6.2552 Y7.7758
G01 X6.2756 Y7.7984
G01 X6.2822 Y7.8067
G01 X6.3158 Y7.8523
G01 X6.3448 Y7.9005
G01 X6.3503 Y7.9105
G01 X6.3742 Y7.9610
G01 X6.3784 Y7.9714
G01 X6.3974 Y8.0251
G01 X6.4111 Y8.0794
G01 X6.4140 Y8.0938
G01 X6.4212 Y8.1424
G01 X6.4227 Y8.1570
G01 X6.4253 Y8.2134
G01 X6.4253 Y10.0700
G01 X6.9100 Y10.0700
G01 X6.9257 Y10.0708
G01 X6.9411 Y10.0733
G01 X6.9563 Y10.0773
G01 X6.9709 Y10.0829
G01 X6.9849 Y10.0901
G01 X6.9981 Y10.0986
G01 X7.0104 Y10.1085
G01 X7.0215 Y10.1196
G01 X7.0314 Y10.1319
G01 X7.0399 Y10.1451
G01 X7.0471 Y10.1591
G01 X7.0527 Y10.1737
G01 X7.0567 Y10.1889
G01 X7.0592 Y10.2043
G01 X7.0600 Y10.2200
G01 X7.0600 Y10.4204
G01 X7.5402 Y9.9402
G01 X7.5850 Y9.8994
G01 X7.5933 Y9.8928
G01 X7.6327 Y9.8636
G01 X7.6450 Y9.8554
G01 X7.6871 Y9.8302
G01 X7.6971 Y9.8247
G01 X7.7444 Y9.8022
G01 X7.7580 Y9.7966
G01 X7.8117 Y9.7776
G01 X7.8660 Y9.7639
G01 X7.8804 Y9.7610
G01 X7.9360 Y9.7529
G01 X8.0000 Y9.7497
G01 X10.9307 Y9.7497
G01 X12.2804 Y8.4000
G01 X11.7402 Y7.8598
G01 X11.6994 Y7.8150
G01 X11.6928 Y7.8067
G01 X11.6592 Y7.7611
G01 X11.6302 Y7.7129
G01 X11.6232 Y7.6999
G01 X11.6022 Y7.6556
G01 X11.5966 Y7.6420
G01 X11.5776 Y7.5883
G01 X11.5639 Y7.5340
G01 X11.5610 Y7.5196
G01 X11.5538 Y7.4710
G01 X11.5523 Y7.4564
G01 X11.5497 Y7.4000
G01 X11.5497 Y7.2748
G01 X11.5451 Y7.2633
G01 X11.5267 Y7.2119
G01 X11.5224 Y7.1978
G01 X11.5083 Y7.1410
G01 X11.5063 Y7.1305
G01 X11.4974 Y7.0694
G01 X11.4940 Y7.0000
G01 X11.4969 Y6.9381
G01 X11.4983 Y6.9235
G01 X11.5063 Y6.8695
G01 X11.5083 Y6.8590
G01 X11.5243 Y6.7955
G01 X11.5451 Y6.7367
G01 X11.5493 Y6.7263
G01 X11.5755 Y6.6708
G01 X11.5810 Y6.6608
G01 X11.6129 Y6.6079
G01 X11.6497 Y6.5579
G01 X11.6563 Y6.5497
G01 X11.7008 Y6.5008
G01 X11.7497 Y6.4563
G01 X11.7579 Y6.4497
G01 X11.8079 Y6.4129
G01 X11.8608 Y6.3810
G01 X11.8708 Y6.3755
G01 X11.9231 Y6.3507
G01 X11.9367 Y6.3451
G01 X11.9955 Y6.3243
G01 X12.0590 Y6.3083
G01 X12.0695 Y6.3063
G01 X12.1235 Y6.2983
G01 X12.1381 Y6.2969
G01 X12.1926 Y6.2942
G01 X12.2074 Y6.2942
G01 X12.2694 Y6.2974
G01 X12.3305 Y6.3063
G01 X12.3449 Y6.3092
G01 X12.3978 Y6.3224
G01 X12.4119 Y6.3267
G01 X12.4633 Y6.3451
G01 X12.4737 Y6.3493
G01 X12.5292 Y6.3755
G01 X12.5392 Y6.3810
G01 X12.5921 Y6.4129
G01 X12.6421 Y6.4497
G01 X12.6535 Y6.4591
G01 X12.6939 Y6.4957
G01 X12.7043 Y6.5061
G01 X12.7437 Y6.5497
G01 X12.7503 Y6.5579
G01 X12.7871 Y6.6079
G01 X12.8190 Y6.6608
G01 X12.8259 Y6.6738
G01 X12.8507 Y6.7263
G01 X12.8549 Y6.7367
G01 X12.8733 Y6.7881
G01 X12.8776 Y6.8022
G01 X12.8908 Y6.8551
G01 X12.8937 Y6.8695
G01 X12.9026 Y6.9306
G01 X12.9058 Y6.9926
G01 X12.9058 Y7.0074
G01 X12.9026 Y7.0694
G01 X12.8937 Y7.1305
G01 X12.8917 Y7.1410
G01 X12.8856 Y7.1660
G01 X13.2000 Y7.4804
G01 X18.8102 Y1.8702
G01 X18.8550 Y1.8294
G01 X18.8633 Y1.8228
G01 X18.9089 Y1.7892
G01 X18.9571 Y1.7602
G01 X18.9671 Y1.7547
G01 X19.0176 Y1.7308
G01 X19.0280 Y1.7266
G01 X19.0743 Y1.7101
G01 X19.0883 Y1.7058
G01 X19.1399 Y1.6929
G01 X19.1504 Y1.6910
G01 X19.2060 Y1.6829
G01 X19.2700 Y1.6797
G01 X19.6435 Y1.6797
G01 X19.6579 Y1.6603
G01 X19.6645 Y1.6520
G01 X19.7326 Y1.5770
G01 X19.8076 Y1.5089
G01 X19.8159 Y1.5023
G01 X19.8941 Y1.4445
G01 X19.9772 Y1.3945
G01 X19.9902 Y1.3876
G01 X20.0746 Y1.3477
G01 X20.0850 Y1.3436
G01 X20.1769 Y1.3109
G01 X20.2746 Y1.2863
G01 X20.2851 Y1.2843
G01 X20.3739 Y1.2712
G01 X20.3886 Y1.2697
G01 X20.4856 Y1.2651
G01 X22.3144 Y1.2651
G01 X22.4190 Y1.2703
G01 X22.5149 Y1.2843
G01 X22.5293 Y1.2872
G01 X22.6231 Y1.3109
G01 X22.7150 Y1.3436
G01 X22.7286 Y1.3492
G01 X22.8127 Y1.3890
G01 X22.8228 Y1.3945
G01 X22.9059 Y1.4445
G01 X22.9841 Y1.5023
G01 X22.9955 Y1.5117
G01 X23.0620 Y1.5720
G01 X23.0724 Y1.5824
G01 X23.1355 Y1.6520
G01 X23.1421 Y1.6603
G01 X23.1956 Y1.7324
G01 X23.2037 Y1.7446
G01 X23.2499 Y1.8216
G01 X23.2554 Y1.8317
G01 X23.2967 Y1.9190
G01 X23.3008 Y1.9294
G01 X23.3335 Y2.0213
G01 X23.3572 Y2.1151
G01 X23.3601 Y2.1295
G01 X23.3741 Y2.2254
G01 X23.3791 Y2.3226
G01 X23.3791 Y2.3374
G01 X23.3747 Y2.4270
G01 X23.3732 Y2.4417
G01 X23.3601 Y2.5305
G01 X23.3581 Y2.5410
G01 X23.3354 Y2.6320
G01 X23.3311 Y2.6461
G01 X23.3008 Y2.7306
G01 X23.2952 Y2.7442
G01 X23.2554 Y2.8283
G01 X23.2499 Y2.8384
G01 X23.2037 Y2.9154
G01 X23.1956 Y2.9276
G01 X23.1421 Y2.9997
G01 X23.1355 Y3.0080
G01 X23.0674 Y3.0830
G01 X22.9924 Y3.1511
G01 X22.9841 Y3.1577
G01 X22.9120 Y3.2112
G01 X22.8998 Y3.2193
G01 X22.8228 Y3.2655
G01 X22.8127 Y3.2710
G01 X22.7286 Y3.3108
G01 X22.7150 Y3.3164
G01 X22.6305 Y3.3467
G01 X22.6164 Y3.3510
G01 X22.5293 Y3.3728
G01 X22.5149 Y3.3757
G01 X22.4190 Y3.3897
G01 X22.3144 Y3.3949
G01 X20.4856 Y3.3949
G01 X20.3810 Y3.3897
G01 X20.2851 Y3.3757
G01 X20.2746 Y3.3737
G01 X20.1769 Y3.3491
G01 X20.0850 Y3.3164
G01 X20.0746 Y3.3123
G01 X19.9873 Y3.2710
G01 X19.9772 Y3.2655
G01 X19.8941 Y3.2155
G01 X19.8159 Y3.1577
G01 X19.8076 Y3.1511
G01 X19.7326 Y3.0830
G01 X19.6645 Y3.0080
G01 X19.6579 Y2.9997
G01 X19.6435 Y2.9803
G01 X19.5393 Y2.9803
G01 X11.6598 Y10.8598
G01 X11.6150 Y10.9006
G01 X11.6067 Y10.9072
G01 X11.5673 Y10.9364
G01 X11.5550 Y10.9446
G01 X11.5129 Y10.9698
G01 X11.5029 Y10.9753
G01 X11.4556 Y10.9978
G01 X11.4420 Y11.0034
G01 X11.3883 Y11.0224
G01 X11.3340 Y11.0361
G01 X11.3196 Y11.0390
G01 X11.2640 Y11.0471
G01 X11.2074 Y11.0501
G01 X8.2693 Y11.0503
G01 X7.2098 Y12.1097
G01 X7.3250 Y12.1097
G01 X7.6952 Y11.7395
G01 X7.7090 Y11.7273
G01 X7.7241 Y11.7170
G01 X7.7403 Y11.7085
G01 X7.7550 Y11.7029
G01 X7.7701 Y11.6989
G01 X7.7856 Y11.6964
G01 X7.8012 Y11.6956
G01 X8.5588 Y11.6956
G01 X8.5744 Y11.6964
G01 X8.5899 Y11.6989
G01 X8.6050 Y11.7029
G01 X8.6197 Y11.7085
G01 X8.6359 Y11.7170
G01 X8.6510 Y11.7273
G01 X8.6648 Y11.7395
G01 X9.2005 Y12.2752
G01 X9.2127 Y12.2890
G01 X9.2230 Y12.3041
G01 X9.2315 Y12.3203
G01 X9.2371 Y12.3350
G01 X9.2411 Y12.3501
G01 X9.2436 Y12.3656
G01 X9.2444 Y12.3812
G01 X9.2444 Y13.1388
G01 X9.2436 Y13.1544
G01 X9.2411 Y13.1699
G01 X9.2371 Y13.1850
G01 X9.2315 Y13.1997
G01 X9.2230 Y13.2159
G01 X9.2127 Y13.2310
G01 X9.2005 Y13.2448
G01 X8.6648 Y13.7805
G01 X8.6510 Y13.7927
G01 X8.6359 Y13.8030
G01 X8.6197 Y13.8115
G01 X8.6050 Y13.8171
G01 X8.5899 Y13.8211
G01 X8.5744 Y13.8236
G01 X8.5588 Y13.8244
G01 X7.8012 Y13.8244
G01 X7.7856 Y13.8236
G01 X7.7701 Y13.8211
G01 X7.7550 Y13.8171
G01 X7.7403 Y13.8115
G01 X7.7241 Y13.8030
G01 X7.7090 Y13.7927
G01 X7.6952 Y13.7805
G01 X7.3250 Y13.4103
G01 X7.0600 Y13.4103
G01 X7.0600 Y15.3000
G01 X7.0592 Y15.3157
G01 X7.0567 Y15.3311
G01 X7.0527 Y15.3463
G01 X7.0471 Y15.3609
G01 X7.0399 Y15.3749
G01 X7.0314 Y15.3881
G01 X7.0215 Y15.4004
G01 X7.0104 Y15.4115
G01 X6.9981 Y15.4214
G01 X6.9849 Y15.4299
G01 X6.9709 Y15.4371
G01 X6.9563 Y15.4427
G01 X6.9411 Y15.4467
G01 X6.9257 Y15.4492
G01 X6.9100 Y15.4500
G01 X4.3700 Y15.4500
G01 X4.3543 Y15.4492
G01 X4.3389 Y15.4467
G01 X4.3237 Y15.4427
G01 X4.3091 Y15.4371
G01 X4.2951 Y15.4299
G01 X4.2819 Y15.4214
G01 X4.2696 Y15.4115
G01 X4.2585 Y15.4004
G01 X4.2486 Y15.3881
G01 X4.2401 Y15.3749
G01 X4.2329 Y15.3609
G01 X4.2273 Y15.3463
G01 X4.2233 Y15.3311
G01 X4.2208 Y15.3157
G01 X4.2200 Y15.3000
G00 Z2.0000
G00 X12.7276 Y9.9636
G01 F60.00
G01 Z-2.4000
G01 F120.00
G01 X12.7419 Y9.9475
G01 X13.2775 Y9.4119
G01 X13.2936 Y9.3976
G01 X13.3112 Y9.3855
G01 X13.3302 Y9.3757
G01 X13.3472 Y9.3691
G01 X13.3649 Y9.3644
G01 X13.3830 Y9.3616
G01 X13.4012 Y9.3606
G01 X14.1588 Y9.3606
G01 X14.1770 Y9.3616
G01 X14.1951 Y9.3644
G01 X14.2128 Y9.3691
G01 X14.2298 Y9.3757
G01 X14.2488 Y9.3855
G01 X14.2664 Y9.3976
G01 X14.2825 Y9.4119
G01 X14.8181 Y9.9475
G01 X14.8324 Y9.9636
G01 X14.8445 Y9.9812
G01 X14.8543 Y10.0002
G01 X14.8609 Y10.0172
G01 X14.8656 Y10.0349
G01 X14.8684 Y10.0530
G01 X14.8694 Y10.0712
G01 X14.8694 Y10.8288
G01 X14.8684 Y10.8470
G01 X14.8656 Y10.8651
G01 X14.8644 Y10.8695
G01 X15.6655 Y11.6706
G01 X16.1788 Y11.6706
G01 X16.1970 Y11.6716
G01 X16.2151 Y11.6744
G01 X16.2328 Y11.6791
G01 X16.2498 Y11.6857
G01 X16.2688 Y11.6955
G01 X16.2864 Y11.7076
G01 X16.3025 Y11.7219
G01 X16.6654 Y12.0847
G01 X17.1450 Y12.0847
G01 X17.1450 Y9.9900
G01 X17.1460 Y9.9717
G01 X17.1488 Y9.9537
G01 X17.1535 Y9.9360
G01 X17.1601 Y9.9189
G01 X17.1684 Y9.9026
G01 X17.1784 Y9.8872
G01 X17.1899 Y9.8729
G01 X17.2029 Y9.8599
G01 X17.2172 Y9.8484
G01 X17.2326 Y9.8384
G01 X17.2489 Y9.8301
G01 X17.2660 Y9.8235
G01 X17.2837 Y9.8188
G01 X17.3017 Y9.8160
G01 X17.3200 Y9.8150
G01 X19.8600 Y9.8150
G01 X19.8783 Y9.8160
G01 X19.8963 Y9.8188
G01 X19.9140 Y9.8235
G01 X19.9311 Y9.8301
G01 X19.9474 Y9.8384
G01 X19.9628 Y9.8484
G01 X19.9771 Y9.8599
G01 X19.9901 Y9.8729
G01 X20.0016 Y9.8872
G01 X20.0116 Y9.9026
G01 X20.0199 Y9.9189
G01 X20.0265 Y9.9360
G01 X20.0312 Y9.9537
G01 X20.0340 Y9.9717
G01 X20.0350 Y9.9900
G01 X20.0350 Y15.0700
G01 X20.0340 Y15.0883
G01 X20.0312 Y15.1063
G01 X20.0265 Y15.1240
G01 X20.0199 Y15.1411
G01 X20.0116 Y15.1574
G01 X20.0016 Y15.1728
G01 X19.9901 Y15.1871
G01 X19.9771 Y15.2001
G01 X19.9628 Y15.2116
G01 X19.9474 Y15.2216
G01 X19.9311 Y15.2299
G01 X19.9140 Y15.2365
G01 X19.8963 Y15.2412
G01 X19.8783 Y15.2440
G01 X19.8600 Y15.2450
G01 X17.3200 Y15.2450
G01 X17.3017 Y15.2440
G01 X17.2837 Y15.2412
G01 X17.2660 Y15.2365
G01 X17.2489 Y15.2299
G01 X17.2326 Y15.2216
G01 X17.2172 Y15.2116
G01 X17.2029 Y15.2001
G01 X17.1899 Y15.1871
G01 X17.1784 Y15.1728
G01 X17.1684 Y15.1574
G01 X17.1601 Y15.1411
G01 X17.1535 Y15.1240
G01 X17.1488 Y15.1063
G01 X17.1460 Y15.0883
G01 X17.1450 Y15.0700
G01 X17.1450 Y13.4353
G01 X16.6654 Y13.4353
G01 X16.3025 Y13.7981
G01 X16.2864 Y13.8124
G01 X16.2688 Y13.8245
G01 X16.2498 Y13.8343
G01 X16.2328 Y13.8409
G01 X16.2151 Y13.8456
G01 X16.1970 Y13.8484
G01 X16.1788 Y13.8494
G01 X15.4212 Y13.8494
G01 X15.4030 Y13.8484
G01 X15.3849 Y13.8456
G01 X15.3672 Y13.8409
G01 X15.3502 Y13.8343
G01 X15.3312 Y13.8245
G01 X15.3136 Y13.8124
G01 X15.2975 Y13.7981
G01 X14.7619 Y13.2625
G01 X14.7476 Y13.2464
G01 X14.7355 Y13.2288
G01 X14.7257 Y13.2098
G01 X14.7191 Y13.1928
G01 X14.7144 Y13.1751
G01 X14.7116 Y13.1570
G01 X14.7106 Y13.1388
G01 X14.7106 Y12.6255
G01 X13.6245 Y11.5394
G01 X13.4012 Y11.5394
G01 X13.3830 Y11.5384
G01 X13.3649 Y11.5356
G01 X13.3472 Y11.5309
G01 X13.3302 Y11.5243
G01 X13.3112 Y11.5145
G01 X13.2936 Y11.5024
G01 X13.2775 Y11.4881
G01 X12.7419 Y10.9525
G01 X12.7276 Y10.9364
G01 X12.7155 Y10.9188
G01 X12.7057 Y10.8998
G01 X12.6991 Y10.8828
G01 X12.6944 Y10.8651
G01 X12.6916 Y10.8470
G01 X12.6906 Y10.8288
G01 X12.6906 Y10.0712
G01 X12.6916 Y10.0530
G01 X12.6944 Y10.0349
G01 X12.6991 Y10.0172
G01 X12.7057 Y10.0002
G01 X12.7155 Y9.9812
G01 X12.7276 Y9.9636
G00 Z2.0000
G00 X16.2285 Y8.1275
G01 F60.00
G01 Z-2.4000
G01 F120.00
G01 X16.2488 Y8.1045
G01 X16.7845 Y7.5688
G01 X16.8075 Y7.5485
G01 X16.8326 Y7.5312
G01 X16.8597 Y7.5171
G01 X16.8841 Y7.5078
G01 X16.9093 Y7.5010
G01 X16.9352 Y7.4970
G01 X16.9612 Y7.4956
G01 X17.4434 Y7.4956
G01 X18.0595 Y6.8795
G01 X18.0686 Y6.8712
G01 X18.0684 Y6.8710
G01 X18.1099 Y6.8335
G01 X18.1237 Y6.8225
G01 X18.1632 Y6.7933
G01 X18.1734 Y6.7860
G01 X18.2257 Y6.7544
G01 X18.2424 Y6.7452
G01 X18.2970 Y6.7194
G01 X18.3143 Y6.7124
G01 X18.3606 Y6.6959
G01 X18.3729 Y6.6918
G01 X18.4382 Y6.6753
G01 X18.4557 Y6.6721
G01 X18.5161 Y6.6634
G01 X18.5287 Y6.6625
G01 X18.5777 Y6.6601
G01 X18.5900 Y6.6597
G01 X19.5950 Y6.6597
G01 X19.6535 Y6.5952
G01 X19.6619 Y6.5863
G01 X19.6708 Y6.5779
G01 X19.7425 Y6.5130
G01 X19.7563 Y6.5020
G01 X19.8284 Y6.4485
G01 X19.8387 Y6.4413
G01 X19.8488 Y6.4349
G01 X19.9258 Y6.3887
G01 X19.9425 Y6.3796
G01 X20.0340 Y6.3363
G01 X20.0513 Y6.3294
G01 X20.1358 Y6.2992
G01 X20.1482 Y6.2951
G01 X20.2529 Y6.2687
G01 X20.2704 Y6.2654
G01 X20.3711 Y6.2508
G01 X20.3837 Y6.2498
G01 X20.4733 Y6.2454
G01 X20.4856 Y6.2451
G01 X22.3144 Y6.2451
G01 X22.3267 Y6.2454
G01 X22.4163 Y6.2498
G01 X22.4289 Y6.2508
G01 X22.5296 Y6.2654
G01 X22.5536 Y6.2702
G01 X22.6407 Y6.2920
G01 X22.6518 Y6.2951
G01 X22.6642 Y6.2992
G01 X22.7487 Y6.3294
G01 X22.7660 Y6.3363
G01 X22.8525 Y6.3772
G01 X22.8742 Y6.3887
G01 X22.9512 Y6.4349
G01 X22.9613 Y6.4413
G01 X22.9716 Y6.4485
G01 X23.0437 Y6.5020
G01 X23.0627 Y6.5176
G01 X23.1292 Y6.5779
G01 X23.1381 Y6.5863
G01 X23.1465 Y6.5952
G01 X23.2114 Y6.6669
G01 X23.2224 Y6.6807
G01 X23.2759 Y6.7528
G01 X23.2831 Y6.7631
G01 X23.2895 Y6.7732
G01 X23.3357 Y6.8502
G01 X23.3448 Y6.8669
G01 X23.3881 Y6.9584
G01 X23.3950 Y6.9757
G01 X23.4252 Y7.0602
G01 X23.4293 Y7.0726
G01 X23.4324 Y7.0837
G01 X23.4557 Y7.1773
G01 X23.4590 Y7.1948
G01 X23.4736 Y7.2955
G01 X23.4746 Y7.3081
G01 X23.4790 Y7.3977
G01 X23.4793 Y7.4100
G01 X23.4790 Y7.4223
G01 X23.4746 Y7.5119
G01 X23.4736 Y7.5245
G01 X23.4590 Y7.6252
G01 X23.4557 Y7.6427
G01 X23.4324 Y7.7363
G01 X23.4293 Y7.7474
G01 X23.4252 Y7.7598
G01 X23.3950 Y7.8443
G01 X23.3856 Y7.8670
G01 X23.3448 Y7.9531
G01 X23.3357 Y7.9698
G01 X23.2895 Y8.0468
G01 X23.2831 Y8.0569
G01 X23.2759 Y8.0672
G01 X23.2224 Y8.1393
G01 X23.2114 Y8.1531
G01 X23.1465 Y8.2248
G01 X23.1381 Y8.2337
G01 X23.1292 Y8.2421
G01 X23.0575 Y8.3070
G01 X23.0437 Y8.3180
G01 X22.9716 Y8.3715
G01 X22.9613 Y8.3787
G01 X22.9512 Y8.3851
G01 X22.8742 Y8.4313
G01 X22.8575 Y8.4404
G01 X22.7660 Y8.4837
G01 X22.7487 Y8.4906
G01 X22.6642 Y8.5208
G01 X22.6518 Y8.5249
G01 X22.5471 Y8.5513
G01 X22.5296 Y8.5546
G01 X22.4289 Y8.5692
G01 X22.4163 Y8.5702
G01 X22.3267 Y8.5746
G01 X22.3144 Y8.5749
G01 X20.4856 Y8.5749
G01 X20.4733 Y8.5746
G01 X20.3837 Y8.5702
G01 X20.3711 Y8.5692
G01 X20.2704 Y8.5546
G01 X20.2529 Y8.5513
G01 X20.1482 Y8.5249
G01 X20.1358 Y8.5208
G01 X20.0513 Y8.4906
G01 X20.0340 Y8.4837
G01 X19.9425 Y8.4404
G01 X19.9258 Y8.4313
G01 X19.8488 Y8.3851
G01 X19.8387 Y8.3787
G01 X19.8284 Y8.3715
G01 X19.7563 Y8.3180
G01 X19.7425 Y8.3070
G01 X19.6708 Y8.2421
G01 X19.6619 Y8.2337
G01 X19.6535 Y8.2248
G01 X19.5950 Y8.1603
G01 X18.9008 Y8.1603
G01 X18.5044 Y8.5566
G01 X18.5044 Y9.0388
G01 X18.5030 Y9.0648
G01 X18.4990 Y9.0907
G01 X18.4922 Y9.1159
G01 X18.4828 Y9.1403
G01 X18.4688 Y9.1674
G01 X18.4515 Y9.1925
G01 X18.4312 Y9.2155
G01 X17.8955 Y9.7512
G01 X17.8725 Y9.7715
G01 X17.8474 Y9.7888
G01 X17.8203 Y9.8029
G01 X17.7959 Y9.8122
G01 X17.7707 Y9.8190
G01 X17.7448 Y9.8230
G01 X17.7188 Y9.8244
G01 X16.9612 Y9.8244
G01 X16.9352 Y9.8230
G01 X16.9093 Y9.8190
G01 X16.8841 Y9.8122
G01 X16.8597 Y9.8029
G01 X16.8326 Y9.7888
G01 X16.8075 Y9.7715
G01 X16.7845 Y9.7512
G01 X16.2488 Y9.2155
G01 X16.2285 Y9.1925
G01 X16.2112 Y9.1674
G01 X16.1971 Y9.1403
G01 X16.1878 Y9.1159
G01 X16.1810 Y9.0907
G01 X16.1770 Y9.0648
G01 X16.1756 Y9.0388
G01 X16.1756 Y8.2812
G01 X16.1770 Y8.2552
G01 X16.1810 Y8.2293
G01 X16.1878 Y8.2041
G01 X16.1971 Y8.1797
G01 X16.2112 Y8.1526
G01 X16.2285 Y8.1275
G00 Z2.0000
G00 X21.4400 Y9.7750
G01 F60.00
G01 Z-2.4000
G01 F120.00
G01 X22.4701 Y9.7750
G01 X23.4247 Y8.8203
G01 X23.4247 Y5.8797
G01 X23.1330 Y5.5880
G01 X23.0850 Y5.6406
G01 X23.0123 Y5.7069
G01 X22.9990 Y5.7178
G01 X22.9197 Y5.7763
G01 X22.8356 Y5.8269
G01 X22.8239 Y5.8334
G01 X22.7356 Y5.8751
G01 X22.7235 Y5.8800
G01 X22.6303 Y5.9131
G01 X22.5308 Y5.9381
G01 X22.5186 Y5.9404
G01 X22.4297 Y5.9536
G01 X22.4127 Y5.9552
G01 X22.3144 Y5.9599
G01 X20.4856 Y5.9599
G01 X20.3873 Y5.9552
G01 X20.3703 Y5.9536
G01 X20.2814 Y5.9404
G01 X20.2692 Y5.9381
G01 X20.1775 Y5.9152
G01 X20.1611 Y5.9102
G01 X20.0765 Y5.8800
G01 X20.0644 Y5.8751
G01 X19.9795 Y5.8350
G01 X19.9644 Y5.8269
G01 X19.8803 Y5.7763
G01 X19.8010 Y5.7178
G01 X19.7877 Y5.7069
G01 X19.7150 Y5.6406
G01 X19.6455 Y5.5643
G01 X19.6378 Y5.5546
G01 X19.5844 Y5.4825
G01 X19.5748 Y5.4682
G01 X19.5287 Y5.3912
G01 X19.5222 Y5.3795
G01 X19.4805 Y5.2912
G01 X19.4756 Y5.2791
G01 X19.4454 Y5.1945
G01 X19.4404 Y5.1781
G01 X19.4175 Y5.0864
G01 X19.4152 Y5.0742
G01 X19.4010 Y4.9771
G01 X19.3957 Y4.8700
G01 X19.4004 Y4.7717
G01 X19.4020 Y4.7547
G01 X19.4152 Y4.6658
G01 X19.4175 Y4.6536
G01 X19.4404 Y4.5619
G01 X19.4454 Y4.5455
G01 X19.4756 Y4.4609
G01 X19.4805 Y4.4488
G01 X19.5222 Y4.3605
G01 X19.5287 Y4.3488
G01 X19.5748 Y4.2718
G01 X19.5844 Y4.2575
G01 X19.6378 Y4.1854
G01 X19.6455 Y4.1757
G01 X19.7150 Y4.0994
G01 X19.7913 Y4.0299
G01 X19.8010 Y4.0222
G01 X19.8731 Y3.9688
G01 X19.8874 Y3.9592
G01 X19.9644 Y3.9131
G01 X19.9761 Y3.9066
G01 X20.0644 Y3.8649
G01 X20.0765 Y3.8600
G01 X20.1611 Y3.8298
G01 X20.1775 Y3.8248
G01 X20.2692 Y3.8019
G01 X20.2814 Y3.7996
G01 X20.3785 Y3.7854
G01 X20.4856 Y3.7801
G01 X22.3144 Y3.7801
G01 X22.4215 Y3.7854
G01 X22.5186 Y3.7996
G01 X22.5354 Y3.8030
G01 X22.6225 Y3.8248
G01 X22.6389 Y3.8298
G01 X22.7235 Y3.8600
G01 X22.7356 Y3.8649
G01 X22.8205 Y3.9050
G01 X22.8356 Y3.9131
G01 X22.9197 Y3.9637
G01 X22.9990 Y4.0222
G01 X23.0087 Y4.0299
G01 X23.0788 Y4.0934
G01 X23.0910 Y4.1056
G01 X23.1513 Y4.1721
G01 X23.1622 Y4.1854
G01 X23.1691 Y4.1947
G01 X23.3786 Y4.1950
G01 X23.4364 Y4.1980
G01 X23.4933 Y4.2063
G01 X23.5101 Y4.2096
G01 X23.5655 Y4.2237
G01 X23.6204 Y4.2431
G01 X23.6325 Y4.2479
G01 X23.6806 Y4.2706
G01 X23.6958 Y4.2787
G01 X23.7450 Y4.3084
G01 X23.7916 Y4.3427
G01 X23.8049 Y4.3536
G01 X23.8475 Y4.3925
G01 X24.5775 Y5.1225
G01 X24.6164 Y5.1651
G01 X24.6273 Y5.1784
G01 X24.6616 Y5.2250
G01 X24.6913 Y5.2742
G01 X24.6977 Y5.2859
G01 X24.7221 Y5.3375
G01 X24.7269 Y5.3496
G01 X24.7435 Y5.3958
G01 X24.7485 Y5.4123
G01 X24.7604 Y5.4599
G01 X24.7637 Y5.4767
G01 X24.7720 Y5.5336
G01 X24.7753 Y5.6000
G01 X24.7753 Y9.1000
G01 X24.7726 Y9.1576
G01 X24.7709 Y9.1747
G01 X24.7637 Y9.2233
G01 X24.7604 Y9.2401
G01 X24.7463 Y9.2955
G01 X24.7269 Y9.3504
G01 X24.7204 Y9.3663
G01 X24.6977 Y9.4141
G01 X24.6913 Y9.4258
G01 X24.6660 Y9.4679
G01 X24.6565 Y9.4822
G01 X24.6273 Y9.5216
G01 X24.6196 Y9.5312
G01 X24.5775 Y9.5775
G01 X24.1550 Y9.9999
G01 X24.1550 Y15.0300
G01 X24.1540 Y15.0483
G01 X24.1512 Y15.0663
G01 X24.1465 Y15.0840
G01 X24.1399 Y15.1011
G01 X24.1316 Y15.1174
G01 X24.1216 Y15.1328
G01 X24.1101 Y15.1471
G01 X24.0971 Y15.1601
G01 X24.0828 Y15.1716
G01 X24.0674 Y15.1816
G01 X24.0511 Y15.1899
G01 X24.0340 Y15.1965
G01 X24.0163 Y15.2012
G01 X23.9983 Y15.2040
G01 X23.9800 Y15.2050
G01 X21.4400 Y15.2050
G01 X21.4217 Y15.2040
G01 X21.4037 Y15.2012
G01 X21.3860 Y15.1965
G01 X21.3689 Y15.1899
G01 X21.3526 Y15.1816
G01 X21.3372 Y15.1716
G01 X21.3229 Y15.1601
G01 X21.3099 Y15.1471
G01 X21.2984 Y15.1328
G01 X21.2884 Y15.1174
G01 X21.2801 Y15.1011
G01 X21.2735 Y15.0840
G01 X21.2688 Y15.0663
G01 X21.2660 Y15.0483
G01 X21.2650 Y15.0300
G01 X21.2650 Y9.9500
G01 X21.2660 Y9.9317
G01 X21.2688 Y9.9137
G01 X21.2735 Y9.8960
G01 X21.2801 Y9.8789
G01 X21.2884 Y9.8626
G01 X21.2984 Y9.8472
G01 X21.3099 Y9.8329
G01 X21.3229 Y9.8199
G01 X21.3372 Y9.8084
G01 X21.3526 Y9.7984
G01 X21.3689 Y9.7901
G01 X21.3860 Y9.7835
G01 X21.4037 Y9.7788
G01 X21.4217 Y9.7760
G01 X21.4400 Y9.7750
G00 Z2.0000
M05
G00 Z2.0000
G00 Z15.00
G00 X0.0 Y0.0

(TOOL DIAMETER: 0.35 mm)
(Feedrate: 120.0 mm/min)
(Feedrate_Z: 60.0 mm/min)
(Feedrate rapids 1500.0 mm/min)

(Z_Cut: -2.4 mm)
(Z_Move: 2.0 mm)
(Z Toolchange: 15.0 mm)
(X,Y Toolchange: 0.0000, 0.0000 mm)
(Z Start: None mm)
(Z End: 15.0 mm)
(Steps per circle: 64)
(Preprocessor Geometry: default)

(X range:    0.4100 ...   24.7753  mm)
(Y range:   -0.5503 ...   15.4500  mm)

(Spindle Speed: None RPM)
G21
G90
G94

G01 F120.00
G00 Z2.0000

M03
G00 X2.5849 Y0.4576
G01 F60.00
G01 Z-2.4000
G01 F120.00
G01 X2.5879 Y0.4010
G01 X2.5960 Y0.3454
G01 X2.5979 Y0.3349
G01 X2.6126 Y0.2767
G01 X2.6316 Y0.2230
G01 X2.6358 Y0.2126
G01 X2.6597 Y0.1621
G01 X2.6652 Y0.1521
G01 X2.6942 Y0.1039
G01 X2.7278 Y0.0583
G01 X2.7344 Y0.0500
G01 X2.7752 Y0.0052
G01 X3.1402 Y-0.3598
G01 X3.1850 Y-0.4006
G01 X3.1933 Y-0.4072
G01 X3.2327 Y-0.4364
G01 X3.2450 Y-0.4446
G01 X3.2871 Y-0.4698
G01 X3.2971 Y-0.4753
G01 X3.3444 Y-0.4978
G01 X3.3580 Y-0.5034
G01 X3.4117 Y-0.5224
G01 X3.4660 Y-0.5361
G01 X3.4804 Y-0.5390
G01 X3.5290 Y-0.5462
G01 X3.5436 Y-0.5477
G01 X3.6000 Y-0.5503
G01 X16.5000 Y-0.5503
G01 X16.5564 Y-0.5477
G01 X16.5710 Y-0.5462
G01 X16.6196 Y-0.5390
G01 X16.6340 Y-0.5361
G01 X16.6883 Y-0.5224
G01 X16.7420 Y-0.5034
G01 X16.7556 Y-0.4978
G01 X16.8029 Y-0.4753
G01 X16.8129 Y-0.4698
G01 X16.8550 Y-0.4446
G01 X16.8673 Y-0.4364
G01 X16.9067 Y-0.4072
G01 X16.9150 Y-0.4006
G01 X16.9598 Y-0.3598
G01 X17.2952 Y-0.0244
G01 X17.7188 Y-0.0244
G01 X17.7344 Y-0.0236
G01 X17.7499 Y-0.0211
G01 X17.7650 Y-0.0171
G01 X17.7797 Y-0.0115
G01 X17.7959 Y-0.0030
G01 X17.8110 Y0.0073
G01 X17.8248 Y0.0195
G01 X18.3605 Y0.5552
G01 X18.3727 Y0.5690
G01 X18.3830 Y0.5841
G01 X18.3915 Y0.6003
G01 X18.3971 Y0.6150
G01 X18.4011 Y0.6301
G01 X18.4036 Y0.6456
G01 X18.4044 Y0.6612
G01 X18.4044 Y1.4188
G01 X18.4036 Y1.4344
G01 X18.4011 Y1.4499
G01 X18.3971 Y1.4650
G01 X18.3915 Y1.4797
G01 X18.3830 Y1.4959
G01 X18.3727 Y1.5110
G01 X18.3605 Y1.5248
G01 X17.8248 Y2.0605
G01 X17.8110 Y2.0727
G01 X17.7959 Y2.0830
G01 X17.7797 Y2.0915
G01 X17.7650 Y2.0971
G01 X17.7499 Y2.1011
G01 X17.7344 Y2.1036
G01 X17.7188 Y2.1044
G01 X16.9612 Y2.1044
G01 X16.9456 Y2.1036
G01 X16.9301 Y2.1011
G01 X16.9150 Y2.0971
G01 X16.9003 Y2.0915
G01 X16.8841 Y2.0830
G01 X16.8690 Y2.0727
G01 X16.8552 Y2.0605
G01 X16.3195 Y1.5248
G01 X16.3073 Y1.5110
G01 X16.2970 Y1.4959
G01 X16.2885 Y1.4797
G01 X16.2829 Y1.4650
G01 X16.2789 Y1.4499
G01 X16.2764 Y1.4344
G01 X16.2756 Y1.4188
G01 X16.2756 Y0.7952
G01 X16.2307 Y0.7503
G01 X3.8853 Y0.7503
G01 X3.8853 Y2.0666
G01 X3.8821 Y2.1306
G01 X3.8740 Y2.1862
G01 X3.8721 Y2.1967
G01 X3.8592 Y2.2483
G01 X3.8549 Y2.2623
G01 X3.8384 Y2.3086
G01 X3.8342 Y2.3190
G01 X3.8103 Y2.3695
G01 X3.8048 Y2.3795
G01 X3.7758 Y2.4277
G01 X3.7422 Y2.4733
G01 X3.7356 Y2.4816
G01 X3.7152 Y2.5042
G01 X3.7152 Y3.0826
G01 X3.7144 Y3.0983
G01 X3.7119 Y3.1137
G01 X3.7079 Y3.1289
G01 X3.7023 Y3.1435
G01 X3.6951 Y3.1575
G01 X3.6866 Y3.1707
G01 X3.6767 Y3.1830
G01 X3.6656 Y3.1941
G01 X3.6533 Y3.2040
G01 X3.6401 Y3.2125
G01 X3.6261 Y3.2197
G01 X3.6115 Y3.2253
G01 X3.5963 Y3.2293
G01 X3.5809 Y3.2318
G01 X3.5652 Y3.2326
G01 X2.9048 Y3.2326
G01 X2.8891 Y3.2318
G01 X2.8737 Y3.2293
G01 X2.8585 Y3.2253
G01 X2.8439 Y3.2197
G01 X2.8299 Y3.2125
G01 X2.8167 Y3.2040
G01 X2.8044 Y3.1941
G01 X2.7933 Y3.1830
G01 X2.7834 Y3.1707
G01 X2.7749 Y3.1575
G01 X2.7677 Y3.1435
G01 X2.7621 Y3.1289
G01 X2.7581 Y3.1137
G01 X2.7556 Y3.0983
G01 X2.7548 Y3.0826
G01 X2.7548 Y2.5042
G01 X2.7344 Y2.4816
G01 X2.7278 Y2.4733
G01 X2.6942 Y2.4277
G01 X2.6652 Y2.3795
G01 X2.6597 Y2.3695
G01 X2.6358 Y2.3190
G01 X2.6316 Y2.3086
G01 X2.6151 Y2.2623
G01 X2.6108 Y2.2483
G01 X2.5979 Y2.1967
G01 X2.5960 Y2.1862
G01 X2.5879 Y2.1306
G01 X2.5847 Y2.0666
G01 X2.5849 Y0.4576
G00 Z2.0000
G00 X4.1748 Y0.8006
G01 F60.00
G01 Z-2.4000
G01 F120.00
G01 X4.8352 Y0.8006
G01 X4.8613 Y0.8020
G01 X4.8871 Y0.8060
G01 X4.9123 Y0.8128
G01 X4.9367 Y0.8221
G01 X4.9601 Y0.8340
G01 X4.9821 Y0.8483
G01 X5.0025 Y0.8648
G01 X5.0210 Y0.8833
G01 X5.0375 Y0.9037
G01 X5.0518 Y0.9257
G01 X5.0637 Y0.9491
G01 X5.0730 Y0.9735
G01 X5.0798 Y0.9987
G01 X5.0838 Y1.0245
G01 X5.0852 Y1.0506
G01 X5.0852 Y3.0826
G01 X5.0838 Y3.1087
G01 X5.0798 Y3.1345
G01 X5.0730 Y3.1597
G01 X5.0637 Y3.1841
G01 X5.0518 Y3.2075
G01 X5.0375 Y3.2295
G01 X5.0210 Y3.2499
G01 X5.0025 Y3.2684
G01 X4.9821 Y3.2849
G01 X4.9601 Y3.2992
G01 X4.9367 Y3.3111
G01 X4.9123 Y3.3204
G01 X4.8871 Y3.3272
G01 X4.8613 Y3.3312
G01 X4.8352 Y3.3326
G01 X4.1748 Y3.3326
G01 X4.1487 Y3.3312
G01 X4.1229 Y3.3272
G01 X4.0977 Y3.3204
G01 X4.0733 Y3.3111
G01 X4.0499 Y3.2992
G01 X4.0279 Y3.2849
G01 X4.0075 Y3.2684
G01 X3.9890 Y3.2499
G01 X3.9725 Y3.2295
G01 X3.9582 Y3.2075
G01 X3.9463 Y3.1841
G01 X3.9370 Y3.1597
G01 X3.9302 Y3.1345
G01 X3.9262 Y3.1087
G01 X3.9248 Y3.0826
G01 X3.9248 Y1.0506
G01 X3.9262 Y1.0245
G01 X3.9302 Y0.9987
G01 X3.9370 Y0.9735
G01 X3.9463 Y0.9491
G01 X3.9582 Y0.9257
G01 X3.9725 Y0.9037
G01 X3.9890 Y0.8833
G01 X4.0075 Y0.8648
G01 X4.0279 Y0.8483
G01 X4.0499 Y0.8340
G01 X4.0733 Y0.8221
G01 X4.0977 Y0.8128
G01 X4.1229 Y0.8060
G01 X4.1487 Y0.8020
G01 X4.1748 Y0.8006
G00 Z2.0000
G00 X6.7148 Y0.8006
G01 F60.00
G01 Z-2.4000
G01 F120.00
G01 X7.3752 Y0.8006
G01 X7.4013 Y0.8020
G01 X7.4271 Y0.8060
G01 X7.4523 Y0.8128
G01 X7.4767 Y0.8221
G01 X7.5001 Y0.8340
G01 X7.5221 Y0.8483
G01 X7.5425 Y0.8648
G01 X7.5610 Y0.8833
G01 X7.5775 Y0.9037
G01 X7.5918 Y0.9257
G01 X7.6037 Y0.9491
G01 X7.6130 Y0.9735
G01 X7.6198 Y0.9987
G01 X7.6238 Y1.0245
G01 X7.6252 Y1.0506
G01 X7.6252 Y3.0826
G01 X7.6238 Y3.1087
G01 X7.6198 Y3.1345
G01 X7.6130 Y3.1597
G01 X7.6037 Y3.1841
G01 X7.5918 Y3.2075
G01 X7.5775 Y3.2295
G01 X7.5610 Y3.2499
G01 X7.5425 Y3.2684
G01 X7.5221 Y3.2849
G01 X7.5001 Y3.2992
G01 X7.4767 Y3.3111
G01 X7.4523 Y3.3204
G01 X7.4271 Y3.3272
G01 X7.4013 Y3.3312
G01 X7.3752 Y3.3326
G01 X6.7148 Y3.3326
G01 X6.6887 Y3.3312
G01 X6.6629 Y3.3272
G01 X6.6377 Y3.3204
G01 X6.6133 Y3.3111
G01 X6.5899 Y3.2992
G01 X6.5679 Y3.2849
G01 X6.5475 Y3.2684
G01 X6.5290 Y3.2499
G01 X6.5125 Y3.2295
G01 X6.4982 Y3.2075
G01 X6.4863 Y3.1841
G01 X6.4770 Y3.1597
G01 X6.4702 Y3.1345
G01 X6.4662 Y3.1087
G01 X6.4648 Y3.0826
G01 X6.4648 Y1.0506
G01 X6.4662 Y1.0245
G01 X6.4702 Y0.9987
G01 X6.4770 Y0.9735
G01 X6.4863 Y0.9491
G01 X6.4982 Y0.9257
G01 X6.5125 Y0.9037
G01 X6.5290 Y0.8833
G01 X6.5475 Y0.8648
G01 X6.5679 Y0.8483
G01 X6.5899 Y0.8340
G01 X6.6133 Y0.8221
G01 X6.6377 Y0.8128
G01 X6.6629 Y0.8060
G01 X6.6887 Y0.8020
G01 X6.7148 Y0.8006
G00 Z2.0000
G00 X7.9848 Y0.8006
G01 F60.00
G01 Z-2.4000
G01 F120.00
G01 X8.6452 Y0.8006
G01 X8.6713 Y0.8020
G01 X8.6971 Y0.8060
G01 X8.7223 Y0.8128
G01 X8.7467 Y0.8221
G01 X8.7701 Y0.8340
G01 X8.7921 Y0.8483
G01 X8.8125 Y0.8648
G01 X8.8310 Y0.8833
G01 X8.8475 Y0.9037
G01 X8.8618 Y0.9257
G01 X8.8737 Y0.9491
G01 X8.8830 Y0.9735
G01 X8.8898 Y0.9987
G01 X8.8938 Y1.0245
G01 X8.8952 Y1.0506
G01 X8.8952 Y3.0826
G01 X8.8938 Y3.1087
G01 X8.8898 Y3.1345
G01 X8.8830 Y3.1597
G01 X8.8737 Y3.1841
G01 X8.8618 Y3.2075
G01 X8.8475 Y3.2295
G01 X8.8310 Y3.2499
G01 X8.8125 Y3.2684
G01 X8.7921 Y3.2849
G01 X8.7701 Y3.2992
G01 X8.7467 Y3.3111
G01 X8.7223 Y3.3204
G01 X8.6971 Y3.3272
G01 X8.6713 Y3.3312
G01 X8.6452 Y3.3326
G01 X7.9848 Y3.3326
G01 X7.9587 Y3.3312
G01 X7.9329 Y3.3272
G01 X7.9077 Y3.3204
G01 X7.8833 Y3.3111
G01 X7.8599 Y3.2992
G01 X7.8379 Y3.2849
G01 X7.8175 Y3.2684
G01 X7.7990 Y3.2499
G01 X7.7825 Y3.2295
G01 X7.7682 Y3.2075
G01 X7.7563 Y3.1841
G01 X7.7470 Y3.1597
G01 X7.7402 Y3.1345
G01 X7.7362 Y3.1087
G01 X7.7348 Y3.0826
G01 X7.7348 Y1.0506
G01 X7.7362 Y1.0245
G01 X7.7402 Y0.9987
G01 X7.7470 Y0.9735
G01 X7.7563 Y0.9491
G01 X7.7682 Y0.9257
G01 X7.7825 Y0.9037
G01 X7.7990 Y0.8833
G01 X7.8175 Y0.8648
G01 X7.8379 Y0.8483
G01 X7.8599 Y0.8340
G01 X7.8833 Y0.8221
G01 X7.9077 Y0.8128
G01 X7.9329 Y0.8060
G01 X7.9587 Y0.8020
G01 X7.9848 Y0.8006
G00 Z2.0000
G00 X9.2548 Y0.8006
G01 F60.00
G01 Z-2.4000
G01 F120.00
G01 X9.9152 Y0.8006
G01 X9.9413 Y0.8020
G01 X9.9671 Y0.8060
G01 X9.9923 Y0.8128
G01 X10.0167 Y0.8221
G01 X10.0401 Y0.8340
G01 X10.0621 Y0.8483
G01 X10.0825 Y0.8648
G01 X10.1010 Y0.8833
G01 X10.1175 Y0.9037
G01 X10.1318 Y0.9257
G01 X10.1437 Y0.9491
G01 X10.1530 Y0.9735
G01 X10.1598 Y0.9987
G01 X10.1638 Y1.0245
G01 X10.1652 Y1.0506
G01 X10.1652 Y3.0826
G01 X10.1638 Y3.1087
G01 X10.1598 Y3.1345
G01 X10.1530 Y3.1597
G01 X10.1437 Y3.1841
G01 X10.1318 Y3.2075
G01 X10.1175 Y3.2295
G01 X10.1010 Y3.2499
G01 X10.0825 Y3.2684
G01 X10.0621 Y3.2849
G01 X10.0401 Y3.2992
G01 X10.0167 Y3.3111
G01 X9.9923 Y3.3204
G01 X9.9671 Y3.3272
G01 X9.9413 Y3.3312
G01 X9.9152 Y3.3326
G01 X9.2548 Y3.3326
G01 X9.2287 Y3.3312
G01 X9.2029 Y3.3272
G01 X9.1777 Y3.3204
G01 X9.1533 Y3.3111
G01 X9.1299 Y3.2992
G01 X9.1079 Y3.2849
G01 X9.0875 Y3.2684
G01 X9.0690 Y3.2499
G01 X9.0525 Y3.2295
G01 X9.0382 Y3.2075
G01 X9.0263 Y3.1841
G01 X9.0170 Y3.1597
G01 X9.0102 Y3.1345
G01 X9.0062 Y3.1087
G01 X9.0048 Y3.0826
G01 X9.0048 Y1.0506
G01 X9.0062 Y1.0245
G01 X9.0102 Y0.9987
G01 X9.0170 Y0.9735
G01 X9.0263 Y0.9491
G01 X9.0382 Y0.9257
G01 X9.0525 Y0.9037
G01 X9.0690 Y0.8833
G01 X9.0875 Y0.8648
G01 X9.1079 Y0.8483
G01 X9.1299 Y0.8340
G01 X9.1533 Y0.8221
G01 X9.1777 Y0.8128
G01 X9.2029 Y0.8060
G01 X9.2287 Y0.8020
G01 X9.2548 Y0.8006
G00 Z2.0000
G00 X10.3748 Y2.5042
G01 F60.00
G01 Z-2.4000
G01 F120.00
G01 X10.3544 Y2.4816
G01 X10.3478 Y2.4733
G01 X10.3186 Y2.4339
G01 X10.3104 Y2.4216
G01 X10.2852 Y2.3795
G01 X10.2797 Y2.3695
G01 X10.2572 Y2.3222
G01 X10.2516 Y2.3086
G01 X10.2326 Y2.2549
G01 X10.2179 Y2.1967
G01 X10.2160 Y2.1862
G01 X10.2079 Y2.1306
G01 X10.2049 Y2.0740
G01 X10.2049 Y2.0592
G01 X10.2079 Y2.0026
G01 X10.2160 Y1.9470
G01 X10.2179 Y1.9365
G01 X10.2326 Y1.8783
G01 X10.2516 Y1.8246
G01 X10.2572 Y1.8110
G01 X10.2797 Y1.7637
G01 X10.2852 Y1.7537
G01 X10.3104 Y1.7116
G01 X10.3186 Y1.6993
G01 X10.3478 Y1.6599
G01 X10.3544 Y1.6516
G01 X10.3748 Y1.6290
G01 X10.3748 Y1.0506
G01 X10.3756 Y1.0349
G01 X10.3781 Y1.0195
G01 X10.3821 Y1.0043
G01 X10.3877 Y0.9897
G01 X10.3949 Y0.9757
G01 X10.4034 Y0.9625
G01 X10.4133 Y0.9502
G01 X10.4244 Y0.9391
G01 X10.4367 Y0.9292
G01 X10.4499 Y0.9207
G01 X10.4639 Y0.9135
G01 X10.4785 Y0.9079
G01 X10.4937 Y0.9039
G01 X10.5091 Y0.9014
G01 X10.5248 Y0.9006
G01 X11.1852 Y0.9006
G01 X11.2009 Y0.9014
G01 X11.2163 Y0.9039
G01 X11.2315 Y0.9079
G01 X11.2461 Y0.9135
G01 X11.2601 Y0.9207
G01 X11.2733 Y0.9292
G01 X11.2856 Y0.9391
G01 X11.2967 Y0.9502
G01 X11.3066 Y0.9625
G01 X11.3151 Y0.9757
G01 X11.3223 Y0.9897
G01 X11.3279 Y1.0043
G01 X11.3319 Y1.0195
G01 X11.3344 Y1.0349
G01 X11.3352 Y1.0506
G01 X11.3352 Y1.3452
G01 X11.3460 Y1.3344
G01 X11.3507 Y1.3231
G01 X11.3755 Y1.2708
G01 X11.3810 Y1.2608
G01 X11.4090 Y1.2140
G01 X11.4172 Y1.2017
G01 X11.4497 Y1.1579
G01 X11.4591 Y1.1465
G01 X11.5008 Y1.1008
G01 X11.5465 Y1.0591
G01 X11.5579 Y1.0497
G01 X11.6079 Y1.0129
G01 X11.6608 Y0.9810
G01 X11.6738 Y0.9741
G01 X11.7263 Y0.9493
G01 X11.7367 Y0.9451
G01 X11.7955 Y0.9243
G01 X11.8551 Y0.9092
G01 X11.8695 Y0.9063
G01 X11.9235 Y0.8983
G01 X11.9381 Y0.8969
G01 X12.0000 Y0.8940
G01 X12.0619 Y0.8969
G01 X12.0765 Y0.8983
G01 X12.1305 Y0.9063
G01 X12.1410 Y0.9083
G01 X12.1978 Y0.9224
G01 X12.2119 Y0.9267
G01 X12.2633 Y0.9451
G01 X12.2737 Y0.9493
G01 X12.3292 Y0.9755
G01 X12.3392 Y0.9810
G01 X12.3860 Y1.0090
G01 X12.3983 Y1.0172
G01 X12.4421 Y1.0497
G01 X12.4503 Y1.0563
G01 X12.4992 Y1.1008
G01 X12.5409 Y1.1465
G01 X12.5503 Y1.1579
G01 X12.5871 Y1.2079
G01 X12.6190 Y1.2608
G01 X12.6259 Y1.2738
G01 X12.6507 Y1.3263
G01 X12.6549 Y1.3367
G01 X12.6733 Y1.3881
G01 X12.6776 Y1.4022
G01 X12.6917 Y1.4590
G01 X12.6937 Y1.4695
G01 X12.7017 Y1.5235
G01 X12.7031 Y1.5381
G01 X12.7058 Y1.5926
G01 X12.7058 Y1.6074
G01 X12.7026 Y1.6694
G01 X12.6937 Y1.7305
G01 X12.6908 Y1.7449
G01 X12.6757 Y1.8045
G01 X12.6549 Y1.8633
G01 X12.6493 Y1.8769
G01 X12.6245 Y1.9292
G01 X12.6190 Y1.9392
G01 X12.5871 Y1.9921
G01 X12.5503 Y2.0421
G01 X12.5409 Y2.0535
G01 X12.4992 Y2.0992
G01 X12.4503 Y2.1437
G01 X12.4421 Y2.1503
G01 X12.3921 Y2.1871
G01 X12.3392 Y2.2190
G01 X12.3262 Y2.2259
G01 X12.2769 Y2.2493
G01 X12.2656 Y2.2540
G01 X11.9879 Y2.5315
G01 X11.9515 Y2.5644
G01 X11.9401 Y2.5738
G01 X11.8945 Y2.6074
G01 X11.8463 Y2.6364
G01 X11.8333 Y2.6434
G01 X11.7890 Y2.6644
G01 X11.7754 Y2.6700
G01 X11.7217 Y2.6890
G01 X11.6674 Y2.7027
G01 X11.6530 Y2.7056
G01 X11.5974 Y2.7137
G01 X11.5408 Y2.7167
G01 X11.3352 Y2.7169
G01 X11.3352 Y3.0826
G01 X11.3344 Y3.0983
G01 X11.3319 Y3.1137
G01 X11.3279 Y3.1289
G01 X11.3223 Y3.1435
G01 X11.3151 Y3.1575
G01 X11.3066 Y3.1707
G01 X11.2967 Y3.1830
G01 X11.2856 Y3.1941
G01 X11.2733 Y3.2040
G01 X11.2601 Y3.2125
G01 X11.2461 Y3.2197
G01 X11.2315 Y3.2253
G01 X11.2163 Y3.2293
G01 X11.2009 Y3.2318
G01 X11.1852 Y3.2326
G01 X10.5248 Y3.2326
G01 X10.5091 Y3.2318
G01 X10.4937 Y3.2293
G01 X10.4785 Y3.2253
G01 X10.4639 Y3.2197
G01 X10.4499 Y3.2125
G01 X10.4367 Y3.2040
G01 X10.4244 Y3.1941
G01 X10.4133 Y3.1830
G01 X10.4034 Y3.1707
G01 X10.3949 Y3.1575
G01 X10.3877 Y3.1435
G01 X10.3821 Y3.1289
G01 X10.3781 Y3.1137
G01 X10.3756 Y3.0983
G01 X10.3748 Y3.0826
G01 X10.3748 Y2.5042
G00 Z2.0000
G00 X10.5248 Y6.9474
G01 F60.00
G01 Z-2.4000
G01 F120.00
G01 X11.1852 Y6.9474
G01 X11.2113 Y6.9488
G01 X11.2371 Y6.9528
G01 X11.2623 Y6.9596
G01 X11.2867 Y6.9689
G01 X11.3101 Y6.9808
G01 X11.3321 Y6.9951
G01 X11.3525 Y7.0116
G01 X11.3710 Y7.0301
G01 X11.3875 Y7.0505
G01 X11.4018 Y7.0725
G01 X11.4137 Y7.0959
G01 X11.4230 Y7.1203
G01 X11.4298 Y7.1455
G01 X11.4338 Y7.1713
G01 X11.4352 Y7.1974
G01 X11.4352 Y9.2294
G01 X11.4338 Y9.2555
G01 X11.4298 Y9.2813
G01 X11.4230 Y9.3065
G01 X11.4137 Y9.3309
G01 X11.4018 Y9.3543
G01 X11.3875 Y9.3763
G01 X11.3710 Y9.3967
G01 X11.3525 Y9.4152
G01 X11.3321 Y9.4317
G01 X11.3101 Y9.4460
G01 X11.2867 Y9.4579
G01 X11.2623 Y9.4672
G01 X11.2371 Y9.4740
G01 X11.2113 Y9.4780
G01 X11.1852 Y9.4794
G01 X10.5248 Y9.4794
G01 X10.4987 Y9.4780
G01 X10.4729 Y9.4740
G01 X10.4477 Y9.4672
G01 X10.4233 Y9.4579
G01 X10.3999 Y9.4460
G01 X10.3779 Y9.4317
G01 X10.3575 Y9.4152
G01 X10.3390 Y9.3967
G01 X10.3225 Y9.3763
G01 X10.3082 Y9.3543
G01 X10.2963 Y9.3309
G01 X10.2870 Y9.3065
G01 X10.2802 Y9.2813
G01 X10.2762 Y9.2555
G01 X10.2748 Y9.2294
G01 X10.2748 Y7.1974
G01 X10.2762 Y7.1713
G01 X10.2802 Y7.1455
G01 X10.2870 Y7.1203
G01 X10.2963 Y7.0959
G01 X10.3082 Y7.0725
G01 X10.3225 Y7.0505
G01 X10.3390 Y7.0301
G01 X10.3575 Y7.0116
G01 X10.3779 Y6.9951
G01 X10.3999 Y6.9808
G01 X10.4233 Y6.9689
G01 X10.4477 Y6.9596
G01 X10.4729 Y6.9528
G01 X10.4987 Y6.9488
G01 X10.5248 Y6.9474
G00 Z2.0000
G00 X9.2548 Y6.9474
G01 F60.00
G01 Z-2.4000
G01 F120.00
G01 X9.9152 Y6.9474
G01 X9.9413 Y6.9488
G01 X9.9671 Y6.9528
G01 X9.9923 Y6.9596
G01 X10.0167 Y6.9689
G01 X10.0401 Y6.9808
G01 X10.0621 Y6.9951
G01 X10.0825 Y7.0116
G01 X10.1010 Y7.0301
G01 X10.1175 Y7.0505
G01 X10.1318 Y7.0725
G01 X10.1437 Y7.0959
G01 X10.1530 Y7.1203
G01 X10.1598 Y7.1455
G01 X10.1638 Y7.1713
G01 X10.1652 Y7.1974
G01 X10.1652 Y9.2294
G01 X10.1638 Y9.2555
G01 X10.1598 Y9.2813
G01 X10.1530 Y9.3065
G01 X10.1437 Y9.3309
G01 X10.1318 Y9.3543
G01 X10.1175 Y9.3763
G01 X10.1010 Y9.3967
G01 X10.0825 Y9.4152
G01 X10.0621 Y9.4317
G01 X10.0401 Y9.4460
G01 X10.0167 Y9.4579
G01 X9.9923 Y9.4672
G01 X9.9671 Y9.4740
G01 X9.9413 Y9.4780
G01 X9.9152 Y9.4794
G01 X9.2548 Y9.4794
G01 X9.2287 Y9.4780
G01 X9.2029 Y9.4740
G01 X9.1777 Y9.4672
G01 X9.1533 Y9.4579
G01 X9.1299 Y9.4460
G01 X9.1079 Y9.4317
G01 X9.0875 Y9.4152
G01 X9.0690 Y9.3967
G01 X9.0525 Y9.3763
G01 X9.0382 Y9.3543
G01 X9.0263 Y9.3309
G01 X9.0170 Y9.3065
G01 X9.0102 Y9.2813
G01 X9.0062 Y9.2555
G01 X9.0048 Y9.2294
G01 X9.0048 Y7.1974
G01 X9.0062 Y7.1713
G01 X9.0102 Y7.1455
G01 X9.0170 Y7.1203
G01 X9.0263 Y7.0959
G01 X9.0382 Y7.0725
G01 X9.0525 Y7.0505
G01 X9.0690 Y7.0301
G01 X9.0875 Y7.0116
G01 X9.1079 Y6.9951
G01 X9.1299 Y6.9808
G01 X9.1533 Y6.9689
G01 X9.1777 Y6.9596
G01 X9.2029 Y6.9528
G01 X9.2287 Y6.9488
G01 X9.2548 Y6.9474
G00 Z2.0000
G00 X7.9848 Y6.9474
G01 F60.00
G01 Z-2.4000
G01 F120.00
G01 X8.6452 Y6.9474
G01 X8.6713 Y6.9488
G01 X8.6971 Y6.9528
G01 X8.7223 Y6.9596
G01 X8.7467 Y6.9689
G01 X8.7701 Y6.9808
G01 X8.7921 Y6.9951
G01 X8.8125 Y7.0116
G01 X8.8310 Y7.0301
G01 X8.8475 Y7.0505
G01 X8.8618 Y7.0725
G01 X8.8737 Y7.0959
G01 X8.8830 Y7.1203
G01 X8.8898 Y7.1455
G01 X8.8938 Y7.1713
G01 X8.8952 Y7.1974
G01 X8.8952 Y9.2294
G01 X8.8938 Y9.2555
G01 X8.8898 Y9.2813
G01 X8.8830 Y9.3065
G01 X8.8737 Y9.3309
G01 X8.8618 Y9.3543
G01 X8.8475 Y9.3763
G01 X8.8310 Y9.3967
G01 X8.8125 Y9.4152
G01 X8.7921 Y9.4317
G01 X8.7701 Y9.4460
G01 X8.7467 Y9.4579
G01 X8.7223 Y9.4672
G01 X8.6971 Y9.4740
G01 X8.6713 Y9.4780
G01 X8.6452 Y9.4794
G01 X7.9848 Y9.4794
G01 X7.9587 Y9.4780
G01 X7.9329 Y9.4740
G01 X7.9077 Y9.4672
G01 X7.8833 Y9.4579
G01 X7.8599 Y9.4460
G01 X7.8379 Y9.4317
G01 X7.8175 Y9.4152
G01 X7.7990 Y9.3967
G01 X7.7825 Y9.3763
G01 X7.7682 Y9.3543
G01 X7.7563 Y9.3309
G01 X7.7470 Y9.3065
G01 X7.7402 Y9.2813
G01 X7.7362 Y9.2555
G01 X7.7348 Y9.2294
G01 X7.7348 Y7.1974
G01 X7.7362 Y7.1713
G01 X7.7402 Y7.1455
G01 X7.7470 Y7.1203
G01 X7.7563 Y7.0959
G01 X7.7682 Y7.0725
G01 X7.7825 Y7.0505
G01 X7.7990 Y7.0301
G01 X7.8175 Y7.0116
G01 X7.8379 Y6.9951
G01 X7.8599 Y6.9808
G01 X7.8833 Y6.9689
G01 X7.9077 Y6.9596
G01 X7.9329 Y6.9528
G01 X7.9587 Y6.9488
G01 X7.9848 Y6.9474
G00 Z2.0000
G00 X6.4648 Y9.2294
G01 F60.00
G01 Z-2.4000
G01 F120.00
G01 X6.4648 Y7.1974
G01 X6.4662 Y7.1713
G01 X6.4702 Y7.1455
G01 X6.4770 Y7.1203
G01 X6.4863 Y7.0959
G01 X6.4982 Y7.0725
G01 X6.5125 Y7.0505
G01 X6.5290 Y7.0301
G01 X6.5475 Y7.0116
G01 X6.5679 Y6.9951
G01 X6.5899 Y6.9808
G01 X6.6133 Y6.9689
G01 X6.6377 Y6.9596
G01 X6.6629 Y6.9528
G01 X6.6887 Y6.9488
G01 X6.7148 Y6.9474
G01 X7.3752 Y6.9474
G01 X7.4013 Y6.9488
G01 X7.4271 Y6.9528
G01 X7.4523 Y6.9596
G01 X7.4767 Y6.9689
G01 X7.5001 Y6.9808
G01 X7.5221 Y6.9951
G01 X7.5425 Y7.0116
G01 X7.5610 Y7.0301
G01 X7.5775 Y7.0505
G01 X7.5918 Y7.0725
G01 X7.6037 Y7.0959
G01 X7.6130 Y7.1203
G01 X7.6198 Y7.1455
G01 X7.6238 Y7.1713
G01 X7.6252 Y7.1974
G01 X7.6252 Y9.2294
G01 X7.6238 Y9.2555
G01 X7.6198 Y9.2813
G01 X7.6130 Y9.3065
G01 X7.6037 Y9.3309
G01 X7.5918 Y9.3543
G01 X7.5775 Y9.3763
G01 X7.5610 Y9.3967
G01 X7.5425 Y9.4152
G01 X7.5221 Y9.4317
G01 X7.5001 Y9.4460
G01 X7.4767 Y9.4579
G01 X7.4523 Y9.4672
G01 X7.4271 Y9.4740
G01 X7.4013 Y9.4780
G01 X7.3752 Y9.4794
G01 X6.7148 Y9.4794
G01 X6.6887 Y9.4780
G01 X6.6629 Y9.4740
G01 X6.6377 Y9.4672
G01 X6.6133 Y9.4579
G01 X6.5899 Y9.4460
G01 X6.5679 Y9.4317
G01 X6.5475 Y9.4152
G01 X6.5290 Y9.3967
G01 X6.5125 Y9.3763
G01 X6.4982 Y9.3543
G01 X6.4863 Y9.3309
G01 X6.4770 Y9.3065
G01 X6.4702 Y9.2813
G01 X6.4662 Y9.2555
G01 X6.4648 Y9.2294
G00 Z2.0000
G00 X3.8549 Y6.7876
G01 F60.00
G01 Z-2.4000
G01 F120.00
G01 X3.8579 Y6.7310
G01 X3.8660 Y6.6754
G01 X3.8679 Y6.6649
G01 X3.8826 Y6.6067
G01 X3.9016 Y6.5530
G01 X3.9058 Y6.5426
G01 X3.9297 Y6.4921
G01 X3.9352 Y6.4821
G01 X3.9642 Y6.4339
G01 X3.9978 Y6.3883
G01 X4.0044 Y6.3800
G01 X4.0401 Y6.3405
G01 X5.2455 Y5.1351
G01 X5.2819 Y5.1022
G01 X5.2933 Y5.0928
G01 X5.3389 Y5.0592
G01 X5.3871 Y5.0302
G01 X5.4001 Y5.0232
G01 X5.4476 Y5.0008
G01 X5.4580 Y4.9966
G01 X5.5043 Y4.9801
G01 X5.5183 Y4.9758
G01 X5.5699 Y4.9629
G01 X5.5804 Y4.9610
G01 X5.6290 Y4.9538
G01 X5.6436 Y4.9523
G01 X5.7000 Y4.9497
G01 X10.7407 Y4.9497
G01 X12.7156 Y2.9748
G01 X12.7156 Y2.4512
G01 X12.7164 Y2.4356
G01 X12.7189 Y2.4201
G01 X12.7229 Y2.4050
G01 X12.7285 Y2.3903
G01 X12.7370 Y2.3741
G01 X12.7473 Y2.3590
G01 X12.7595 Y2.3452
G01 X13.2952 Y1.8095
G01 X13.3090 Y1.7973
G01 X13.3241 Y1.7870
G01 X13.3403 Y1.7785
G01 X13.3550 Y1.7729
G01 X13.3701 Y1.7689
G01 X13.3856 Y1.7664
G01 X13.4012 Y1.7656
G01 X14.1588 Y1.7656
G01 X14.1744 Y1.7664
G01 X14.1899 Y1.7689
G01 X14.2050 Y1.7729
G01 X14.2197 Y1.7785
G01 X14.2359 Y1.7870
G01 X14.2510 Y1.7973
G01 X14.2648 Y1.8095
G01 X14.8005 Y2.3452
G01 X14.8127 Y2.3590
G01 X14.8230 Y2.3741
G01 X14.8315 Y2.3903
G01 X14.8371 Y2.4050
G01 X14.8411 Y2.4201
G01 X14.8436 Y2.4356
G01 X14.8444 Y2.4512
G01 X14.8444 Y3.2088
G01 X14.8436 Y3.2244
G01 X14.8411 Y3.2399
G01 X14.8371 Y3.2550
G01 X14.8315 Y3.2697
G01 X14.8230 Y3.2859
G01 X14.8127 Y3.3010
G01 X14.8005 Y3.3148
G01 X14.2648 Y3.8505
G01 X14.2510 Y3.8627
G01 X14.2359 Y3.8730
G01 X14.2197 Y3.8815
G01 X14.2050 Y3.8871
G01 X14.1899 Y3.8911
G01 X14.1744 Y3.8936
G01 X14.1588 Y3.8944
G01 X13.6352 Y3.8944
G01 X11.4698 Y6.0598
G01 X11.4250 Y6.1006
G01 X11.4167 Y6.1072
G01 X11.3711 Y6.1408
G01 X11.3229 Y6.1698
G01 X11.3129 Y6.1753
G01 X11.2624 Y6.1992
G01 X11.2520 Y6.2034
G01 X11.1983 Y6.2224
G01 X11.1401 Y6.2371
G01 X11.1296 Y6.2390
G01 X11.0740 Y6.2471
G01 X11.0100 Y6.2503
G01 X5.9693 Y6.2503
G01 X5.1553 Y7.0643
G01 X5.1553 Y8.2134
G01 X5.1521 Y8.2774
G01 X5.1440 Y8.3330
G01 X5.1421 Y8.3435
G01 X5.1292 Y8.3951
G01 X5.1249 Y8.4091
G01 X5.1084 Y8.4554
G01 X5.1042 Y8.4658
G01 X5.0803 Y8.5163
G01 X5.0748 Y8.5263
G01 X5.0458 Y8.5745
G01 X5.0122 Y8.6201
G01 X5.0056 Y8.6284
G01 X4.9852 Y8.6510
G01 X4.9852 Y9.2294
G01 X4.9844 Y9.2451
G01 X4.9819 Y9.2605
G01 X4.9779 Y9.2757
G01 X4.9723 Y9.2903
G01 X4.9651 Y9.3043
G01 X4.9566 Y9.3175
G01 X4.9467 Y9.3298
G01 X4.9356 Y9.3409
G01 X4.9233 Y9.3508
G01 X4.9101 Y9.3593
G01 X4.8961 Y9.3665
G01 X4.8815 Y9.3721
G01 X4.8663 Y9.3761
G01 X4.8509 Y9.3786
G01 X4.8352 Y9.3794
G01 X4.1748 Y9.3794
G01 X4.1591 Y9.3786
G01 X4.1437 Y9.3761
G01 X4.1285 Y9.3721
G01 X4.1139 Y9.3665
G01 X4.0999 Y9.3593
G01 X4.0867 Y9.3508
G01 X4.0744 Y9.3409
G01 X4.0633 Y9.3298
G01 X4.0534 Y9.3175
G01 X4.0449 Y9.3043
G01 X4.0377 Y9.2903
G01 X4.0321 Y9.2757
G01 X4.0281 Y9.2605
G01 X4.0256 Y9.2451
G01 X4.0248 Y9.2294
G01 X4.0248 Y8.6510
G01 X4.0044 Y8.6284
G01 X3.9978 Y8.6201
G01 X3.9642 Y8.5745
G01 X3.9352 Y8.5263
G01 X3.9297 Y8.5163
G01 X3.9058 Y8.4658
G01 X3.9016 Y8.4554
G01 X3.8826 Y8.4017
G01 X3.8689 Y8.3474
G01 X3.8660 Y8.3330
G01 X3.8588 Y8.2844
G01 X3.8573 Y8.2698
G01 X3.8547 Y8.2134
G01 X3.8549 Y6.7876
G00 Z2.0000
G00 X2.5849 Y4.6576
G01 F60.00
G01 Z-2.4000
G01 F120.00
G01 X2.5879 Y4.6010
G01 X2.5960 Y4.5454
G01 X2.5989 Y4.5310
G01 X2.6126 Y4.4767
G01 X2.6316 Y4.4230
G01 X2.6358 Y4.4126
G01 X2.6582 Y4.3651
G01 X2.6652 Y4.3521
G01 X2.6904 Y4.3100
G01 X2.6986 Y4.2977
G01 X2.7278 Y4.2583
G01 X2.7344 Y4.2500
G01 X2.7752 Y4.2052
G01 X3.0455 Y3.9351
G01 X3.0850 Y3.8994
G01 X3.0933 Y3.8928
G01 X3.1327 Y3.8636
G01 X3.1450 Y3.8554
G01 X3.1871 Y3.8302
G01 X3.2001 Y3.8232
G01 X3.2444 Y3.8022
G01 X3.2580 Y3.7966
G01 X3.3117 Y3.7776
G01 X3.3660 Y3.7639
G01 X3.3804 Y3.7610
G01 X3.4360 Y3.7529
G01 X3.4926 Y3.7499
G01 X4.8307 Y3.7497
G01 X5.1247 Y3.4557
G01 X5.1247 Y2.0666
G01 X5.1273 Y2.0102
G01 X5.1288 Y1.9956
G01 X5.1360 Y1.9470
G01 X5.1389 Y1.9326
G01 X5.1526 Y1.8783
G01 X5.1716 Y1.8246
G01 X5.1758 Y1.8142
G01 X5.1997 Y1.7637
G01 X5.2052 Y1.7537
G01 X5.2342 Y1.7055
G01 X5.2678 Y1.6599
G01 X5.2744 Y1.6516
G01 X5.2948 Y1.6290
G01 X5.2948 Y1.0506
G01 X5.2956 Y1.0349
G01 X5.2981 Y1.0195
G01 X5.3021 Y1.0043
G01 X5.3077 Y0.9897
G01 X5.3149 Y0.9757
G01 X5.3234 Y0.9625
G01 X5.3333 Y0.9502
G01 X5.3444 Y0.9391
G01 X5.3567 Y0.9292
G01 X5.3699 Y0.9207
G01 X5.3839 Y0.9135
G01 X5.3985 Y0.9079
G01 X5.4137 Y0.9039
G01 X5.4291 Y0.9014
G01 X5.4448 Y0.9006
G01 X6.1052 Y0.9006
G01 X6.1209 Y0.9014
G01 X6.1363 Y0.9039
G01 X6.1515 Y0.9079
G01 X6.1661 Y0.9135
G01 X6.1801 Y0.9207
G01 X6.1933 Y0.9292
G01 X6.2056 Y0.9391
G01 X6.2167 Y0.9502
G01 X6.2266 Y0.9625
G01 X6.2351 Y0.9757
G01 X6.2423 Y0.9897
G01 X6.2479 Y1.0043
G01 X6.2519 Y1.0195
G01 X6.2544 Y1.0349
G01 X6.2552 Y1.0506
G01 X6.2552 Y1.6290
G01 X6.2756 Y1.6516
G01 X6.2822 Y1.6599
G01 X6.3158 Y1.7055
G01 X6.3448 Y1.7537
G01 X6.3503 Y1.7637
G01 X6.3742 Y1.8142
G01 X6.3784 Y1.8246
G01 X6.3974 Y1.8783
G01 X6.4111 Y1.9326
G01 X6.4140 Y1.9470
G01 X6.4212 Y1.9956
G01 X6.4227 Y2.0102
G01 X6.4253 Y2.0666
G01 X6.4253 Y3.7250
G01 X6.4227 Y3.7814
G01 X6.4212 Y3.7960
G01 X6.4140 Y3.8446
G01 X6.4121 Y3.8551
G01 X6.3974 Y3.9133
G01 X6.3784 Y3.9670
G01 X6.3742 Y3.9774
G01 X6.3518 Y4.0249
G01 X6.3448 Y4.0379
G01 X6.3158 Y4.0861
G01 X6.2822 Y4.1317
G01 X6.2728 Y4.1431
G01 X6.2348 Y4.1848
G01 X5.5545 Y4.8649
G01 X5.5150 Y4.9006
G01 X5.5067 Y4.9072
G01 X5.4611 Y4.9408
G01 X5.4129 Y4.9698
G01 X5.4029 Y4.9753
G01 X5.3524 Y4.9992
G01 X5.3420 Y5.0034
G01 X5.2883 Y5.0224
G01 X5.2301 Y5.0371
G01 X5.2196 Y5.0390
G01 X5.1640 Y5.0471
G01 X5.1074 Y5.0501
G01 X3.8853 Y5.0503
G01 X3.8853 Y8.2134
G01 X3.8827 Y8.2698
G01 X3.8812 Y8.2844
G01 X3.8740 Y8.3330
G01 X3.8711 Y8.3474
G01 X3.8574 Y8.4017
G01 X3.8384 Y8.4554
G01 X3.8342 Y8.4658
G01 X3.8103 Y8.5163
G01 X3.8048 Y8.5263
G01 X3.7758 Y8.5745
G01 X3.7422 Y8.6201
G01 X3.7356 Y8.6284
G01 X3.7152 Y8.6510
G01 X3.7152 Y9.2294
G01 X3.7144 Y9.2451
G01 X3.7119 Y9.2605
G01 X3.7079 Y9.2757
G01 X3.7023 Y9.2903
G01 X3.6951 Y9.3043
G01 X3.6866 Y9.3175
G01 X3.6767 Y9.3298
G01 X3.6656 Y9.3409
G01 X3.6533 Y9.3508
G01 X3.6401 Y9.3593
G01 X3.6261 Y9.3665
G01 X3.6115 Y9.3721
G01 X3.5963 Y9.3761
G01 X3.5809 Y9.3786
G01 X3.5652 Y9.3794
G01 X2.9048 Y9.3794
G01 X2.8891 Y9.3786
G01 X2.8737 Y9.3761
G01 X2.8585 Y9.3721
G01 X2.8439 Y9.3665
G01 X2.8299 Y9.3593
G01 X2.8167 Y9.3508
G01 X2.8044 Y9.3409
G01 X2.7933 Y9.3298
G01 X2.7834 Y9.3175
G01 X2.7749 Y9.3043
G01 X2.7677 Y9.2903
G01 X2.7621 Y9.2757
G01 X2.7581 Y9.2605
G01 X2.7556 Y9.2451
G01 X2.7548 Y9.2294
G01 X2.7548 Y8.6510
G01 X2.7344 Y8.6284
G01 X2.7278 Y8.6201
G01 X2.6986 Y8.5807
G01 X2.6904 Y8.5684
G01 X2.6652 Y8.5263
G01 X2.6597 Y8.5163
G01 X2.6372 Y8.4690
G01 X2.6316 Y8.4554
G01 X2.6126 Y8.4017
G01 X2.5979 Y8.3435
G01 X2.5960 Y8.3330
G01 X2.5879 Y8.2774
G01 X2.5849 Y8.2208
G01 X2.5849 Y4.6576
G00 Z2.0000
G00 X1.3848 Y3.0826
G01 F60.00
G01 Z-2.4000
G01 F120.00
G01 X1.3848 Y1.0506
G01 X1.3862 Y1.0245
G01 X1.3902 Y0.9987
G01 X1.3970 Y0.9735
G01 X1.4063 Y0.9491
G01 X1.4182 Y0.9257
G01 X1.4325 Y0.9037
G01 X1.4490 Y0.8833
G01 X1.4675 Y0.8648
G01 X1.4879 Y0.8483
G01 X1.5099 Y0.8340
G01 X1.5333 Y0.8221
G01 X1.5577 Y0.8128
G01 X1.5829 Y0.8060
G01 X1.6087 Y0.8020
G01 X1.6348 Y0.8006
G01 X2.2952 Y0.8006
G01 X2.3213 Y0.8020
G01 X2.3471 Y0.8060
G01 X2.3723 Y0.8128
G01 X2.3967 Y0.8221
G01 X2.4201 Y0.8340
G01 X2.4421 Y0.8483
G01 X2.4625 Y0.8648
G01 X2.4810 Y0.8833
G01 X2.4975 Y0.9037
G01 X2.5118 Y0.9257
G01 X2.5237 Y0.9491
G01 X2.5330 Y0.9735
G01 X2.5398 Y0.9987
G01 X2.5438 Y1.0245
G01 X2.5452 Y1.0506
G01 X2.5452 Y3.0826
G01 X2.5438 Y3.1087
G01 X2.5398 Y3.1345
G01 X2.5330 Y3.1597
G01 X2.5237 Y3.1841
G01 X2.5118 Y3.2075
G01 X2.4975 Y3.2295
G01 X2.4810 Y3.2499
G01 X2.4625 Y3.2684
G01 X2.4421 Y3.2849
G01 X2.4201 Y3.2992
G01 X2.3967 Y3.3111
G01 X2.3723 Y3.3204
G01 X2.3471 Y3.3272
G01 X2.3213 Y3.3312
G01 X2.2952 Y3.3326
G01 X1.6348 Y3.3326
G01 X1.6087 Y3.3312
G01 X1.5829 Y3.3272
G01 X1.5577 Y3.3204
G01 X1.5333 Y3.3111
G01 X1.5099 Y3.2992
G01 X1.4879 Y3.2849
G01 X1.4675 Y3.2684
G01 X1.4490 Y3.2499
G01 X1.4325 Y3.2295
G01 X1.4182 Y3.2075
G01 X1.4063 Y3.1841
G01 X1.3970 Y3.1597
G01 X1.3902 Y3.1345
G01 X1.3862 Y3.1087
G01 X1.3848 Y3.0826
G00 Z2.0000
G00 X0.5600 Y10.0700
G01 F60.00
G01 Z-2.4000
G01 F120.00
G01 X1.3147 Y10.0700
G01 X1.3147 Y8.2134
G01 X1.3173 Y8.1570
G01 X1.3188 Y8.1424
G01 X1.3260 Y8.0938
G01 X1.3289 Y8.0794
G01 X1.3426 Y8.0251
G01 X1.3616 Y7.9714
G01 X1.3658 Y7.9610
G01 X1.3897 Y7.9105
G01 X1.3952 Y7.9005
G01 X1.4242 Y7.8523
G01 X1.4578 Y7.8067
G01 X1.4644 Y7.7984
G01 X1.4848 Y7.7758
G01 X1.4848 Y7.1974
G01 X1.4856 Y7.1817
G01 X1.4881 Y7.1663
G01 X1.4921 Y7.1511
G01 X1.4977 Y7.1365
G01 X1.5049 Y7.1225
G01 X1.5134 Y7.1093
G01 X1.5233 Y7.0970
G01 X1.5344 Y7.0859
G01 X1.5467 Y7.0760
G01 X1.5599 Y7.0675
G01 X1.5739 Y7.0603
G01 X1.5885 Y7.0547
G01 X1.6037 Y7.0507
G01 X1.6191 Y7.0482
G01 X1.6348 Y7.0474
G01 X2.2952 Y7.0474
G01 X2.3109 Y7.0482
G01 X2.3263 Y7.0507
G01 X2.3415 Y7.0547
G01 X2.3561 Y7.0603
G01 X2.3701 Y7.0675
G01 X2.3833 Y7.0760
G01 X2.3956 Y7.0859
G01 X2.4067 Y7.0970
G01 X2.4166 Y7.1093
G01 X2.4251 Y7.1225
G01 X2.4323 Y7.1365
G01 X2.4379 Y7.1511
G01 X2.4419 Y7.1663
G01 X2.4444 Y7.1817
G01 X2.4452 Y7.1974
G01 X2.4452 Y7.7758
G01 X2.4656 Y7.7984
G01 X2.4722 Y7.8067
G01 X2.5058 Y7.8523
G01 X2.5348 Y7.9005
G01 X2.5403 Y7.9105
G01 X2.5642 Y7.9610
G01 X2.5684 Y7.9714
G01 X2.5849 Y8.0177
G01 X2.5892 Y8.0317
G01 X2.6021 Y8.0833
G01 X2.6040 Y8.0938
G01 X2.6121 Y8.1494
G01 X2.6153 Y8.2134
G01 X2.6153 Y10.0700
G01 X3.1000 Y10.0700
G01 X3.1157 Y10.0708
G01 X3.1311 Y10.0733
G01 X3.1463 Y10.0773
G01 X3.1609 Y10.0829
G01 X3.1749 Y10.0901
G01 X3.1881 Y10.0986
G01 X3.2004 Y10.1085
G01 X3.2115 Y10.1196
G01 X3.2214 Y10.1319
G01 X3.2299 Y10.1451
G01 X3.2371 Y10.1591
G01 X3.2427 Y10.1737
G01 X3.2467 Y10.1889
G01 X3.2492 Y10.2043
G01 X3.2500 Y10.2200
G01 X3.2500 Y15.3000
G01 X3.2492 Y15.3157
G01 X3.2467 Y15.3311
G01 X3.2427 Y15.3463
G01 X3.2371 Y15.3609
G01 X3.2299 Y15.3749
G01 X3.2214 Y15.3881
G01 X3.2115 Y15.4004
G01 X3.2004 Y15.4115
G01 X3.1881 Y15.4214
G01 X3.1749 Y15.4299
G01 X3.1609 Y15.4371
G01 X3.1463 Y15.4427
G01 X3.1311 Y15.4467
G01 X3.1157 Y15.4492
G01 X3.1000 Y15.4500
G01 X0.5600 Y15.4500
G01 X0.5443 Y15.4492
G01 X0.5289 Y15.4467
G01 X0.5137 Y15.4427
G01 X0.4991 Y15.4371
G01 X0.4851 Y15.4299
G01 X0.4719 Y15.4214
G01 X0.4596 Y15.4115
G01 X0.4485 Y15.4004
G01 X0.4386 Y15.3881
G01 X0.4301 Y15.3749
G01 X0.4229 Y15.3609
G01 X0.4173 Y15.3463
G01 X0.4133 Y15.3311
G01 X0.4108 Y15.3157
G01 X0.4100 Y15.3000
G01 X0.4100 Y10.2200
G01 X0.4108 Y10.2043
G01 X0.4133 Y10.1889
G01 X0.4173 Y10.1737
G01 X0.4229 Y10.1591
G01 X0.4301 Y10.1451
G01 X0.4386 Y10.1319
G01 X0.4485 Y10.1196
G01 X0.4596 Y10.1085
G01 X0.4719 Y10.0986
G01 X0.4851 Y10.0901
G01 X0.4991 Y10.0829
G01 X0.5137 Y10.0773
G01 X0.5289 Y10.0733
G01 X0.5443 Y10.0708
G01 X0.5600 Y10.0700
G00 Z2.0000
G00 X4.2200 Y15.3000
G01 F60.00
G01 Z-2.4000
G01 F120.00
G01 X4.2200 Y10.2200
G01 X4.2208 Y10.2043
G01 X4.2233 Y10.1889
G01 X4.2273 Y10.1737
G01 X4.2329 Y10.1591
G01 X4.2401 Y10.1451
G01 X4.2486 Y10.1319
G01 X4.2585 Y10.1196
G01 X4.2696 Y10.1085
G01 X4.2819 Y10.0986
G01 X4.2951 Y10.0901
G01 X4.3091 Y10.0829
G01 X4.3237 Y10.0773
G01 X4.3389 Y10.0733
G01 X4.3543 Y10.0708
G01 X4.3700 Y10.0700
G01 X5.1247 Y10.0700
G01 X5.1247 Y8.2134
G01 X5.1279 Y8.1494
G01 X5.1360 Y8.0938
G01 X5.1379 Y8.0833
G01 X5.1508 Y8.0317
G01 X5.1551 Y8.0177
G01 X5.1716 Y7.9714
G01 X5.1758 Y7.9610
G01 X5.1997 Y7.9105
G01 X5.2052 Y7.9005
G01 X5.2342 Y7.8523
G01 X5.2678 Y7.8067
G01 X5.2744 Y7.7984
G01 X5.2948 Y7.7758
G01 X5.2948 Y7.1974
G01 X5.2956 Y7.1817
G01 X5.2981 Y7.1663
G01 X5.3021 Y7.1511
G01 X5.3077 Y7.1365
G01 X5.3149 Y7.1225
G01 X5.3234 Y7.1093
G01 X5.3333 Y7.0970
G01 X5.3444 Y7.0859
G01 X5.3567 Y7.0760
G01 X5.3699 Y7.0675
G01 X5.3839 Y7.0603
G01 X5.3985 Y7.0547
G01 X5.4137 Y7.0507
G01 X5.4291 Y7.0482
G01 X5.4448 Y7.0474
G01 X6.1052 Y7.0474
G01 X6.1209 Y7.0482
G01 X6.1363 Y7.0507
G01 X6.1515 Y7.0547
G01 X6.1661 Y7.0603
G01 X6.1801 Y7.0675
G01 X6.1933 Y7.0760
G01 X6.2056 Y7.0859
G01 X6.2167 Y7.0970
G01 X6.2266 Y7.1093
G01 X6.2351 Y7.1225
G01 X6.2423 Y7.1365
G01 X6.2479 Y7.1511
G01 X6.2519 Y7.1663
G01 X6.2544 Y7.1817
G01 X6.2552 Y7.1974
G01 X6.2552 Y7.7758
G01 X6.2756 Y7.7984
G01 X6.2822 Y7.8067
G01 X6.3158 Y7.8523
G01 X6.3448 Y7.9005
G01 X6.3503 Y7.9105
G01 X6.3742 Y7.9610
G01 X6.3784 Y7.9714
G01 X6.3974 Y8.0251
G01 X6.4111 Y8.0794
G01 X6.4140 Y8.0938
G01 X6.4212 Y8.1424
G01 X6.4227 Y8.1570
G01 X6.4253 Y8.2134
G01 X6.4253 Y10.0700
G01 X6.9100 Y10.0700
G01 X6.9257 Y10.0708
G01 X6.9411 Y10.0733
G01 X6.9563 Y10.0773
G01 X6.9709 Y10.0829
G01 X6.9849 Y10.0901
G01 X6.9981 Y10.0986
G01 X7.0104 Y10.1085
G01 X7.0215 Y10.1196
G01 X7.0314 Y10.1319
G01 X7.0399 Y10.1451
G01 X7.0471 Y10.1591
G01 X7.0527 Y10.1737
G01 X7.0567 Y10.1889
G01 X7.0592 Y10.2043
G01 X7.0600 Y10.2200
G01 X7.0600 Y10.4204
G01 X7.5402 Y9.9402
G01 X7.5850 Y9.8994
G01 X7.5933 Y9.8928
G01 X7.6327 Y9.8636
G01 X7.6450 Y9.8554
G01 X7.6871 Y9.8302
G01 X7.6971 Y9.8247
G01 X7.7444 Y9.8022
G01 X7.7580 Y9.7966
G01 X7.8117 Y9.7776
G01 X7.8660 Y9.7639
G01 X7.8804 Y9.7610
G01 X7.9360 Y9.7529
G01 X8.0000 Y9.7497
G01 X10.9307 Y9.7497
G01 X12.2804 Y8.4000
G01 X11.7402 Y7.8598
G01 X11.6994 Y7.8150
G01 X11.6928 Y7.8067
G01 X11.6592 Y7.7611
G01 X11.6302 Y7.7129
G01 X11.6232 Y7.6999
G01 X11.6022 Y7.6556
G01 X11.5966 Y7.6420
G01 X11.5776 Y7.5883
G01 X11.5639 Y7.5340
G01 X11.5610 Y7.5196
G01 X11.5538 Y7.4710
G01 X11.5523 Y7.4564
G01 X11.5497 Y7.4000
G01 X11.5497 Y7.2748
G01 X11.5451 Y7.2633
G01 X11.5267 Y7.2119
G01 X11.5224 Y7.1978
G01 X11.5083 Y7.1410
G01 X11.5063 Y7.1305
G01 X11.4974 Y7.0694
G01 X11.4940 Y7.0000
G01 X11.4969 Y6.9381
G01 X11.4983 Y6.9235
G01 X11.5063 Y6.8695
G01 X11.5083 Y6.8590
G01 X11.5243 Y6.7955
G01 X11.5451 Y6.7367
G01 X11.5493 Y6.7263
G01 X11.5755 Y6.6708
G01 X11.5810 Y6.6608
G01 X11.6129 Y6.6079
G01 X11.6497 Y6.5579
G01 X11.6563 Y6.5497
G01 X11.7008 Y6.5008
G01 X11.7497 Y6.4563
G01 X11.7579 Y6.4497
G01 X11.8079 Y6.4129
G01 X11.8608 Y6.3810
G01 X11.8708 Y6.3755
G01 X11.9231 Y6.3507
G01 X11.9367 Y6.3451
G01 X11.9955 Y6.3243
G01 X12.0590 Y6.3083
G01 X12.0695 Y6.3063
G01 X12.1235 Y6.2983
G01 X12.1381 Y6.2969
G01 X12.1926 Y6.2942
G01 X12.2074 Y6.2942
G01 X12.2694 Y6.2974
G01 X12.3305 Y6.3063
G01 X12.3449 Y6.3092
G01 X12.3978 Y6.3224
G01 X12.4119 Y6.3267
G01 X12.4633 Y6.3451
G01 X12.4737 Y6.3493
G01 X12.5292 Y6.3755
G01 X12.5392 Y6.3810
G01 X12.5921 Y6.4129
G01 X12.6421 Y6.4497
G01 X12.6535 Y6.4591
G01 X12.6939 Y6.4957
G01 X12.7043 Y6.5061
G01 X12.7437 Y6.5497
G01 X12.7503 Y6.5579
G01 X12.7871 Y6.6079
G01 X12.8190 Y6.6608
G01 X12.8259 Y6.6738
G01 X12.8507 Y6.7263
G01 X12.8549 Y6.7367
G01 X12.8733 Y6.7881
G01 X12.8776 Y6.8022
G01 X12.8908 Y6.8551
G01 X12.8937 Y6.8695
G01 X12.9026 Y6.9306
G01 X12.9058 Y6.9926
G01 X12.9058 Y7.0074
G01 X12.9026 Y7.0694
G01 X12.8937 Y7.1305
G01 X12.8917 Y7.1410
G01 X12.8856 Y7.1660
G01 X13.2000 Y7.4804
G01 X18.8102 Y1.8702
G01 X18.8550 Y1.8294
G01 X18.8633 Y1.8228
G01 X18.9089 Y1.7892
G01 X18.9571 Y1.7602
G01 X18.9671 Y1.7547
G01 X19.0176 Y1.7308
G01 X19.0280 Y1.7266
G01 X19.0743 Y1.7101
G01 X19.0883 Y1.7058
G01 X19.1399 Y1.6929
G01 X19.1504 Y1.6910
G01 X19.2060 Y1.6829
G01 X19.2700 Y1.6797
G01 X19.6435 Y1.6797
G01 X19.6579 Y1.6603
G01 X19.6645 Y1.6520
G01 X19.7326 Y1.5770
G01 X19.8076 Y1.5089
G01 X19.8159 Y1.5023
G01 X19.8941 Y1.4445
G01 X19.9772 Y1.3945
G01 X19.9902 Y1.3876
G01 X20.0746 Y1.3477
G01 X20.0850 Y1.3436
G01 X20.1769 Y1.3109
G01 X20.2746 Y1.2863
G01 X20.2851 Y1.2843
G01 X20.3739 Y1.2712
G01 X20.3886 Y1.2697
G01 X20.4856 Y1.2651
G01 X22.3144 Y1.2651
G01 X22.4190 Y1.2703
G01 X22.5149 Y1.2843
G01 X22.5293 Y1.2872
G01 X22.6231 Y1.3109
G01 X22.7150 Y1.3436
G01 X22.7286 Y1.3492
G01 X22.8127 Y1.3890
G01 X22.8228 Y1.3945
G01 X22.9059 Y1.4445
G01 X22.9841 Y1.5023
G01 X22.9955 Y1.5117
G01 X23.0620 Y1.5720
G01 X23.0724 Y1.5824
G01 X23.1355 Y1.6520
G01 X23.1421 Y1.6603
G01 X23.1956 Y1.7324
G01 X23.2037 Y1.7446
G01 X23.2499 Y1.8216
G01 X23.2554 Y1.8317
G01 X23.2967 Y1.9190
G01 X23.3008 Y1.9294
G01 X23.3335 Y2.0213
G01 X23.3572 Y2.1151
G01 X23.3601 Y2.1295
G01 X23.3741 Y2.2254
G01 X23.3791 Y2.3226
G01 X23.3791 Y2.3374
G01 X23.3747 Y2.4270
G01 X23.3732 Y2.4417
G01 X23.3601 Y2.5305
G01 X23.3581 Y2.5410
G01 X23.3354 Y2.6320
G01 X23.3311 Y2.6461
G01 X23.3008 Y2.7306
G01 X23.2952 Y2.7442
G01 X23.2554 Y2.8283
G01 X23.2499 Y2.8384
G01 X23.2037 Y2.9154
G01 X23.1956 Y2.9276
G01 X23.1421 Y2.9997
G01 X23.1355 Y3.0080
G01 X23.0674 Y3.0830
G01 X22.9924 Y3.1511
G01 X22.9841 Y3.1577
G01 X22.9120 Y3.2112
G01 X22.8998 Y3.2193
G01 X22.8228 Y3.2655
G01 X22.8127 Y3.2710
G01 X22.7286 Y3.3108
G01 X22.7150 Y3.3164
G01 X22.6305 Y3.3467
G01 X22.6164 Y3.3510
G01 X22.5293 Y3.3728
G01 X22.5149 Y3.3757
G01 X22.4190 Y3.3897
G01 X22.3144 Y3.3949
G01 X20.4856 Y3.3949
G01 X20.3810 Y3.3897
G01 X20.2851 Y3.3757
G01 X20.2746 Y3.3737
G01 X20.1769 Y3.3491
G01 X20.0850 Y3.3164
G01 X20.0746 Y3.3123
G01 X19.9873 Y3.2710
G01 X19.9772 Y3.2655
G01 X19.8941 Y3.2155
G01 X19.8159 Y3.1577
G01 X19.8076 Y3.1511
G01 X19.7326 Y3.0830
G01 X19.6645 Y3.0080
G01 X19.6579 Y2.9997
G01 X19.6435 Y2.9803
G01 X19.5393 Y2.9803
G01 X11.6598 Y10.8598
G01 X11.6150 Y10.9006
G01 X11.6067 Y10.9072
G01 X11.5673 Y10.9364
G01 X11.5550 Y10.9446
G01 X11.5129 Y10.9698
G01 X11.5029 Y10.9753
G01 X11.4556 Y10.9978
G01 X11.4420 Y11.0034
G01 X11.3883 Y11.0224
G01 X11.3340 Y11.0361
G01 X11.3196 Y11.0390
G01 X11.2640 Y11.0471
G01 X11.2074 Y11.0501
G01 X8.2693 Y11.0503
G01 X7.2098 Y12.1097
G01 X7.3250 Y12.1097
G01 X7.6952 Y11.7395
G01 X7.7090 Y11.7273
G01 X7.7241 Y11.7170
G01 X7.7403 Y11.7085
G01 X7.7550 Y11.7029
G01 X7.7701 Y11.6989
G01 X7.7856 Y11.6964
G01 X7.8012 Y11.6956
G01 X8.5588 Y11.6956
G01 X8.5744 Y11.6964
G01 X8.5899 Y11.6989
G01 X8.6050 Y11.7029
G01 X8.6197 Y11.7085
G01 X8.6359 Y11.7170
G01 X8.6510 Y11.7273
G01 X8.6648 Y11.7395
G01 X9.2005 Y12.2752
G01 X9.2127 Y12.2890
G01 X9.2230 Y12.3041
G01 X9.2315 Y12.3203
G01 X9.2371 Y12.3350
G01 X9.2411 Y12.3501
G01 X9.2436 Y12.3656
G01 X9.2444 Y12.3812
G01 X9.2444 Y13.1388
G01 X9.2436 Y13.1544
G01 X9.2411 Y13.1699
G01 X9.2371 Y13.1850
G01 X9.2315 Y13.1997
G01 X9.2230 Y13.2159
G01 X9.2127 Y13.2310
G01 X9.2005 Y13.2448
G01 X8.6648 Y13.7805
G01 X8.6510 Y13.7927
G01 X8.6359 Y13.8030
G01 X8.6197 Y13.8115
G01 X8.6050 Y13.8171
G01 X8.5899 Y13.8211
G01 X8.5744 Y13.8236
G01 X8.5588 Y13.8244
G01 X7.8012 Y13.8244
G01 X7.7856 Y13.8236
G01 X7.7701 Y13.8211
G01 X7.7550 Y13.8171
G01 X7.7403 Y13.8115
G01 X7.7241 Y13.8030
G01 X7.7090 Y13.7927
G01 X7.6952 Y13.7805
G01 X7.3250 Y13.4103
G01 X7.0600 Y13.4103
G01 X7.0600 Y15.3000
G01 X7.0592 Y15.3157
G01 X7.0567 Y15.3311
G01 X7.0527 Y15.3463
G01 X7.0471 Y15.3609
G01 X7.0399 Y15.3749
G01 X7.0314 Y15.3881
G01 X7.0215 Y15.4004
G01 X7.0104 Y15.4115
G01 X6.9981 Y15.4214
G01 X6.9849 Y15.4299
G01 X6.9709 Y15.4371
G01 X6.9563 Y15.4427
G01 X6.9411 Y15.4467
G01 X6.9257 Y15.4492
G01 X6.9100 Y15.4500
G01 X4.3700 Y15.4500
G01 X4.3543 Y15.4492
G01 X4.3389 Y15.4467
G01 X4.3237 Y15.4427
G01 X4.3091 Y15.4371
G01 X4.2951 Y15.4299
G01 X4.2819 Y15.4214
G01 X4.2696 Y15.4115
G01 X4.2585 Y15.4004
G01 X4.2486 Y15.3881
G01 X4.2401 Y15.3749
G01 X4.2329 Y15.3609
G01 X4.2273 Y15.3463
G01 X4.2233 Y15.3311
G01 X4.2208 Y15.3157
G01 X4.2200 Y15.3000
G00 Z2.0000
G00 X12.7276 Y9.9636
G01 F60.00
G01 Z-2.4000
G01 F120.00
G01 X12.7419 Y9.9475
G01 X13.2775 Y9.4119
G01 X13.2936 Y9.3976
G01 X13.3112 Y9.3855
G01 X13.3302 Y9.3757
G01 X13.3472 Y9.3691
G01 X13.3649 Y9.3644
G01 X13.3830 Y9.3616
G01 X13.4012 Y9.3606
G01 X14.1588 Y9.3606
G01 X14.1770 Y9.3616
G01 X14.1951 Y9.3644
G01 X14.2128 Y9.3691
G01 X14.2298 Y9.3757
G01 X14.2488 Y9.3855
G01 X14.2664 Y9.3976
G01 X14.2825 Y9.4119
G01 X14.8181 Y9.9475
G01 X14.8324 Y9.9636
G01 X14.8445 Y9.9812
G01 X14.8543 Y10.0002
G01 X14.8609 Y10.0172
G01 X14.8656 Y10.0349
G01 X14.8684 Y10.0530
G01 X14.8694 Y10.0712
G01 X14.8694 Y10.8288
G01 X14.8684 Y10.8470
G01 X14.8656 Y10.8651
G01 X14.8644 Y10.8695
G01 X15.6655 Y11.6706
G01 X16.1788 Y11.6706
G01 X16.1970 Y11.6716
G01 X16.2151 Y11.6744
G01 X16.2328 Y11.6791
G01 X16.2498 Y11.6857
G01 X16.2688 Y11.6955
G01 X16.2864 Y11.7076
G01 X16.3025 Y11.7219
G01 X16.6654 Y12.0847
G01 X17.1450 Y12.0847
G01 X17.1450 Y9.9900
G01 X17.1460 Y9.9717
G01 X17.1488 Y9.9537
G01 X17.1535 Y9.9360
G01 X17.1601 Y9.9189
G01 X17.1684 Y9.9026
G01 X17.1784 Y9.8872
G01 X17.1899 Y9.8729
G01 X17.2029 Y9.8599
G01 X17.2172 Y9.8484
G01 X17.2326 Y9.8384
G01 X17.2489 Y9.8301
G01 X17.2660 Y9.8235
G01 X17.2837 Y9.8188
G01 X17.3017 Y9.8160
G01 X17.3200 Y9.8150
G01 X19.8600 Y9.8150
G01 X19.8783 Y9.8160
G01 X19.8963 Y9.8188
G01 X19.9140 Y9.8235
G01 X19.9311 Y9.8301
G01 X19.9474 Y9.8384
G01 X19.9628 Y9.8484
G01 X19.9771 Y9.8599
G01 X19.9901 Y9.8729
G01 X20.0016 Y9.8872
G01 X20.0116 Y9.9026
G01 X20.0199 Y9.9189
G01 X20.0265 Y9.9360
G01 X20.0312 Y9.9537
G01 X20.0340 Y9.9717
G01 X20.0350 Y9.9900
G01 X20.0350 Y15.0700
G01 X20.0340 Y15.0883
G01 X20.0312 Y15.1063
G01 X20.0265 Y15.1240
G01 X20.0199 Y15.1411
G01 X20.0116 Y15.1574
G01 X20.0016 Y15.1728
G01 X19.9901 Y15.1871
G01 X19.9771 Y15.2001
G01 X19.9628 Y15.2116
G01 X19.9474 Y15.2216
G01 X19.9311 Y15.2299
G01 X19.9140 Y15.2365
G01 X19.8963 Y15.2412
G01 X19.8783 Y15.2440
G01 X19.8600 Y15.2450
G01 X17.3200 Y15.2450
G01 X17.3017 Y15.2440
G01 X17.2837 Y15.2412
G01 X17.2660 Y15.2365
G01 X17.2489 Y15.2299
G01 X17.2326 Y15.2216
G01 X17.2172 Y15.2116
G01 X17.2029 Y15.2001
G01 X17.1899 Y15.1871
G01 X17.1784 Y15.1728
G01 X17.1684 Y15.1574
G01 X17.1601 Y15.1411
G01 X17.1535 Y15.1240
G01 X17.1488 Y15.1063
G01 X17.1460 Y15.0883
G01 X17.1450 Y15.0700
G01 X17.1450 Y13.4353
G01 X16.6654 Y13.4353
G01 X16.3025 Y13.7981
G01 X16.2864 Y13.8124
G01 X16.2688 Y13.8245
G01 X16.2498 Y13.8343
G01 X16.2328 Y13.8409
G01 X16.2151 Y13.8456
G01 X16.1970 Y13.8484
G01 X16.1788 Y13.8494
G01 X15.4212 Y13.8494
G01 X15.4030 Y13.8484
G01 X15.3849 Y13.8456
G01 X15.3672 Y13.8409
G01 X15.3502 Y13.8343
G01 X15.3312 Y13.8245
G01 X15.3136 Y13.8124
G01 X15.2975 Y13.7981
G01 X14.7619 Y13.2625
G01 X14.7476 Y13.2464
G01 X14.7355 Y13.2288
G01 X14.7257 Y13.2098
G01 X14.7191 Y13.1928
G01 X14.7144 Y13.1751
G01 X14.7116 Y13.1570
G01 X14.7106 Y13.1388
G01 X14.7106 Y12.6255
G01 X13.6245 Y11.5394
G01 X13.4012 Y11.5394
G01 X13.3830 Y11.5384
G01 X13.3649 Y11.5356
G01 X13.3472 Y11.5309
G01 X13.3302 Y11.5243
G01 X13.3112 Y11.5145
G01 X13.2936 Y11.5024
G01 X13.2775 Y11.4881
G01 X12.7419 Y10.9525
G01 X12.7276 Y10.9364
G01 X12.7155 Y10.9188
G01 X12.7057 Y10.8998
G01 X12.6991 Y10.8828
G01 X12.6944 Y10.8651
G01 X12.6916 Y10.8470
G01 X12.6906 Y10.8288
G01 X12.6906 Y10.0712
G01 X12.6916 Y10.0530
G01 X12.6944 Y10.0349
G01 X12.6991 Y10.0172
G01 X12.7057 Y10.0002
G01 X12.7155 Y9.9812
G01 X12.7276 Y9.9636
G00 Z2.0000
G00 X16.2285 Y8.1275
G01 F60.00
G01 Z-2.4000
G01 F120.00
G01 X16.2488 Y8.1045
G01 X16.7845 Y7.5688
G01 X16.8075 Y7.5485
G01 X16.8326 Y7.5312
G01 X16.8597 Y7.5171
G01 X16.8841 Y7.5078
G01 X16.9093 Y7.5010
G01 X16.9352 Y7.4970
G01 X16.9612 Y7.4956
G01 X17.4434 Y7.4956
G01 X18.0595 Y6.8795
G01 X18.0686 Y6.8712
G01 X18.0684 Y6.8710
G01 X18.1099 Y6.8335
G01 X18.1237 Y6.8225
G01 X18.1632 Y6.7933
G01 X18.1734 Y6.7860
G01 X18.2257 Y6.7544
G01 X18.2424 Y6.7452
G01 X18.2970 Y6.7194
G01 X18.3143 Y6.7124
G01 X18.3606 Y6.6959
G01 X18.3729 Y6.6918
G01 X18.4382 Y6.6753
G01 X18.4557 Y6.6721
G01 X18.5161 Y6.6634
G01 X18.5287 Y6.6625
G01 X18.5777 Y6.6601
G01 X18.5900 Y6.6597
G01 X19.5950 Y6.6597
G01 X19.6535 Y6.5952
G01 X19.6619 Y6.5863
G01 X19.6708 Y6.5779
G01 X19.7425 Y6.5130
G01 X19.7563 Y6.5020
G01 X19.8284 Y6.4485
G01 X19.8387 Y6.4413
G01 X19.8488 Y6.4349
G01 X19.9258 Y6.3887
G01 X19.9425 Y6.3796
G01 X20.0340 Y6.3363
G01 X20.0513 Y6.3294
G01 X20.1358 Y6.2992
G01 X20.1482 Y6.2951
G01 X20.2529 Y6.2687
G01 X20.2704 Y6.2654
G01 X20.3711 Y6.2508
G01 X20.3837 Y6.2498
G01 X20.4733 Y6.2454
G01 X20.4856 Y6.2451
G01 X22.3144 Y6.2451
G01 X22.3267 Y6.2454
G01 X22.4163 Y6.2498
G01 X22.4289 Y6.2508
G01 X22.5296 Y6.2654
G01 X22.5536 Y6.2702
G01 X22.6407 Y6.2920
G01 X22.6518 Y6.2951
G01 X22.6642 Y6.2992
G01 X22.7487 Y6.3294
G01 X22.7660 Y6.3363
G01 X22.8525 Y6.3772
G01 X22.8742 Y6.3887
G01 X22.9512 Y6.4349
G01 X22.9613 Y6.4413
G01 X22.9716 Y6.4485
G01 X23.0437 Y6.5020
G01 X23.0627 Y6.5176
G01 X23.1292 Y6.5779
G01 X23.1381 Y6.5863
G01 X23.1465 Y6.5952
G01 X23.2114 Y6.6669
G01 X23.2224 Y6.6807
G01 X23.2759 Y6.7528
G01 X23.2831 Y6.7631
G01 X23.2895 Y6.7732
G01 X23.3357 Y6.8502
G01 X23.3448 Y6.8669
G01 X23.3881 Y6.9584
G01 X23.3950 Y6.9757
G01 X23.4252 Y7.0602
G01 X23.4293 Y7.0726
G01 X23.4324 Y7.0837
G01 X23.4557 Y7.1773
G01 X23.4590 Y7.1948
G01 X23.4736 Y7.2955
G01 X23.4746 Y7.3081
G01 X23.4790 Y7.3977
G01 X23.4793 Y7.4100
G01 X23.4790 Y7.4223
G01 X23.4746 Y7.5119
G01 X23.4736 Y7.5245
G01 X23.4590 Y7.6252
G01 X23.4557 Y7.6427
G01 X23.4324 Y7.7363
G01 X23.4293 Y7.7474
G01 X23.4252 Y7.7598
G01 X23.3950 Y7.8443
G01 X23.3856 Y7.8670
G01 X23.3448 Y7.9531
G01 X23.3357 Y7.9698
G01 X23.2895 Y8.0468
G01 X23.2831 Y8.0569
G01 X23.2759 Y8.0672
G01 X23.2224 Y8.1393
G01 X23.2114 Y8.1531
G01 X23.1465 Y8.2248
G01 X23.1381 Y8.2337
G01 X23.1292 Y8.2421
G01 X23.0575 Y8.3070
G01 X23.0437 Y8.3180
G01 X22.9716 Y8.3715
G01 X22.9613 Y8.3787
G01 X22.9512 Y8.3851
G01 X22.8742 Y8.4313
G01 X22.8575 Y8.4404
G01 X22.7660 Y8.4837
G01 X22.7487 Y8.4906
G01 X22.6642 Y8.5208
G01 X22.6518 Y8.5249
G01 X22.5471 Y8.5513
G01 X22.5296 Y8.5546
G01 X22.4289 Y8.5692
G01 X22.4163 Y8.5702
G01 X22.3267 Y8.5746
G01 X22.3144 Y8.5749
G01 X20.4856 Y8.5749
G01 X20.4733 Y8.5746
G01 X20.3837 Y8.5702
G01 X20.3711 Y8.5692
G01 X20.2704 Y8.5546
G01 X20.2529 Y8.5513
G01 X20.1482 Y8.5249
G01 X20.1358 Y8.5208
G01 X20.0513 Y8.4906
G01 X20.0340 Y8.4837
G01 X19.9425 Y8.4404
G01 X19.9258 Y8.4313
G01 X19.8488 Y8.3851
G01 X19.8387 Y8.3787
G01 X19.8284 Y8.3715
G01 X19.7563 Y8.3180
G01 X19.7425 Y8.3070
G01 X19.6708 Y8.2421
G01 X19.6619 Y8.2337
G01 X19.6535 Y8.2248
G01 X19.5950 Y8.1603
G01 X18.9008 Y8.1603
G01 X18.5044 Y8.5566
G01 X18.5044 Y9.0388
G01 X18.5030 Y9.0648
G01 X18.4990 Y9.0907
G01 X18.4922 Y9.1159
G01 X18.4828 Y9.1403
G01 X18.4688 Y9.1674
G01 X18.4515 Y9.1925
G01 X18.4312 Y9.2155
G01 X17.8955 Y9.7512
G01 X17.8725 Y9.7715
G01 X17.8474 Y9.7888
G01 X17.8203 Y9.8029
G01 X17.7959 Y9.8122
G01 X17.7707 Y9.8190
G01 X17.7448 Y9.8230
G01 X17.7188 Y9.8244
G01 X16.9612 Y9.8244
G01 X16.9352 Y9.8230
G01 X16.9093 Y9.8190
G01 X16.8841 Y9.8122
G01 X16.8597 Y9.8029
G01 X16.8326 Y9.7888
G01 X16.8075 Y9.7715
G01 X16.7845 Y9.7512
G01 X16.2488 Y9.2155
G01 X16.2285 Y9.1925
G01 X16.2112 Y9.1674
G01 X16.1971 Y9.1403
G01 X16.1878 Y9.1159
G01 X16.1810 Y9.0907
G01 X16.1770 Y9.0648
G01 X16.1756 Y9.0388
G01 X16.1756 Y8.2812
G01 X16.1770 Y8.2552
G01 X16.1810 Y8.2293
G01 X16.1878 Y8.2041
G01 X16.1971 Y8.1797
G01 X16.2112 Y8.1526
G01 X16.2285 Y8.1275
G00 Z2.0000
G00 X21.4400 Y9.7750
G01 F60.00
G01 Z-2.4000
G01 F120.00
G01 X22.4701 Y9.7750
G01 X23.4247 Y8.8203
G01 X23.4247 Y5.8797
G01 X23.1330 Y5.5880
G01 X23.0850 Y5.6406
G01 X23.0123 Y5.7069
G01 X22.9990 Y5.7178
G01 X22.9197 Y5.7763
G01 X22.8356 Y5.8269
G01 X22.8239 Y5.8334
G01 X22.7356 Y5.8751
G01 X22.7235 Y5.8800
G01 X22.6303 Y5.9131
G01 X22.5308 Y5.9381
G01 X22.5186 Y5.9404
G01 X22.4297 Y5.9536
G01 X22.4127 Y5.9552
G01 X22.3144 Y5.9599
G01 X20.4856 Y5.9599
G01 X20.3873 Y5.9552
G01 X20.3703 Y5.9536
G01 X20.2814 Y5.9404
G01 X20.2692 Y5.9381
G01 X20.1775 Y5.9152
G01 X20.1611 Y5.9102
G01 X20.0765 Y5.8800
G01 X20.0644 Y5.8751
G01 X19.9795 Y5.8350
G01 X19.9644 Y5.8269
G01 X19.8803 Y5.7763
G01 X19.8010 Y5.7178
G01 X19.7877 Y5.7069
G01 X19.7150 Y5.6406
G01 X19.6455 Y5.5643
G01 X19.6378 Y5.5546
G01 X19.5844 Y5.4825
G01 X19.5748 Y5.4682
G01 X19.5287 Y5.3912
G01 X19.5222 Y5.3795
G01 X19.4805 Y5.2912
G01 X19.4756 Y5.2791
G01 X19.4454 Y5.1945
G01 X19.4404 Y5.1781
