(G-CODE GENERATED BY FLATCAM v8.99 - www.flatcam.org - Version Date: 2019/12/15)

(Name: drill_1_16.xln_cnc)
(Type: G-code from Excellon)
(Units: MM)

(Created on Saturday, 15 February 2020 at 00:59)

(Feedrate: 30.0 mm/min)
(Feedrate rapids 1500.0 mm/min)

(Z_Cut: -2.1 mm)
(Z_Move: 2.0 mm)
(Z Toolchange: 15.0 mm)
(X,Y Toolchange: 0.0000, 0.0000 mm)
(Z Start: None mm)
(Z End: 2.0 mm)
(Steps per circle: 64)
(Preprocessor Excellon: default)

(X range:    7.7735 ...   21.8065  mm)
(Y range:    0.6335 ...   13.1665  mm)

(Spindle Speed: None RPM)
G21
G90
G94




G01 F30.00
G00 Z2.0000

M03
G00 X12.0000 Y1.6000
G01 Z-2.1000
G01 Z0
G00 Z2.0000
G00 X12.2000 Y7.0000
G01 Z-2.1000
G01 Z0
G00 Z2.0000
M03
G00 X13.7800 Y2.8300
G01 Z-2.1000
G01 Z0
G00 Z2.0000
G00 X17.3400 Y1.0400
G01 Z-2.1000
G01 Z0
G00 Z2.0000
G00 X21.4000 Y2.3300
G01 Z-2.1000
G01 Z0
G00 Z2.0000
G00 X21.4000 Y4.8700
G01 Z-2.1000
G01 Z0
G00 Z2.0000
G00 X21.4000 Y7.4100
G01 Z-2.1000
G01 Z0
G00 Z2.0000
G00 X17.3400 Y8.6600
G01 Z-2.1000
G01 Z0
G00 Z2.0000
G00 X13.7800 Y10.4500
G01 Z-2.1000
G01 Z0
G00 Z2.0000
G00 X15.8000 Y12.7600
G01 Z-2.1000
G01 Z0
G00 Z2.0000
G00 X8.1800 Y12.7600
G01 Z-2.1000
G01 Z0
G00 Z2.0000
M05
G00 Z2.00
G00 X0.0 Y0.0

